(Exported by FreeCAD)
(Post Processor: linuxcnc_post)
(Output Time:2018-10-11 10:11:38.011504)
(begin preamble)
G17 G54 G40 G49 G80 G90
G21
(begin operation: T1: 8mm002)
(machine: not set, mm/min)
(T1: 8mm002)
M6 T1
M3 S12000
(finish operation: T1: 8mm002)
(begin operation: RampEntryDressup007)
(machine: not set, mm/min)
G0 X0.000 Y0.000 Z15.000
G0 X401.370 Y112.538 Z15.000
G0 X401.370 Y112.538 Z10.000
G1 X401.370 Y100.538 Z3.072 F3960.000
G1 X402.542 Y99.367 Z2.115 F3960.000
G1 X401.370 Y100.538 Z1.159 F3960.000
G1 X397.631 Y100.538 Z-1.000 F3960.000
G1 X401.370 Y100.538 Z-3.159 F3960.000
G1 X402.542 Y99.367 Z-4.115 F3960.000
G1 X401.370 Y100.538 Z-5.072 F3960.000
G1 X401.370 Y112.538 Z-12.000 F3960.000
G1 X401.370 Y100.538 Z-12.000 F3960.000
G1 X402.542 Y99.367 Z-12.000 F3960.000
G1 X401.370 Y100.538 Z-12.000 F3960.000
G1 X389.370 Y100.538 Z-12.000 F3960.000
G1 X388.199 Y99.367 Z-12.000 F3960.000
G1 X389.370 Y100.538 Z-12.000 F3960.000
G1 X389.370 Y112.538 Z-12.000 F3960.000
G1 X388.199 Y113.710 Z-12.000 F3960.000
G1 X389.370 Y112.538 Z-12.000 F3960.000
G1 X401.370 Y112.538 Z-12.000 F3960.000
G1 X402.542 Y113.710 Z-12.000 F3960.000
G1 X401.370 Y112.538 Z-12.000 F3960.000
G1 X401.370 Y102.146 Z-18.000 F3960.000
G1 X401.370 Y112.538 Z-24.000 F3960.000
G1 X401.370 Y100.538 Z-24.000 F3960.000
G1 X402.542 Y99.367 Z-24.000 F3960.000
G1 X401.370 Y100.538 Z-24.000 F3960.000
G1 X389.370 Y100.538 Z-24.000 F3960.000
G1 X388.199 Y99.367 Z-24.000 F3960.000
G1 X389.370 Y100.538 Z-24.000 F3960.000
G1 X389.370 Y112.538 Z-24.000 F3960.000
G1 X388.199 Y113.710 Z-24.000 F3960.000
G1 X389.370 Y112.538 Z-24.000 F3960.000
G1 X401.370 Y112.538 Z-24.000 F3960.000
G1 X402.542 Y113.710 Z-24.000 F3960.000
G1 X401.370 Y112.538 Z-24.000 F3960.000
G1 X401.370 Y109.074 Z-26.000 F3960.000
G1 X401.370 Y112.538 Z-28.000 F3960.000
G1 X401.370 Y100.538 Z-28.000 F3960.000
G1 X402.542 Y99.367 Z-28.000 F3960.000
G1 X401.370 Y100.538 Z-28.000 F3960.000
G1 X389.370 Y100.538 Z-28.000 F3960.000
G1 X388.199 Y99.367 Z-28.000 F3960.000
G1 X389.370 Y100.538 Z-28.000 F3960.000
G1 X389.370 Y112.538 Z-28.000 F3960.000
G1 X388.199 Y113.710 Z-28.000 F3960.000
G1 X389.370 Y112.538 Z-28.000 F3960.000
G1 X401.370 Y112.538 Z-28.000 F3960.000
G1 X402.542 Y113.710 Z-28.000 F3960.000
G1 X401.370 Y112.538 Z-28.000 F3960.000
G0 X401.370 Y112.538 Z15.000
G0 X646.521 Y112.538 Z15.000
G0 X646.521 Y112.538 Z10.000
G1 X646.521 Y100.538 Z3.072 F3960.000
G1 X647.693 Y99.367 Z2.115 F3960.000
G1 X646.521 Y100.538 Z1.159 F3960.000
G1 X642.783 Y100.538 Z-1.000 F3960.000
G1 X646.521 Y100.538 Z-3.159 F3960.000
G1 X647.693 Y99.367 Z-4.115 F3960.000
G1 X646.521 Y100.538 Z-5.072 F3960.000
G1 X646.521 Y112.538 Z-12.000 F3960.000
G1 X646.521 Y100.538 Z-12.000 F3960.000
G1 X647.693 Y99.367 Z-12.000 F3960.000
G1 X646.521 Y100.538 Z-12.000 F3960.000
G1 X634.521 Y100.538 Z-12.000 F3960.000
G1 X633.350 Y99.367 Z-12.000 F3960.000
G1 X634.521 Y100.538 Z-12.000 F3960.000
G1 X634.521 Y112.538 Z-12.000 F3960.000
G1 X633.350 Y113.710 Z-12.000 F3960.000
G1 X634.521 Y112.538 Z-12.000 F3960.000
G1 X646.521 Y112.538 Z-12.000 F3960.000
G1 X647.693 Y113.710 Z-12.000 F3960.000
G1 X646.521 Y112.538 Z-12.000 F3960.000
G1 X646.521 Y102.146 Z-18.000 F3960.000
G1 X646.521 Y112.538 Z-24.000 F3960.000
G1 X646.521 Y100.538 Z-24.000 F3960.000
G1 X647.693 Y99.367 Z-24.000 F3960.000
G1 X646.521 Y100.538 Z-24.000 F3960.000
G1 X634.521 Y100.538 Z-24.000 F3960.000
G1 X633.350 Y99.367 Z-24.000 F3960.000
G1 X634.521 Y100.538 Z-24.000 F3960.000
G1 X634.521 Y112.538 Z-24.000 F3960.000
G1 X633.350 Y113.710 Z-24.000 F3960.000
G1 X634.521 Y112.538 Z-24.000 F3960.000
G1 X646.521 Y112.538 Z-24.000 F3960.000
G1 X647.693 Y113.710 Z-24.000 F3960.000
G1 X646.521 Y112.538 Z-24.000 F3960.000
G1 X646.521 Y109.074 Z-26.000 F3960.000
G1 X646.521 Y112.538 Z-28.000 F3960.000
G1 X646.521 Y100.538 Z-28.000 F3960.000
G1 X647.693 Y99.367 Z-28.000 F3960.000
G1 X646.521 Y100.538 Z-28.000 F3960.000
G1 X634.521 Y100.538 Z-28.000 F3960.000
G1 X633.350 Y99.367 Z-28.000 F3960.000
G1 X634.521 Y100.538 Z-28.000 F3960.000
G1 X634.521 Y112.538 Z-28.000 F3960.000
G1 X633.350 Y113.710 Z-28.000 F3960.000
G1 X634.521 Y112.538 Z-28.000 F3960.000
G1 X646.521 Y112.538 Z-28.000 F3960.000
G1 X647.693 Y113.710 Z-28.000 F3960.000
G1 X646.521 Y112.538 Z-28.000 F3960.000
G0 X646.521 Y112.538 Z15.000
G0 X341.067 Y292.091 Z15.000
G0 X341.067 Y292.091 Z10.000
G1 X341.067 Y275.091 Z0.185 F3960.000
G1 X342.239 Y273.920 Z-0.772 F3960.000
G1 X341.959 Y274.200 Z-1.000 F3960.000
G1 X342.239 Y273.920 Z-1.228 F3960.000
G1 X341.067 Y275.091 Z-2.185 F3960.000
G1 X341.067 Y292.091 Z-12.000 F3960.000
G1 X341.067 Y275.091 Z-12.000 F3960.000
G1 X342.239 Y273.920 Z-12.000 F3960.000
G1 X341.067 Y275.091 Z-12.000 F3960.000
G1 X329.067 Y275.091 Z-12.000 F3960.000
G1 X327.896 Y273.920 Z-12.000 F3960.000
G1 X329.067 Y275.091 Z-12.000 F3960.000
G1 X329.067 Y292.091 Z-12.000 F3960.000
G1 X327.896 Y293.263 Z-12.000 F3960.000
G1 X329.067 Y292.091 Z-12.000 F3960.000
G1 X341.067 Y292.091 Z-12.000 F3960.000
G1 X342.239 Y293.263 Z-12.000 F3960.000
G1 X341.067 Y292.091 Z-12.000 F3960.000
G1 X341.067 Y281.699 Z-18.000 F3960.000
G1 X341.067 Y292.091 Z-24.000 F3960.000
G1 X341.067 Y275.091 Z-24.000 F3960.000
G1 X342.239 Y273.920 Z-24.000 F3960.000
G1 X341.067 Y275.091 Z-24.000 F3960.000
G1 X329.067 Y275.091 Z-24.000 F3960.000
G1 X327.896 Y273.920 Z-24.000 F3960.000
G1 X329.067 Y275.091 Z-24.000 F3960.000
G1 X329.067 Y292.091 Z-24.000 F3960.000
G1 X327.896 Y293.263 Z-24.000 F3960.000
G1 X329.067 Y292.091 Z-24.000 F3960.000
G1 X341.067 Y292.091 Z-24.000 F3960.000
G1 X342.239 Y293.263 Z-24.000 F3960.000
G1 X341.067 Y292.091 Z-24.000 F3960.000
G1 X341.067 Y288.627 Z-26.000 F3960.000
G1 X341.067 Y292.091 Z-28.000 F3960.000
G1 X341.067 Y275.091 Z-28.000 F3960.000
G1 X342.239 Y273.920 Z-28.000 F3960.000
G1 X341.067 Y275.091 Z-28.000 F3960.000
G1 X329.067 Y275.091 Z-28.000 F3960.000
G1 X327.896 Y273.920 Z-28.000 F3960.000
G1 X329.067 Y275.091 Z-28.000 F3960.000
G1 X329.067 Y292.091 Z-28.000 F3960.000
G1 X327.896 Y293.263 Z-28.000 F3960.000
G1 X329.067 Y292.091 Z-28.000 F3960.000
G1 X341.067 Y292.091 Z-28.000 F3960.000
G1 X342.239 Y293.263 Z-28.000 F3960.000
G1 X341.067 Y292.091 Z-28.000 F3960.000
G0 X341.067 Y292.091 Z15.000
G0 X519.067 Y292.091 Z15.000
G0 X519.067 Y292.091 Z10.000
G1 X519.067 Y275.091 Z0.185 F3960.000
G1 X520.239 Y273.920 Z-0.772 F3960.000
G1 X519.959 Y274.200 Z-1.000 F3960.000
G1 X520.239 Y273.920 Z-1.228 F3960.000
G1 X519.067 Y275.091 Z-2.185 F3960.000
G1 X519.067 Y292.091 Z-12.000 F3960.000
G1 X519.067 Y275.091 Z-12.000 F3960.000
G1 X520.239 Y273.920 Z-12.000 F3960.000
G1 X519.067 Y275.091 Z-12.000 F3960.000
G1 X507.067 Y275.091 Z-12.000 F3960.000
G1 X505.896 Y273.920 Z-12.000 F3960.000
G1 X507.067 Y275.091 Z-12.000 F3960.000
G1 X507.067 Y292.091 Z-12.000 F3960.000
G1 X505.896 Y293.263 Z-12.000 F3960.000
G1 X507.067 Y292.091 Z-12.000 F3960.000
G1 X519.067 Y292.091 Z-12.000 F3960.000
G1 X520.239 Y293.263 Z-12.000 F3960.000
G1 X519.067 Y292.091 Z-12.000 F3960.000
G1 X519.067 Y281.699 Z-18.000 F3960.000
G1 X519.067 Y292.091 Z-24.000 F3960.000
G1 X519.067 Y275.091 Z-24.000 F3960.000
G1 X520.239 Y273.920 Z-24.000 F3960.000
G1 X519.067 Y275.091 Z-24.000 F3960.000
G1 X507.067 Y275.091 Z-24.000 F3960.000
G1 X505.896 Y273.920 Z-24.000 F3960.000
G1 X507.067 Y275.091 Z-24.000 F3960.000
G1 X507.067 Y292.091 Z-24.000 F3960.000
G1 X505.896 Y293.263 Z-24.000 F3960.000
G1 X507.067 Y292.091 Z-24.000 F3960.000
G1 X519.067 Y292.091 Z-24.000 F3960.000
G1 X520.239 Y293.263 Z-24.000 F3960.000
G1 X519.067 Y292.091 Z-24.000 F3960.000
G1 X519.067 Y288.627 Z-26.000 F3960.000
G1 X519.067 Y292.091 Z-28.000 F3960.000
G1 X519.067 Y275.091 Z-28.000 F3960.000
G1 X520.239 Y273.920 Z-28.000 F3960.000
G1 X519.067 Y275.091 Z-28.000 F3960.000
G1 X507.067 Y275.091 Z-28.000 F3960.000
G1 X505.896 Y273.920 Z-28.000 F3960.000
G1 X507.067 Y275.091 Z-28.000 F3960.000
G1 X507.067 Y292.091 Z-28.000 F3960.000
G1 X505.896 Y293.263 Z-28.000 F3960.000
G1 X507.067 Y292.091 Z-28.000 F3960.000
G1 X519.067 Y292.091 Z-28.000 F3960.000
G1 X520.239 Y293.263 Z-28.000 F3960.000
G1 X519.067 Y292.091 Z-28.000 F3960.000
G0 X519.067 Y292.091 Z15.000
G0 X341.067 Y392.091 Z15.000
G0 X341.067 Y392.091 Z10.000
G1 X341.067 Y375.091 Z0.185 F3960.000
G1 X342.239 Y373.920 Z-0.772 F3960.000
G1 X341.959 Y374.200 Z-1.000 F3960.000
G1 X342.239 Y373.920 Z-1.228 F3960.000
G1 X341.067 Y375.091 Z-2.185 F3960.000
G1 X341.067 Y392.091 Z-12.000 F3960.000
G1 X341.067 Y375.091 Z-12.000 F3960.000
G1 X342.239 Y373.920 Z-12.000 F3960.000
G1 X341.067 Y375.091 Z-12.000 F3960.000
G1 X329.067 Y375.091 Z-12.000 F3960.000
G1 X327.896 Y373.920 Z-12.000 F3960.000
G1 X329.067 Y375.091 Z-12.000 F3960.000
G1 X329.067 Y392.091 Z-12.000 F3960.000
G1 X327.896 Y393.263 Z-12.000 F3960.000
G1 X329.067 Y392.091 Z-12.000 F3960.000
G1 X341.067 Y392.091 Z-12.000 F3960.000
G1 X342.239 Y393.263 Z-12.000 F3960.000
G1 X341.067 Y392.091 Z-12.000 F3960.000
G1 X341.067 Y381.699 Z-18.000 F3960.000
G1 X341.067 Y392.091 Z-24.000 F3960.000
G1 X341.067 Y375.091 Z-24.000 F3960.000
G1 X342.239 Y373.920 Z-24.000 F3960.000
G1 X341.067 Y375.091 Z-24.000 F3960.000
G1 X329.067 Y375.091 Z-24.000 F3960.000
G1 X327.896 Y373.920 Z-24.000 F3960.000
G1 X329.067 Y375.091 Z-24.000 F3960.000
G1 X329.067 Y392.091 Z-24.000 F3960.000
G1 X327.896 Y393.263 Z-24.000 F3960.000
G1 X329.067 Y392.091 Z-24.000 F3960.000
G1 X341.067 Y392.091 Z-24.000 F3960.000
G1 X342.239 Y393.263 Z-24.000 F3960.000
G1 X341.067 Y392.091 Z-24.000 F3960.000
G1 X341.067 Y388.627 Z-26.000 F3960.000
G1 X341.067 Y392.091 Z-28.000 F3960.000
G1 X341.067 Y375.091 Z-28.000 F3960.000
G1 X342.239 Y373.920 Z-28.000 F3960.000
G1 X341.067 Y375.091 Z-28.000 F3960.000
G1 X329.067 Y375.091 Z-28.000 F3960.000
G1 X327.896 Y373.920 Z-28.000 F3960.000
G1 X329.067 Y375.091 Z-28.000 F3960.000
G1 X329.067 Y392.091 Z-28.000 F3960.000
G1 X327.896 Y393.263 Z-28.000 F3960.000
G1 X329.067 Y392.091 Z-28.000 F3960.000
G1 X341.067 Y392.091 Z-28.000 F3960.000
G1 X342.239 Y393.263 Z-28.000 F3960.000
G1 X341.067 Y392.091 Z-28.000 F3960.000
G0 X341.067 Y392.091 Z15.000
G0 X519.067 Y392.091 Z15.000
G0 X519.067 Y392.091 Z10.000
G1 X519.067 Y375.091 Z0.185 F3960.000
G1 X520.239 Y373.920 Z-0.772 F3960.000
G1 X519.959 Y374.200 Z-1.000 F3960.000
G1 X520.239 Y373.920 Z-1.228 F3960.000
G1 X519.067 Y375.091 Z-2.185 F3960.000
G1 X519.067 Y392.091 Z-12.000 F3960.000
G1 X519.067 Y375.091 Z-12.000 F3960.000
G1 X520.239 Y373.920 Z-12.000 F3960.000
G1 X519.067 Y375.091 Z-12.000 F3960.000
G1 X507.067 Y375.091 Z-12.000 F3960.000
G1 X505.896 Y373.920 Z-12.000 F3960.000
G1 X507.067 Y375.091 Z-12.000 F3960.000
G1 X507.067 Y392.091 Z-12.000 F3960.000
G1 X505.896 Y393.263 Z-12.000 F3960.000
G1 X507.067 Y392.091 Z-12.000 F3960.000
G1 X519.067 Y392.091 Z-12.000 F3960.000
G1 X520.239 Y393.263 Z-12.000 F3960.000
G1 X519.067 Y392.091 Z-12.000 F3960.000
G1 X519.067 Y381.699 Z-18.000 F3960.000
G1 X519.067 Y392.091 Z-24.000 F3960.000
G1 X519.067 Y375.091 Z-24.000 F3960.000
G1 X520.239 Y373.920 Z-24.000 F3960.000
G1 X519.067 Y375.091 Z-24.000 F3960.000
G1 X507.067 Y375.091 Z-24.000 F3960.000
G1 X505.896 Y373.920 Z-24.000 F3960.000
G1 X507.067 Y375.091 Z-24.000 F3960.000
G1 X507.067 Y392.091 Z-24.000 F3960.000
G1 X505.896 Y393.263 Z-24.000 F3960.000
G1 X507.067 Y392.091 Z-24.000 F3960.000
G1 X519.067 Y392.091 Z-24.000 F3960.000
G1 X520.239 Y393.263 Z-24.000 F3960.000
G1 X519.067 Y392.091 Z-24.000 F3960.000
G1 X519.067 Y388.627 Z-26.000 F3960.000
G1 X519.067 Y392.091 Z-28.000 F3960.000
G1 X519.067 Y375.091 Z-28.000 F3960.000
G1 X520.239 Y373.920 Z-28.000 F3960.000
G1 X519.067 Y375.091 Z-28.000 F3960.000
G1 X507.067 Y375.091 Z-28.000 F3960.000
G1 X505.896 Y373.920 Z-28.000 F3960.000
G1 X507.067 Y375.091 Z-28.000 F3960.000
G1 X507.067 Y392.091 Z-28.000 F3960.000
G1 X505.896 Y393.263 Z-28.000 F3960.000
G1 X507.067 Y392.091 Z-28.000 F3960.000
G1 X519.067 Y392.091 Z-28.000 F3960.000
G1 X520.239 Y393.263 Z-28.000 F3960.000
G1 X519.067 Y392.091 Z-28.000 F3960.000
G0 X519.067 Y392.091 Z15.000
G0 X409.119 Y740.211 Z15.000
G0 X409.119 Y740.211 Z10.000
G1 X409.119 Y728.211 Z3.072 F3960.000
G1 X410.291 Y727.040 Z2.115 F3960.000
G1 X409.119 Y728.211 Z1.159 F3960.000
G1 X405.380 Y728.211 Z-1.000 F3960.000
G1 X409.119 Y728.211 Z-3.159 F3960.000
G1 X410.291 Y727.040 Z-4.115 F3960.000
G1 X409.119 Y728.211 Z-5.072 F3960.000
G1 X409.119 Y740.211 Z-12.000 F3960.000
G1 X409.119 Y728.211 Z-12.000 F3960.000
G1 X410.291 Y727.040 Z-12.000 F3960.000
G1 X409.119 Y728.211 Z-12.000 F3960.000
G1 X397.119 Y728.211 Z-12.000 F3960.000
G1 X395.948 Y727.040 Z-12.000 F3960.000
G1 X397.119 Y728.211 Z-12.000 F3960.000
G1 X397.119 Y740.211 Z-12.000 F3960.000
G1 X395.948 Y741.383 Z-12.000 F3960.000
G1 X397.119 Y740.211 Z-12.000 F3960.000
G1 X409.119 Y740.211 Z-12.000 F3960.000
G1 X410.291 Y741.383 Z-12.000 F3960.000
G1 X409.119 Y740.211 Z-12.000 F3960.000
G1 X409.119 Y729.819 Z-18.000 F3960.000
G1 X409.119 Y740.211 Z-24.000 F3960.000
G1 X409.119 Y728.211 Z-24.000 F3960.000
G1 X410.291 Y727.040 Z-24.000 F3960.000
G1 X409.119 Y728.211 Z-24.000 F3960.000
G1 X397.119 Y728.211 Z-24.000 F3960.000
G1 X395.948 Y727.040 Z-24.000 F3960.000
G1 X397.119 Y728.211 Z-24.000 F3960.000
G1 X397.119 Y740.211 Z-24.000 F3960.000
G1 X395.948 Y741.383 Z-24.000 F3960.000
G1 X397.119 Y740.211 Z-24.000 F3960.000
G1 X409.119 Y740.211 Z-24.000 F3960.000
G1 X410.291 Y741.383 Z-24.000 F3960.000
G1 X409.119 Y740.211 Z-24.000 F3960.000
G1 X409.119 Y736.747 Z-26.000 F3960.000
G1 X409.119 Y740.211 Z-28.000 F3960.000
G1 X409.119 Y728.211 Z-28.000 F3960.000
G1 X410.291 Y727.040 Z-28.000 F3960.000
G1 X409.119 Y728.211 Z-28.000 F3960.000
G1 X397.119 Y728.211 Z-28.000 F3960.000
G1 X395.948 Y727.040 Z-28.000 F3960.000
G1 X397.119 Y728.211 Z-28.000 F3960.000
G1 X397.119 Y740.211 Z-28.000 F3960.000
G1 X395.948 Y741.383 Z-28.000 F3960.000
G1 X397.119 Y740.211 Z-28.000 F3960.000
G1 X409.119 Y740.211 Z-28.000 F3960.000
G1 X410.291 Y741.383 Z-28.000 F3960.000
G1 X409.119 Y740.211 Z-28.000 F3960.000
G0 X409.119 Y740.211 Z15.000
G0 X654.271 Y740.211 Z15.000
G0 X654.271 Y740.211 Z10.000
G1 X654.271 Y728.211 Z3.072 F3960.000
G1 X655.442 Y727.040 Z2.115 F3960.000
G1 X654.271 Y728.211 Z1.159 F3960.000
G1 X650.532 Y728.211 Z-1.000 F3960.000
G1 X654.271 Y728.211 Z-3.159 F3960.000
G1 X655.442 Y727.040 Z-4.115 F3960.000
G1 X654.271 Y728.211 Z-5.072 F3960.000
G1 X654.271 Y740.211 Z-12.000 F3960.000
G1 X654.271 Y728.211 Z-12.000 F3960.000
G1 X655.442 Y727.040 Z-12.000 F3960.000
G1 X654.271 Y728.211 Z-12.000 F3960.000
G1 X642.271 Y728.211 Z-12.000 F3960.000
G1 X641.099 Y727.040 Z-12.000 F3960.000
G1 X642.271 Y728.211 Z-12.000 F3960.000
G1 X642.271 Y740.211 Z-12.000 F3960.000
G1 X641.099 Y741.383 Z-12.000 F3960.000
G1 X642.271 Y740.211 Z-12.000 F3960.000
G1 X654.271 Y740.211 Z-12.000 F3960.000
G1 X655.442 Y741.383 Z-12.000 F3960.000
G1 X654.271 Y740.211 Z-12.000 F3960.000
G1 X654.271 Y729.819 Z-18.000 F3960.000
G1 X654.271 Y740.211 Z-24.000 F3960.000
G1 X654.271 Y728.211 Z-24.000 F3960.000
G1 X655.442 Y727.040 Z-24.000 F3960.000
G1 X654.271 Y728.211 Z-24.000 F3960.000
G1 X642.271 Y728.211 Z-24.000 F3960.000
G1 X641.099 Y727.040 Z-24.000 F3960.000
G1 X642.271 Y728.211 Z-24.000 F3960.000
G1 X642.271 Y740.211 Z-24.000 F3960.000
G1 X641.099 Y741.383 Z-24.000 F3960.000
G1 X642.271 Y740.211 Z-24.000 F3960.000
G1 X654.271 Y740.211 Z-24.000 F3960.000
G1 X655.442 Y741.383 Z-24.000 F3960.000
G1 X654.271 Y740.211 Z-24.000 F3960.000
G1 X654.271 Y736.747 Z-26.000 F3960.000
G1 X654.271 Y740.211 Z-28.000 F3960.000
G1 X654.271 Y728.211 Z-28.000 F3960.000
G1 X655.442 Y727.040 Z-28.000 F3960.000
G1 X654.271 Y728.211 Z-28.000 F3960.000
G1 X642.271 Y728.211 Z-28.000 F3960.000
G1 X641.099 Y727.040 Z-28.000 F3960.000
G1 X642.271 Y728.211 Z-28.000 F3960.000
G1 X642.271 Y740.211 Z-28.000 F3960.000
G1 X641.099 Y741.383 Z-28.000 F3960.000
G1 X642.271 Y740.211 Z-28.000 F3960.000
G1 X654.271 Y740.211 Z-28.000 F3960.000
G1 X655.442 Y741.383 Z-28.000 F3960.000
G1 X654.271 Y740.211 Z-28.000 F3960.000
G0 X654.271 Y740.211 Z15.000
G0 X306.751 Y864.548 Z15.000
G0 X306.751 Y864.548 Z10.000
G1 X306.751 Y852.548 Z3.072 F3960.000
G1 X307.923 Y851.376 Z2.115 F3960.000
G1 X306.751 Y852.548 Z1.159 F3960.000
G1 X303.012 Y852.548 Z-1.000 F3960.000
G1 X306.751 Y852.548 Z-3.159 F3960.000
G1 X307.923 Y851.376 Z-4.115 F3960.000
G1 X306.751 Y852.548 Z-5.072 F3960.000
G1 X306.751 Y864.548 Z-12.000 F3960.000
G1 X306.751 Y852.548 Z-12.000 F3960.000
G1 X307.923 Y851.376 Z-12.000 F3960.000
G1 X306.751 Y852.548 Z-12.000 F3960.000
G1 X294.751 Y852.548 Z-12.000 F3960.000
G1 X293.580 Y851.376 Z-12.000 F3960.000
G1 X294.751 Y852.548 Z-12.000 F3960.000
G1 X294.751 Y864.548 Z-12.000 F3960.000
G1 X293.580 Y865.719 Z-12.000 F3960.000
G1 X294.751 Y864.548 Z-12.000 F3960.000
G1 X306.751 Y864.548 Z-12.000 F3960.000
G1 X307.923 Y865.719 Z-12.000 F3960.000
G1 X306.751 Y864.548 Z-12.000 F3960.000
G1 X306.751 Y854.155 Z-18.000 F3960.000
G1 X306.751 Y864.548 Z-24.000 F3960.000
G1 X306.751 Y852.548 Z-24.000 F3960.000
G1 X307.923 Y851.376 Z-24.000 F3960.000
G1 X306.751 Y852.548 Z-24.000 F3960.000
G1 X294.751 Y852.548 Z-24.000 F3960.000
G1 X293.580 Y851.376 Z-24.000 F3960.000
G1 X294.751 Y852.548 Z-24.000 F3960.000
G1 X294.751 Y864.548 Z-24.000 F3960.000
G1 X293.580 Y865.719 Z-24.000 F3960.000
G1 X294.751 Y864.548 Z-24.000 F3960.000
G1 X306.751 Y864.548 Z-24.000 F3960.000
G1 X307.923 Y865.719 Z-24.000 F3960.000
G1 X306.751 Y864.548 Z-24.000 F3960.000
G1 X306.751 Y861.084 Z-26.000 F3960.000
G1 X306.751 Y864.548 Z-28.000 F3960.000
G1 X306.751 Y852.548 Z-28.000 F3960.000
G1 X307.923 Y851.376 Z-28.000 F3960.000
G1 X306.751 Y852.548 Z-28.000 F3960.000
G1 X294.751 Y852.548 Z-28.000 F3960.000
G1 X293.580 Y851.376 Z-28.000 F3960.000
G1 X294.751 Y852.548 Z-28.000 F3960.000
G1 X294.751 Y864.548 Z-28.000 F3960.000
G1 X293.580 Y865.719 Z-28.000 F3960.000
G1 X294.751 Y864.548 Z-28.000 F3960.000
G1 X306.751 Y864.548 Z-28.000 F3960.000
G1 X307.923 Y865.719 Z-28.000 F3960.000
G1 X306.751 Y864.548 Z-28.000 F3960.000
G0 X306.751 Y864.548 Z15.000
G0 X551.903 Y864.548 Z15.000
G0 X551.903 Y864.548 Z10.000
G1 X551.903 Y852.548 Z3.072 F3960.000
G1 X553.074 Y851.376 Z2.115 F3960.000
G1 X551.903 Y852.548 Z1.159 F3960.000
G1 X548.164 Y852.548 Z-1.000 F3960.000
G1 X551.903 Y852.548 Z-3.159 F3960.000
G1 X553.074 Y851.376 Z-4.115 F3960.000
G1 X551.903 Y852.548 Z-5.072 F3960.000
G1 X551.903 Y864.548 Z-12.000 F3960.000
G1 X551.903 Y852.548 Z-12.000 F3960.000
G1 X553.074 Y851.376 Z-12.000 F3960.000
G1 X551.903 Y852.548 Z-12.000 F3960.000
G1 X539.903 Y852.548 Z-12.000 F3960.000
G1 X538.731 Y851.376 Z-12.000 F3960.000
G1 X539.903 Y852.548 Z-12.000 F3960.000
G1 X539.903 Y864.548 Z-12.000 F3960.000
G1 X538.731 Y865.719 Z-12.000 F3960.000
G1 X539.903 Y864.548 Z-12.000 F3960.000
G1 X551.903 Y864.548 Z-12.000 F3960.000
G1 X553.074 Y865.719 Z-12.000 F3960.000
G1 X551.903 Y864.548 Z-12.000 F3960.000
G1 X551.903 Y854.155 Z-18.000 F3960.000
G1 X551.903 Y864.548 Z-24.000 F3960.000
G1 X551.903 Y852.548 Z-24.000 F3960.000
G1 X553.074 Y851.376 Z-24.000 F3960.000
G1 X551.903 Y852.548 Z-24.000 F3960.000
G1 X539.903 Y852.548 Z-24.000 F3960.000
G1 X538.731 Y851.376 Z-24.000 F3960.000
G1 X539.903 Y852.548 Z-24.000 F3960.000
G1 X539.903 Y864.548 Z-24.000 F3960.000
G1 X538.731 Y865.719 Z-24.000 F3960.000
G1 X539.903 Y864.548 Z-24.000 F3960.000
G1 X551.903 Y864.548 Z-24.000 F3960.000
G1 X553.074 Y865.719 Z-24.000 F3960.000
G1 X551.903 Y864.548 Z-24.000 F3960.000
G1 X551.903 Y861.084 Z-26.000 F3960.000
G1 X551.903 Y864.548 Z-28.000 F3960.000
G1 X551.903 Y852.548 Z-28.000 F3960.000
G1 X553.074 Y851.376 Z-28.000 F3960.000
G1 X551.903 Y852.548 Z-28.000 F3960.000
G1 X539.903 Y852.548 Z-28.000 F3960.000
G1 X538.731 Y851.376 Z-28.000 F3960.000
G1 X539.903 Y852.548 Z-28.000 F3960.000
G1 X539.903 Y864.548 Z-28.000 F3960.000
G1 X538.731 Y865.719 Z-28.000 F3960.000
G1 X539.903 Y864.548 Z-28.000 F3960.000
G1 X551.903 Y864.548 Z-28.000 F3960.000
G1 X553.074 Y865.719 Z-28.000 F3960.000
G1 X551.903 Y864.548 Z-28.000 F3960.000
G0 X551.903 Y864.548 Z15.000
(finish operation: RampEntryDressup007)
(begin operation: RampEntryDressup003)
(machine: not set, mm/min)
G0 X0.000 Y0.000 Z15.000
G0 X738.228 Y188.967 Z15.000
G0 X738.228 Y188.967 Z10.000
G1 X738.929 Y188.028 Z9.515 F3960.000
G1 X739.478 Y187.030 Z8.957 F3960.000
G1 X739.862 Y185.993 Z8.337 F3960.000
G1 X740.075 Y184.937 Z7.668 F3960.000
G1 X740.112 Y183.883 Z6.963 F3960.000
G1 X739.973 Y182.854 Z6.236 F3960.000
G1 X739.660 Y181.869 Z5.501 F3960.000
G1 X739.179 Y180.948 Z4.774 F3960.000
G1 X738.541 Y180.109 Z4.068 F3960.000
G1 X737.757 Y179.370 Z3.399 F3960.000
G1 X736.844 Y178.745 Z2.779 F3960.000
G1 X735.820 Y178.247 Z2.221 F3960.000
G1 X734.705 Y177.886 Z1.736 F3960.000
G1 X733.521 Y177.793 Z1.061 F3960.000
G1 X732.349 Y177.912 Z0.368 F3960.000
G1 X731.217 Y178.241 Z-0.324 F3960.000
G1 X730.154 Y178.771 Z-1.000 F3960.000
G1 X731.217 Y178.241 Z-1.676 F3960.000
G1 X732.349 Y177.912 Z-2.368 F3960.000
G1 X733.521 Y177.793 Z-3.061 F3960.000
G1 X734.705 Y177.886 Z-3.736 F3960.000
G1 X735.820 Y178.247 Z-4.221 F3960.000
G1 X736.844 Y178.745 Z-4.779 F3960.000
G1 X737.757 Y179.370 Z-5.399 F3960.000
G1 X738.541 Y180.109 Z-6.068 F3960.000
G1 X739.179 Y180.948 Z-6.774 F3960.000
G1 X739.660 Y181.869 Z-7.501 F3960.000
G1 X739.973 Y182.854 Z-8.236 F3960.000
G1 X740.112 Y183.883 Z-8.963 F3960.000
G1 X740.075 Y184.937 Z-9.668 F3960.000
G1 X739.862 Y185.993 Z-10.337 F3960.000
G1 X739.478 Y187.030 Z-10.957 F3960.000
G1 X738.929 Y188.028 Z-11.515 F3960.000
G1 X738.228 Y188.967 Z-12.000 F3960.000
G2 X734.705 Y177.886 Z-12.000 I-4.629 J-4.629 F3960.000
G2 X732.493 Y190.790 Z-12.000 I-1.106 J6.452 F3960.000
G2 X738.228 Y188.967 Z-12.000 I1.106 J-6.452 F3960.000
G1 X738.975 Y188.038 Z-12.593 F3960.000
G1 X739.548 Y187.025 Z-13.241 F3960.000
G1 X739.934 Y185.952 Z-13.928 F3960.000
G1 X740.125 Y184.843 Z-14.640 F3960.000
G1 X740.115 Y183.723 Z-15.360 F3960.000
G1 X739.906 Y182.618 Z-16.072 F3960.000
G1 X739.502 Y181.551 Z-16.759 F3960.000
G1 X738.912 Y180.549 Z-17.407 F3960.000
G1 X738.150 Y179.632 Z-18.000 F3960.000
G1 X738.912 Y180.549 Z-18.593 F3960.000
G1 X739.502 Y181.551 Z-19.241 F3960.000
G1 X739.906 Y182.618 Z-19.928 F3960.000
G1 X740.115 Y183.723 Z-20.640 F3960.000
G1 X740.125 Y184.843 Z-21.360 F3960.000
G1 X739.934 Y185.952 Z-22.072 F3960.000
G1 X739.548 Y187.025 Z-22.759 F3960.000
G1 X738.975 Y188.038 Z-23.407 F3960.000
G1 X738.228 Y188.967 Z-24.000 F3960.000
G2 X734.705 Y177.886 Z-24.000 I-4.629 J-4.629 F3960.000
G2 X732.493 Y190.790 Z-24.000 I-1.106 J6.452 F3960.000
G2 X738.228 Y188.967 Z-24.000 I1.106 J-6.452 F3960.000
G1 X738.969 Y188.081 Z-24.664 F3960.000
G1 X739.542 Y187.084 Z-25.336 F3960.000
G1 X739.932 Y185.997 Z-26.000 F3960.000
G1 X739.542 Y187.084 Z-26.664 F3960.000
G1 X738.969 Y188.081 Z-27.336 F3960.000
G1 X738.228 Y188.967 Z-28.000 F3960.000
G2 X734.705 Y177.886 Z-28.000 I-4.629 J-4.629 F3960.000
G2 X732.493 Y190.790 Z-28.000 I-1.106 J6.452 F3960.000
G2 X738.228 Y188.967 Z-28.000 I1.106 J-6.452 F3960.000
G0 X738.228 Y188.967 Z15.000
G0 X738.228 Y258.967 Z15.000
G0 X738.228 Y258.967 Z10.000
G1 X738.929 Y258.028 Z9.515 F3960.000
G1 X739.478 Y257.030 Z8.957 F3960.000
G1 X739.862 Y255.993 Z8.337 F3960.000
G1 X740.075 Y254.937 Z7.668 F3960.000
G1 X740.112 Y253.883 Z6.963 F3960.000
G1 X739.973 Y252.854 Z6.236 F3960.000
G1 X739.660 Y251.869 Z5.501 F3960.000
G1 X739.179 Y250.948 Z4.774 F3960.000
G1 X738.541 Y250.109 Z4.068 F3960.000
G1 X737.757 Y249.370 Z3.399 F3960.000
G1 X736.844 Y248.745 Z2.779 F3960.000
G1 X735.820 Y248.247 Z2.221 F3960.000
G1 X734.705 Y247.886 Z1.736 F3960.000
G1 X733.521 Y247.793 Z1.061 F3960.000
G1 X732.349 Y247.912 Z0.368 F3960.000
G1 X731.217 Y248.241 Z-0.324 F3960.000
G1 X730.154 Y248.771 Z-1.000 F3960.000
G1 X731.217 Y248.241 Z-1.676 F3960.000
G1 X732.349 Y247.912 Z-2.368 F3960.000
G1 X733.521 Y247.793 Z-3.061 F3960.000
G1 X734.705 Y247.886 Z-3.736 F3960.000
G1 X735.820 Y248.247 Z-4.221 F3960.000
G1 X736.844 Y248.745 Z-4.779 F3960.000
G1 X737.757 Y249.370 Z-5.399 F3960.000
G1 X738.541 Y250.109 Z-6.068 F3960.000
G1 X739.179 Y250.948 Z-6.774 F3960.000
G1 X739.660 Y251.869 Z-7.501 F3960.000
G1 X739.973 Y252.854 Z-8.236 F3960.000
G1 X740.112 Y253.883 Z-8.963 F3960.000
G1 X740.075 Y254.937 Z-9.668 F3960.000
G1 X739.862 Y255.993 Z-10.337 F3960.000
G1 X739.478 Y257.030 Z-10.957 F3960.000
G1 X738.929 Y258.028 Z-11.515 F3960.000
G1 X738.228 Y258.967 Z-12.000 F3960.000
G2 X734.705 Y247.886 Z-12.000 I-4.629 J-4.629 F3960.000
G2 X732.493 Y260.790 Z-12.000 I-1.106 J6.452 F3960.000
G2 X738.228 Y258.967 Z-12.000 I1.106 J-6.452 F3960.000
G1 X738.975 Y258.038 Z-12.593 F3960.000
G1 X739.548 Y257.025 Z-13.241 F3960.000
G1 X739.934 Y255.952 Z-13.928 F3960.000
G1 X740.125 Y254.843 Z-14.640 F3960.000
G1 X740.115 Y253.723 Z-15.360 F3960.000
G1 X739.906 Y252.618 Z-16.072 F3960.000
G1 X739.502 Y251.551 Z-16.759 F3960.000
G1 X738.912 Y250.549 Z-17.407 F3960.000
G1 X738.150 Y249.632 Z-18.000 F3960.000
G1 X738.912 Y250.549 Z-18.593 F3960.000
G1 X739.502 Y251.551 Z-19.241 F3960.000
G1 X739.906 Y252.618 Z-19.928 F3960.000
G1 X740.115 Y253.723 Z-20.640 F3960.000
G1 X740.125 Y254.843 Z-21.360 F3960.000
G1 X739.934 Y255.952 Z-22.072 F3960.000
G1 X739.548 Y257.025 Z-22.759 F3960.000
G1 X738.975 Y258.038 Z-23.407 F3960.000
G1 X738.228 Y258.967 Z-24.000 F3960.000
G2 X734.705 Y247.886 Z-24.000 I-4.629 J-4.629 F3960.000
G2 X732.493 Y260.790 Z-24.000 I-1.106 J6.452 F3960.000
G2 X738.228 Y258.967 Z-24.000 I1.106 J-6.452 F3960.000
G1 X738.969 Y258.081 Z-24.664 F3960.000
G1 X739.542 Y257.084 Z-25.336 F3960.000
G1 X739.932 Y255.997 Z-26.000 F3960.000
G1 X739.542 Y257.084 Z-26.664 F3960.000
G1 X738.969 Y258.081 Z-27.336 F3960.000
G1 X738.228 Y258.967 Z-28.000 F3960.000
G2 X734.705 Y247.886 Z-28.000 I-4.629 J-4.629 F3960.000
G2 X732.493 Y260.790 Z-28.000 I-1.106 J6.452 F3960.000
G2 X738.228 Y258.967 Z-28.000 I1.106 J-6.452 F3960.000
G0 X738.228 Y258.967 Z15.000
G0 X340.737 Y851.958 Z15.000
G0 X340.737 Y851.958 Z10.000
G1 X340.946 Y851.681 Z9.854 F3960.000
G1 X341.111 Y851.386 Z9.687 F3960.000
G1 X341.229 Y851.080 Z9.503 F3960.000
G1 X341.297 Y850.767 Z9.304 F3960.000
G1 X341.314 Y850.453 Z9.096 F3960.000
G1 X341.279 Y850.146 Z8.881 F3960.000
G1 X341.194 Y849.850 Z8.665 F3960.000
G1 X341.059 Y849.571 Z8.450 F3960.000
G1 X340.879 Y849.314 Z8.242 F3960.000
G1 X340.655 Y849.086 Z8.044 F3960.000
G1 X340.392 Y848.888 Z7.859 F3960.000
G1 X340.095 Y848.727 Z7.692 F3960.000
G1 X339.771 Y848.604 Z7.546 F3960.000
G1 X339.405 Y848.622 Z7.456 F3960.000
G1 X339.052 Y848.678 Z7.335 F3960.000
G1 X338.718 Y848.771 Z7.186 F3960.000
G1 X338.409 Y848.900 Z7.010 F3960.000
G1 X338.132 Y849.061 Z6.812 F3960.000
G1 X337.890 Y849.252 Z6.594 F3960.000
G1 X337.689 Y849.470 Z6.360 F3960.000
G1 X337.531 Y849.710 Z6.116 F3960.000
G1 X337.421 Y849.969 Z5.865 F3960.000
G1 X337.358 Y850.242 Z5.611 F3960.000
G1 X337.346 Y850.523 Z5.360 F3960.000
G1 X337.384 Y850.808 Z5.116 F3960.000
G1 X337.470 Y851.092 Z4.882 F3960.000
G1 X337.605 Y851.369 Z4.665 F3960.000
G1 X337.785 Y851.635 Z4.466 F3960.000
G1 X338.007 Y851.884 Z4.290 F3960.000
G1 X338.268 Y852.113 Z4.141 F3960.000
G1 X338.561 Y852.316 Z4.020 F3960.000
G1 X338.883 Y852.492 Z3.930 F3960.000
G1 X339.219 Y852.538 Z3.743 F3960.000
G1 X339.553 Y852.528 Z3.548 F3960.000
G1 X339.879 Y852.464 Z3.349 F3960.000
G1 X340.189 Y852.345 Z3.150 F3960.000
G1 X340.477 Y852.175 Z2.954 F3960.000
G1 X340.737 Y851.958 Z2.768 F3960.000
G1 X340.477 Y852.175 Z2.581 F3960.000
G1 X340.189 Y852.345 Z2.386 F3960.000
G1 X339.879 Y852.464 Z2.186 F3960.000
G1 X339.553 Y852.528 Z1.987 F3960.000
G1 X339.219 Y852.538 Z1.792 F3960.000
G1 X338.883 Y852.492 Z1.605 F3960.000
G1 X338.561 Y852.316 Z1.515 F3960.000
G1 X338.268 Y852.113 Z1.394 F3960.000
G1 X338.007 Y851.884 Z1.245 F3960.000
G1 X337.785 Y851.635 Z1.069 F3960.000
G1 X337.605 Y851.369 Z0.871 F3960.000
G1 X337.470 Y851.092 Z0.653 F3960.000
G1 X337.384 Y850.808 Z0.420 F3960.000
G1 X337.346 Y850.523 Z0.175 F3960.000
G1 X337.358 Y850.242 Z-0.076 F3960.000
G1 X337.421 Y849.969 Z-0.330 F3960.000
G1 X337.531 Y849.710 Z-0.581 F3960.000
G1 X337.689 Y849.470 Z-0.825 F3960.000
G1 X337.890 Y849.252 Z-1.058 F3960.000
G1 X338.132 Y849.061 Z-1.276 F3960.000
G1 X338.409 Y848.900 Z-1.475 F3960.000
G1 X338.718 Y848.771 Z-1.650 F3960.000
G1 X339.052 Y848.678 Z-1.800 F3960.000
G1 X339.405 Y848.622 Z-1.921 F3960.000
G1 X339.771 Y848.604 Z-2.011 F3960.000
G1 X340.095 Y848.727 Z-2.157 F3960.000
G1 X340.392 Y848.888 Z-2.324 F3960.000
G1 X340.655 Y849.086 Z-2.508 F3960.000
G1 X340.879 Y849.314 Z-2.706 F3960.000
G1 X341.059 Y849.571 Z-2.915 F3960.000
G1 X341.194 Y849.850 Z-3.129 F3960.000
G1 X341.279 Y850.146 Z-3.346 F3960.000
G1 X341.314 Y850.453 Z-3.561 F3960.000
G1 X341.297 Y850.767 Z-3.769 F3960.000
G1 X341.229 Y851.080 Z-3.967 F3960.000
G1 X341.111 Y851.386 Z-4.152 F3960.000
G1 X340.946 Y851.681 Z-4.318 F3960.000
G1 X340.737 Y851.958 Z-4.465 F3960.000
G1 X340.946 Y851.681 Z-4.611 F3960.000
G1 X341.111 Y851.386 Z-4.778 F3960.000
G1 X341.229 Y851.080 Z-4.962 F3960.000
G1 X341.297 Y850.767 Z-5.160 F3960.000
G1 X341.314 Y850.453 Z-5.369 F3960.000
G1 X341.279 Y850.146 Z-5.583 F3960.000
G1 X341.194 Y849.850 Z-5.800 F3960.000
G1 X341.059 Y849.571 Z-6.014 F3960.000
G1 X340.879 Y849.314 Z-6.223 F3960.000
G1 X340.655 Y849.086 Z-6.421 F3960.000
G1 X340.392 Y848.888 Z-6.605 F3960.000
G1 X340.095 Y848.727 Z-6.772 F3960.000
G1 X339.771 Y848.604 Z-6.918 F3960.000
G1 X339.405 Y848.622 Z-7.008 F3960.000
G1 X339.052 Y848.678 Z-7.129 F3960.000
G1 X338.718 Y848.771 Z-7.279 F3960.000
G1 X338.409 Y848.900 Z-7.455 F3960.000
G1 X338.132 Y849.061 Z-7.653 F3960.000
G1 X337.890 Y849.252 Z-7.871 F3960.000
G1 X337.689 Y849.470 Z-8.104 F3960.000
G1 X337.531 Y849.710 Z-8.349 F3960.000
G1 X337.421 Y849.969 Z-8.600 F3960.000
G1 X337.358 Y850.242 Z-8.853 F3960.000
G1 X337.346 Y850.523 Z-9.105 F3960.000
G1 X337.384 Y850.808 Z-9.349 F3960.000
G1 X337.470 Y851.092 Z-9.582 F3960.000
G1 X337.605 Y851.369 Z-9.800 F3960.000
G1 X337.785 Y851.635 Z-9.999 F3960.000
G1 X338.007 Y851.884 Z-10.174 F3960.000
G1 X338.268 Y852.113 Z-10.324 F3960.000
G1 X338.561 Y852.316 Z-10.445 F3960.000
G1 X338.883 Y852.492 Z-10.535 F3960.000
G1 X339.219 Y852.538 Z-10.721 F3960.000
G1 X339.553 Y852.528 Z-10.917 F3960.000
G1 X339.879 Y852.464 Z-11.116 F3960.000
G1 X340.189 Y852.345 Z-11.315 F3960.000
G1 X340.477 Y852.175 Z-11.510 F3960.000
G1 X340.737 Y851.958 Z-11.697 F3960.000
G1 X340.540 Y852.130 Z-11.849 F3960.000
G1 X340.321 Y852.276 Z-12.000 F3960.000
G2 X338.883 Y852.492 Z-12.000 I-0.994 J-1.728 F3960.000
G3 X339.771 Y848.604 Z-12.000 I0.444 J-1.944 F3960.000
G3 X340.737 Y851.958 Z-12.000 I-0.444 J1.944 F3960.000
G2 X339.771 Y848.604 Z-12.000 I-1.410 J-1.410 F3960.000
G2 X338.883 Y852.492 Z-12.000 I-0.444 J1.944 F3960.000
G2 X340.737 Y851.958 Z-12.000 I0.444 J-1.944 F3960.000
G1 X340.946 Y851.681 Z-12.146 F3960.000
G1 X341.111 Y851.386 Z-12.313 F3960.000
G1 X341.229 Y851.080 Z-12.497 F3960.000
G1 X341.297 Y850.767 Z-12.696 F3960.000
G1 X341.314 Y850.453 Z-12.904 F3960.000
G1 X341.279 Y850.146 Z-13.119 F3960.000
G1 X341.194 Y849.850 Z-13.335 F3960.000
G1 X341.059 Y849.571 Z-13.550 F3960.000
G1 X340.879 Y849.314 Z-13.758 F3960.000
G1 X340.655 Y849.086 Z-13.956 F3960.000
G1 X340.392 Y848.888 Z-14.141 F3960.000
G1 X340.095 Y848.727 Z-14.308 F3960.000
G1 X339.771 Y848.604 Z-14.454 F3960.000
G1 X339.412 Y848.617 Z-14.546 F3960.000
G1 X339.066 Y848.668 Z-14.667 F3960.000
G1 X338.738 Y848.755 Z-14.815 F3960.000
G1 X338.434 Y848.876 Z-14.988 F3960.000
G1 X338.159 Y849.031 Z-15.182 F3960.000
G1 X337.918 Y849.215 Z-15.395 F3960.000
G1 X337.716 Y849.426 Z-15.622 F3960.000
G1 X337.555 Y849.660 Z-15.860 F3960.000
G1 X337.438 Y849.913 Z-16.104 F3960.000
G1 X337.369 Y850.181 Z-16.350 F3960.000
G1 X337.347 Y850.458 Z-16.594 F3960.000
G1 X337.373 Y850.741 Z-16.832 F3960.000
G1 X337.447 Y851.024 Z-17.059 F3960.000
G1 X337.567 Y851.302 Z-17.271 F3960.000
G1 X337.732 Y851.571 Z-17.466 F3960.000
G1 X337.938 Y851.826 Z-17.639 F3960.000
G1 X338.182 Y852.061 Z-17.787 F3960.000
G1 X338.460 Y852.274 Z-17.908 F3960.000
G1 X338.766 Y852.461 Z-18.000 F3960.000
G1 X338.460 Y852.274 Z-18.092 F3960.000
G1 X338.182 Y852.061 Z-18.213 F3960.000
G1 X337.938 Y851.826 Z-18.361 F3960.000
G1 X337.732 Y851.571 Z-18.534 F3960.000
G1 X337.567 Y851.302 Z-18.729 F3960.000
G1 X337.447 Y851.024 Z-18.941 F3960.000
G1 X337.373 Y850.741 Z-19.168 F3960.000
G1 X337.347 Y850.458 Z-19.406 F3960.000
G1 X337.369 Y850.181 Z-19.650 F3960.000
G1 X337.438 Y849.913 Z-19.896 F3960.000
G1 X337.555 Y849.660 Z-20.140 F3960.000
G1 X337.716 Y849.426 Z-20.378 F3960.000
G1 X337.918 Y849.215 Z-20.605 F3960.000
G1 X338.159 Y849.031 Z-20.818 F3960.000
G1 X338.434 Y848.876 Z-21.012 F3960.000
G1 X338.738 Y848.755 Z-21.185 F3960.000
G1 X339.066 Y848.668 Z-21.333 F3960.000
G1 X339.412 Y848.617 Z-21.454 F3960.000
G1 X339.771 Y848.604 Z-21.546 F3960.000
G1 X340.095 Y848.727 Z-21.692 F3960.000
G1 X340.392 Y848.888 Z-21.859 F3960.000
G1 X340.655 Y849.086 Z-22.044 F3960.000
G1 X340.879 Y849.314 Z-22.242 F3960.000
G1 X341.059 Y849.571 Z-22.450 F3960.000
G1 X341.194 Y849.850 Z-22.665 F3960.000
G1 X341.279 Y850.146 Z-22.881 F3960.000
G1 X341.314 Y850.453 Z-23.096 F3960.000
G1 X341.297 Y850.767 Z-23.304 F3960.000
G1 X341.229 Y851.080 Z-23.503 F3960.000
G1 X341.111 Y851.386 Z-23.687 F3960.000
G1 X340.946 Y851.681 Z-23.854 F3960.000
G1 X340.737 Y851.958 Z-24.000 F3960.000
G2 X339.771 Y848.604 Z-24.000 I-1.410 J-1.410 F3960.000
G2 X338.883 Y852.492 Z-24.000 I-0.444 J1.944 F3960.000
G2 X340.737 Y851.958 Z-24.000 I0.444 J-1.944 F3960.000
G1 X340.961 Y851.675 Z-24.172 F3960.000
G1 X341.134 Y851.370 Z-24.363 F3960.000
G1 X341.252 Y851.048 Z-24.567 F3960.000
G1 X341.312 Y850.716 Z-24.781 F3960.000
G1 X341.314 Y850.382 Z-25.000 F3960.000
G1 X341.257 Y850.053 Z-25.219 F3960.000
G1 X341.142 Y849.735 Z-25.433 F3960.000
G1 X340.972 Y849.437 Z-25.637 F3960.000
G1 X340.751 Y849.165 Z-25.828 F3960.000
G1 X340.483 Y848.924 Z-26.000 F3960.000
G1 X340.751 Y849.165 Z-26.172 F3960.000
G1 X340.972 Y849.437 Z-26.363 F3960.000
G1 X341.142 Y849.735 Z-26.567 F3960.000
G1 X341.257 Y850.053 Z-26.781 F3960.000
G1 X341.314 Y850.382 Z-27.000 F3960.000
G1 X341.312 Y850.716 Z-27.219 F3960.000
G1 X341.252 Y851.048 Z-27.433 F3960.000
G1 X341.134 Y851.370 Z-27.637 F3960.000
G1 X340.961 Y851.675 Z-27.828 F3960.000
G1 X340.737 Y851.958 Z-28.000 F3960.000
G2 X339.771 Y848.604 Z-28.000 I-1.410 J-1.410 F3960.000
G2 X338.883 Y852.492 Z-28.000 I-0.444 J1.944 F3960.000
G2 X340.737 Y851.958 Z-28.000 I0.444 J-1.944 F3960.000
G0 X340.737 Y851.958 Z15.000
G0 X508.737 Y851.958 Z15.000
G0 X508.737 Y851.958 Z10.000
G1 X508.946 Y851.681 Z9.854 F3960.000
G1 X509.111 Y851.386 Z9.687 F3960.000
G1 X509.229 Y851.080 Z9.503 F3960.000
G1 X509.297 Y850.767 Z9.304 F3960.000
G1 X509.314 Y850.453 Z9.096 F3960.000
G1 X509.279 Y850.146 Z8.881 F3960.000
G1 X509.194 Y849.850 Z8.665 F3960.000
G1 X509.059 Y849.571 Z8.450 F3960.000
G1 X508.879 Y849.314 Z8.242 F3960.000
G1 X508.655 Y849.086 Z8.044 F3960.000
G1 X508.392 Y848.888 Z7.859 F3960.000
G1 X508.095 Y848.727 Z7.692 F3960.000
G1 X507.771 Y848.604 Z7.546 F3960.000
G1 X507.405 Y848.622 Z7.456 F3960.000
G1 X507.052 Y848.678 Z7.335 F3960.000
G1 X506.718 Y848.771 Z7.186 F3960.000
G1 X506.409 Y848.900 Z7.010 F3960.000
G1 X506.132 Y849.061 Z6.812 F3960.000
G1 X505.890 Y849.252 Z6.594 F3960.000
G1 X505.689 Y849.470 Z6.360 F3960.000
G1 X505.531 Y849.710 Z6.116 F3960.000
G1 X505.421 Y849.969 Z5.865 F3960.000
G1 X505.358 Y850.242 Z5.611 F3960.000
G1 X505.346 Y850.523 Z5.360 F3960.000
G1 X505.384 Y850.808 Z5.116 F3960.000
G1 X505.470 Y851.092 Z4.882 F3960.000
G1 X505.605 Y851.369 Z4.665 F3960.000
G1 X505.785 Y851.635 Z4.466 F3960.000
G1 X506.007 Y851.884 Z4.290 F3960.000
G1 X506.268 Y852.113 Z4.141 F3960.000
G1 X506.561 Y852.316 Z4.020 F3960.000
G1 X506.883 Y852.492 Z3.930 F3960.000
G1 X507.219 Y852.538 Z3.743 F3960.000
G1 X507.553 Y852.528 Z3.548 F3960.000
G1 X507.879 Y852.464 Z3.349 F3960.000
G1 X508.189 Y852.345 Z3.150 F3960.000
G1 X508.477 Y852.175 Z2.954 F3960.000
G1 X508.737 Y851.958 Z2.768 F3960.000
G1 X508.477 Y852.175 Z2.581 F3960.000
G1 X508.189 Y852.345 Z2.386 F3960.000
G1 X507.879 Y852.464 Z2.186 F3960.000
G1 X507.553 Y852.528 Z1.987 F3960.000
G1 X507.219 Y852.538 Z1.792 F3960.000
G1 X506.883 Y852.492 Z1.605 F3960.000
G1 X506.561 Y852.316 Z1.515 F3960.000
G1 X506.268 Y852.113 Z1.394 F3960.000
G1 X506.007 Y851.884 Z1.245 F3960.000
G1 X505.785 Y851.635 Z1.069 F3960.000
G1 X505.605 Y851.369 Z0.871 F3960.000
G1 X505.470 Y851.092 Z0.653 F3960.000
G1 X505.384 Y850.808 Z0.420 F3960.000
G1 X505.346 Y850.523 Z0.175 F3960.000
G1 X505.358 Y850.242 Z-0.076 F3960.000
G1 X505.421 Y849.969 Z-0.330 F3960.000
G1 X505.531 Y849.710 Z-0.581 F3960.000
G1 X505.689 Y849.470 Z-0.825 F3960.000
G1 X505.890 Y849.252 Z-1.058 F3960.000
G1 X506.132 Y849.061 Z-1.276 F3960.000
G1 X506.409 Y848.900 Z-1.475 F3960.000
G1 X506.718 Y848.771 Z-1.650 F3960.000
G1 X507.052 Y848.678 Z-1.800 F3960.000
G1 X507.405 Y848.622 Z-1.921 F3960.000
G1 X507.771 Y848.604 Z-2.011 F3960.000
G1 X508.095 Y848.727 Z-2.157 F3960.000
G1 X508.392 Y848.888 Z-2.324 F3960.000
G1 X508.655 Y849.086 Z-2.508 F3960.000
G1 X508.879 Y849.314 Z-2.706 F3960.000
G1 X509.059 Y849.571 Z-2.915 F3960.000
G1 X509.194 Y849.850 Z-3.129 F3960.000
G1 X509.279 Y850.146 Z-3.346 F3960.000
G1 X509.314 Y850.453 Z-3.561 F3960.000
G1 X509.297 Y850.767 Z-3.769 F3960.000
G1 X509.229 Y851.080 Z-3.967 F3960.000
G1 X509.111 Y851.386 Z-4.152 F3960.000
G1 X508.946 Y851.681 Z-4.318 F3960.000
G1 X508.737 Y851.958 Z-4.465 F3960.000
G1 X508.946 Y851.681 Z-4.611 F3960.000
G1 X509.111 Y851.386 Z-4.778 F3960.000
G1 X509.229 Y851.080 Z-4.962 F3960.000
G1 X509.297 Y850.767 Z-5.160 F3960.000
G1 X509.314 Y850.453 Z-5.369 F3960.000
G1 X509.279 Y850.146 Z-5.583 F3960.000
G1 X509.194 Y849.850 Z-5.800 F3960.000
G1 X509.059 Y849.571 Z-6.014 F3960.000
G1 X508.879 Y849.314 Z-6.223 F3960.000
G1 X508.655 Y849.086 Z-6.421 F3960.000
G1 X508.392 Y848.888 Z-6.605 F3960.000
G1 X508.095 Y848.727 Z-6.772 F3960.000
G1 X507.771 Y848.604 Z-6.918 F3960.000
G1 X507.405 Y848.622 Z-7.008 F3960.000
G1 X507.052 Y848.678 Z-7.129 F3960.000
G1 X506.718 Y848.771 Z-7.279 F3960.000
G1 X506.409 Y848.900 Z-7.455 F3960.000
G1 X506.132 Y849.061 Z-7.653 F3960.000
G1 X505.890 Y849.252 Z-7.871 F3960.000
G1 X505.689 Y849.470 Z-8.104 F3960.000
G1 X505.531 Y849.710 Z-8.349 F3960.000
G1 X505.421 Y849.969 Z-8.600 F3960.000
G1 X505.358 Y850.242 Z-8.853 F3960.000
G1 X505.346 Y850.523 Z-9.105 F3960.000
G1 X505.384 Y850.808 Z-9.349 F3960.000
G1 X505.470 Y851.092 Z-9.582 F3960.000
G1 X505.605 Y851.369 Z-9.800 F3960.000
G1 X505.785 Y851.635 Z-9.999 F3960.000
G1 X506.007 Y851.884 Z-10.174 F3960.000
G1 X506.268 Y852.113 Z-10.324 F3960.000
G1 X506.561 Y852.316 Z-10.445 F3960.000
G1 X506.883 Y852.492 Z-10.535 F3960.000
G1 X507.219 Y852.538 Z-10.721 F3960.000
G1 X507.553 Y852.528 Z-10.917 F3960.000
G1 X507.879 Y852.464 Z-11.116 F3960.000
G1 X508.189 Y852.345 Z-11.315 F3960.000
G1 X508.477 Y852.175 Z-11.510 F3960.000
G1 X508.737 Y851.958 Z-11.697 F3960.000
G1 X508.540 Y852.130 Z-11.849 F3960.000
G1 X508.321 Y852.276 Z-12.000 F3960.000
G2 X506.883 Y852.492 Z-12.000 I-0.994 J-1.728 F3960.000
G3 X507.771 Y848.604 Z-12.000 I0.444 J-1.944 F3960.000
G3 X508.737 Y851.958 Z-12.000 I-0.444 J1.944 F3960.000
G2 X507.771 Y848.604 Z-12.000 I-1.410 J-1.410 F3960.000
G2 X506.883 Y852.492 Z-12.000 I-0.444 J1.944 F3960.000
G2 X508.737 Y851.958 Z-12.000 I0.444 J-1.944 F3960.000
G1 X508.946 Y851.681 Z-12.146 F3960.000
G1 X509.111 Y851.386 Z-12.313 F3960.000
G1 X509.229 Y851.080 Z-12.497 F3960.000
G1 X509.297 Y850.767 Z-12.696 F3960.000
G1 X509.314 Y850.453 Z-12.904 F3960.000
G1 X509.279 Y850.146 Z-13.119 F3960.000
G1 X509.194 Y849.850 Z-13.335 F3960.000
G1 X509.059 Y849.571 Z-13.550 F3960.000
G1 X508.879 Y849.314 Z-13.758 F3960.000
G1 X508.655 Y849.086 Z-13.956 F3960.000
G1 X508.392 Y848.888 Z-14.141 F3960.000
G1 X508.095 Y848.727 Z-14.308 F3960.000
G1 X507.771 Y848.604 Z-14.454 F3960.000
G1 X507.412 Y848.617 Z-14.546 F3960.000
G1 X507.066 Y848.668 Z-14.667 F3960.000
G1 X506.738 Y848.755 Z-14.815 F3960.000
G1 X506.434 Y848.876 Z-14.988 F3960.000
G1 X506.159 Y849.031 Z-15.182 F3960.000
G1 X505.918 Y849.215 Z-15.395 F3960.000
G1 X505.716 Y849.426 Z-15.622 F3960.000
G1 X505.555 Y849.660 Z-15.860 F3960.000
G1 X505.438 Y849.913 Z-16.104 F3960.000
G1 X505.369 Y850.181 Z-16.350 F3960.000
G1 X505.347 Y850.458 Z-16.594 F3960.000
G1 X505.373 Y850.741 Z-16.832 F3960.000
G1 X505.447 Y851.024 Z-17.059 F3960.000
G1 X505.567 Y851.302 Z-17.271 F3960.000
G1 X505.732 Y851.571 Z-17.466 F3960.000
G1 X505.938 Y851.826 Z-17.639 F3960.000
G1 X506.182 Y852.061 Z-17.787 F3960.000
G1 X506.460 Y852.274 Z-17.908 F3960.000
G1 X506.766 Y852.461 Z-18.000 F3960.000
G1 X506.460 Y852.274 Z-18.092 F3960.000
G1 X506.182 Y852.061 Z-18.213 F3960.000
G1 X505.938 Y851.826 Z-18.361 F3960.000
G1 X505.732 Y851.571 Z-18.534 F3960.000
G1 X505.567 Y851.302 Z-18.729 F3960.000
G1 X505.447 Y851.024 Z-18.941 F3960.000
G1 X505.373 Y850.741 Z-19.168 F3960.000
G1 X505.347 Y850.458 Z-19.406 F3960.000
G1 X505.369 Y850.181 Z-19.650 F3960.000
G1 X505.438 Y849.913 Z-19.896 F3960.000
G1 X505.555 Y849.660 Z-20.140 F3960.000
G1 X505.716 Y849.426 Z-20.378 F3960.000
G1 X505.918 Y849.215 Z-20.605 F3960.000
G1 X506.159 Y849.031 Z-20.818 F3960.000
G1 X506.434 Y848.876 Z-21.012 F3960.000
G1 X506.738 Y848.755 Z-21.185 F3960.000
G1 X507.066 Y848.668 Z-21.333 F3960.000
G1 X507.412 Y848.617 Z-21.454 F3960.000
G1 X507.771 Y848.604 Z-21.546 F3960.000
G1 X508.095 Y848.727 Z-21.692 F3960.000
G1 X508.392 Y848.888 Z-21.859 F3960.000
G1 X508.655 Y849.086 Z-22.044 F3960.000
G1 X508.879 Y849.314 Z-22.242 F3960.000
G1 X509.059 Y849.571 Z-22.450 F3960.000
G1 X509.194 Y849.850 Z-22.665 F3960.000
G1 X509.279 Y850.146 Z-22.881 F3960.000
G1 X509.314 Y850.453 Z-23.096 F3960.000
G1 X509.297 Y850.767 Z-23.304 F3960.000
G1 X509.229 Y851.080 Z-23.503 F3960.000
G1 X509.111 Y851.386 Z-23.687 F3960.000
G1 X508.946 Y851.681 Z-23.854 F3960.000
G1 X508.737 Y851.958 Z-24.000 F3960.000
G2 X507.771 Y848.604 Z-24.000 I-1.410 J-1.410 F3960.000
G2 X506.883 Y852.492 Z-24.000 I-0.444 J1.944 F3960.000
G2 X508.737 Y851.958 Z-24.000 I0.444 J-1.944 F3960.000
G1 X508.961 Y851.675 Z-24.172 F3960.000
G1 X509.134 Y851.370 Z-24.363 F3960.000
G1 X509.252 Y851.048 Z-24.567 F3960.000
G1 X509.312 Y850.716 Z-24.781 F3960.000
G1 X509.314 Y850.382 Z-25.000 F3960.000
G1 X509.257 Y850.053 Z-25.219 F3960.000
G1 X509.142 Y849.735 Z-25.433 F3960.000
G1 X508.972 Y849.437 Z-25.637 F3960.000
G1 X508.751 Y849.165 Z-25.828 F3960.000
G1 X508.483 Y848.924 Z-26.000 F3960.000
G1 X508.751 Y849.165 Z-26.172 F3960.000
G1 X508.972 Y849.437 Z-26.363 F3960.000
G1 X509.142 Y849.735 Z-26.567 F3960.000
G1 X509.257 Y850.053 Z-26.781 F3960.000
G1 X509.314 Y850.382 Z-27.000 F3960.000
G1 X509.312 Y850.716 Z-27.219 F3960.000
G1 X509.252 Y851.048 Z-27.433 F3960.000
G1 X509.134 Y851.370 Z-27.637 F3960.000
G1 X508.961 Y851.675 Z-27.828 F3960.000
G1 X508.737 Y851.958 Z-28.000 F3960.000
G2 X507.771 Y848.604 Z-28.000 I-1.410 J-1.410 F3960.000
G2 X506.883 Y852.492 Z-28.000 I-0.444 J1.944 F3960.000
G2 X508.737 Y851.958 Z-28.000 I0.444 J-1.944 F3960.000
G0 X508.737 Y851.958 Z15.000
G0 X265.383 Y1015.433 Z15.000
G0 X265.383 Y1015.433 Z10.000
G1 X266.074 Y1014.517 Z9.519 F3960.000
G1 X266.618 Y1013.543 Z8.969 F3960.000
G1 X267.004 Y1012.529 Z8.360 F3960.000
G1 X267.224 Y1011.496 Z7.705 F3960.000
G1 X267.276 Y1010.461 Z7.016 F3960.000
G1 X267.156 Y1009.447 Z6.307 F3960.000
G1 X266.869 Y1008.472 Z5.590 F3960.000
G1 X266.419 Y1007.555 Z4.881 F3960.000
G1 X265.815 Y1006.714 Z4.192 F3960.000
G1 X265.069 Y1005.965 Z3.537 F3960.000
G1 X264.195 Y1005.322 Z2.928 F3960.000
G1 X263.210 Y1004.799 Z2.378 F3960.000
G1 X262.133 Y1004.404 Z1.897 F3960.000
G1 X261.134 Y1004.269 Z1.328 F3960.000
G1 X260.135 Y1004.287 Z0.743 F3960.000
G1 X259.153 Y1004.456 Z0.154 F3960.000
G1 X258.205 Y1004.775 Z-0.431 F3960.000
G1 X257.309 Y1005.237 Z-1.000 F3960.000
G1 X258.205 Y1004.775 Z-1.569 F3960.000
G1 X259.153 Y1004.456 Z-2.154 F3960.000
G1 X260.135 Y1004.287 Z-2.743 F3960.000
G1 X261.134 Y1004.269 Z-3.328 F3960.000
G1 X262.133 Y1004.404 Z-3.897 F3960.000
G1 X263.210 Y1004.799 Z-4.378 F3960.000
G1 X264.195 Y1005.322 Z-4.928 F3960.000
G1 X265.069 Y1005.965 Z-5.537 F3960.000
G1 X265.815 Y1006.714 Z-6.192 F3960.000
G1 X266.419 Y1007.555 Z-6.881 F3960.000
G1 X266.869 Y1008.472 Z-7.590 F3960.000
G1 X267.156 Y1009.447 Z-8.307 F3960.000
G1 X267.276 Y1010.461 Z-9.016 F3960.000
G1 X267.224 Y1011.496 Z-9.705 F3960.000
G1 X267.004 Y1012.529 Z-10.360 F3960.000
G1 X266.618 Y1013.543 Z-10.969 F3960.000
G1 X266.074 Y1014.517 Z-11.519 F3960.000
G1 X265.383 Y1015.433 Z-12.000 F3960.000
G2 X262.133 Y1004.404 Z-12.000 I-4.629 J-4.629 F3960.000
G2 X254.355 Y1009.424 Z-12.000 I-1.379 J6.399 F3960.000
G2 X259.375 Y1017.203 Z-12.000 I6.399 J1.379 F3960.000
G2 X265.383 Y1015.433 Z-12.000 I1.379 J-6.399 F3960.000
G1 X266.130 Y1014.504 Z-12.593 F3960.000
G1 X266.703 Y1013.491 Z-13.241 F3960.000
G1 X267.089 Y1012.418 Z-13.928 F3960.000
G1 X267.280 Y1011.309 Z-14.640 F3960.000
G1 X267.270 Y1010.189 Z-15.360 F3960.000
G1 X267.061 Y1009.083 Z-16.072 F3960.000
G1 X266.657 Y1008.017 Z-16.759 F3960.000
G1 X266.067 Y1007.014 Z-17.407 F3960.000
G1 X265.305 Y1006.098 Z-18.000 F3960.000
G1 X266.067 Y1007.014 Z-18.593 F3960.000
G1 X266.657 Y1008.017 Z-19.241 F3960.000
G1 X267.061 Y1009.083 Z-19.928 F3960.000
G1 X267.270 Y1010.189 Z-20.640 F3960.000
G1 X267.280 Y1011.309 Z-21.360 F3960.000
G1 X267.089 Y1012.418 Z-22.072 F3960.000
G1 X266.703 Y1013.491 Z-22.759 F3960.000
G1 X266.130 Y1014.504 Z-23.407 F3960.000
G1 X265.383 Y1015.433 Z-24.000 F3960.000
G2 X262.133 Y1004.404 Z-24.000 I-4.629 J-4.629 F3960.000
G2 X254.355 Y1009.424 Z-24.000 I-1.379 J6.399 F3960.000
G2 X259.375 Y1017.203 Z-24.000 I6.399 J1.379 F3960.000
G2 X265.383 Y1015.433 Z-24.000 I1.379 J-6.399 F3960.000
G1 X266.124 Y1014.547 Z-24.664 F3960.000
G1 X266.697 Y1013.549 Z-25.336 F3960.000
G1 X267.087 Y1012.463 Z-26.000 F3960.000
G1 X266.697 Y1013.549 Z-26.664 F3960.000
G1 X266.124 Y1014.547 Z-27.336 F3960.000
G1 X265.383 Y1015.433 Z-28.000 F3960.000
G2 X262.133 Y1004.404 Z-28.000 I-4.629 J-4.629 F3960.000
G2 X254.355 Y1009.424 Z-28.000 I-1.379 J6.399 F3960.000
G2 X259.375 Y1017.203 Z-28.000 I6.399 J1.379 F3960.000
G2 X265.383 Y1015.433 Z-28.000 I1.379 J-6.399 F3960.000
G0 X265.383 Y1015.433 Z15.000
G0 X433.383 Y1015.433 Z15.000
G0 X433.383 Y1015.433 Z10.000
G1 X434.074 Y1014.517 Z9.519 F3960.000
G1 X434.618 Y1013.543 Z8.969 F3960.000
G1 X435.004 Y1012.529 Z8.360 F3960.000
G1 X435.224 Y1011.496 Z7.705 F3960.000
G1 X435.276 Y1010.461 Z7.016 F3960.000
G1 X435.156 Y1009.447 Z6.307 F3960.000
G1 X434.869 Y1008.472 Z5.590 F3960.000
G1 X434.419 Y1007.555 Z4.881 F3960.000
G1 X433.815 Y1006.714 Z4.192 F3960.000
G1 X433.069 Y1005.965 Z3.537 F3960.000
G1 X432.195 Y1005.322 Z2.928 F3960.000
G1 X431.210 Y1004.799 Z2.378 F3960.000
G1 X430.133 Y1004.404 Z1.897 F3960.000
G1 X429.134 Y1004.269 Z1.328 F3960.000
G1 X428.135 Y1004.287 Z0.743 F3960.000
G1 X427.153 Y1004.456 Z0.154 F3960.000
G1 X426.205 Y1004.775 Z-0.431 F3960.000
G1 X425.309 Y1005.237 Z-1.000 F3960.000
G1 X426.205 Y1004.775 Z-1.569 F3960.000
G1 X427.153 Y1004.456 Z-2.154 F3960.000
G1 X428.135 Y1004.287 Z-2.743 F3960.000
G1 X429.134 Y1004.269 Z-3.328 F3960.000
G1 X430.133 Y1004.404 Z-3.897 F3960.000
G1 X431.210 Y1004.799 Z-4.378 F3960.000
G1 X432.195 Y1005.322 Z-4.928 F3960.000
G1 X433.069 Y1005.965 Z-5.537 F3960.000
G1 X433.815 Y1006.714 Z-6.192 F3960.000
G1 X434.419 Y1007.555 Z-6.881 F3960.000
G1 X434.869 Y1008.472 Z-7.590 F3960.000
G1 X435.156 Y1009.447 Z-8.307 F3960.000
G1 X435.276 Y1010.461 Z-9.016 F3960.000
G1 X435.224 Y1011.496 Z-9.705 F3960.000
G1 X435.004 Y1012.529 Z-10.360 F3960.000
G1 X434.618 Y1013.543 Z-10.969 F3960.000
G1 X434.074 Y1014.517 Z-11.519 F3960.000
G1 X433.383 Y1015.433 Z-12.000 F3960.000
G2 X430.133 Y1004.404 Z-12.000 I-4.629 J-4.629 F3960.000
G2 X422.355 Y1009.424 Z-12.000 I-1.379 J6.399 F3960.000
G2 X427.375 Y1017.203 Z-12.000 I6.399 J1.379 F3960.000
G2 X433.383 Y1015.433 Z-12.000 I1.379 J-6.399 F3960.000
G1 X434.130 Y1014.504 Z-12.593 F3960.000
G1 X434.703 Y1013.491 Z-13.241 F3960.000
G1 X435.089 Y1012.418 Z-13.928 F3960.000
G1 X435.280 Y1011.309 Z-14.640 F3960.000
G1 X435.270 Y1010.189 Z-15.360 F3960.000
G1 X435.061 Y1009.083 Z-16.072 F3960.000
G1 X434.657 Y1008.017 Z-16.759 F3960.000
G1 X434.067 Y1007.014 Z-17.407 F3960.000
G1 X433.305 Y1006.098 Z-18.000 F3960.000
G1 X434.067 Y1007.014 Z-18.593 F3960.000
G1 X434.657 Y1008.017 Z-19.241 F3960.000
G1 X435.061 Y1009.083 Z-19.928 F3960.000
G1 X435.270 Y1010.189 Z-20.640 F3960.000
G1 X435.280 Y1011.309 Z-21.360 F3960.000
G1 X435.089 Y1012.418 Z-22.072 F3960.000
G1 X434.703 Y1013.491 Z-22.759 F3960.000
G1 X434.130 Y1014.504 Z-23.407 F3960.000
G1 X433.383 Y1015.433 Z-24.000 F3960.000
G2 X430.133 Y1004.404 Z-24.000 I-4.629 J-4.629 F3960.000
G2 X422.355 Y1009.424 Z-24.000 I-1.379 J6.399 F3960.000
G2 X427.375 Y1017.203 Z-24.000 I6.399 J1.379 F3960.000
G2 X433.383 Y1015.433 Z-24.000 I1.379 J-6.399 F3960.000
G1 X434.124 Y1014.547 Z-24.664 F3960.000
G1 X434.697 Y1013.549 Z-25.336 F3960.000
G1 X435.087 Y1012.463 Z-26.000 F3960.000
G1 X434.697 Y1013.549 Z-26.664 F3960.000
G1 X434.124 Y1014.547 Z-27.336 F3960.000
G1 X433.383 Y1015.433 Z-28.000 F3960.000
G2 X430.133 Y1004.404 Z-28.000 I-4.629 J-4.629 F3960.000
G2 X422.355 Y1009.424 Z-28.000 I-1.379 J6.399 F3960.000
G2 X427.375 Y1017.203 Z-28.000 I6.399 J1.379 F3960.000
G2 X433.383 Y1015.433 Z-28.000 I1.379 J-6.399 F3960.000
G0 X433.383 Y1015.433 Z15.000
G0 X434.439 Y1156.190 Z15.000
G0 X434.439 Y1156.190 Z10.000
G1 X435.130 Y1155.274 Z9.519 F3960.000
G1 X435.674 Y1154.300 Z8.969 F3960.000
G1 X436.060 Y1153.287 Z8.360 F3960.000
G1 X436.280 Y1152.253 Z7.705 F3960.000
G1 X436.332 Y1151.219 Z7.016 F3960.000
G1 X436.212 Y1150.204 Z6.307 F3960.000
G1 X435.925 Y1149.229 Z5.590 F3960.000
G1 X435.475 Y1148.312 Z4.881 F3960.000
G1 X434.871 Y1147.471 Z4.192 F3960.000
G1 X434.125 Y1146.722 Z3.537 F3960.000
G1 X433.251 Y1146.079 Z2.928 F3960.000
G1 X432.266 Y1145.556 Z2.378 F3960.000
G1 X431.189 Y1145.161 Z1.897 F3960.000
G1 X430.190 Y1145.026 Z1.328 F3960.000
G1 X429.191 Y1145.044 Z0.743 F3960.000
G1 X428.209 Y1145.213 Z0.154 F3960.000
G1 X427.261 Y1145.532 Z-0.431 F3960.000
G1 X426.365 Y1145.994 Z-1.000 F3960.000
G1 X427.261 Y1145.532 Z-1.569 F3960.000
G1 X428.209 Y1145.213 Z-2.154 F3960.000
G1 X429.191 Y1145.044 Z-2.743 F3960.000
G1 X430.190 Y1145.026 Z-3.328 F3960.000
G1 X431.189 Y1145.161 Z-3.897 F3960.000
G1 X432.266 Y1145.556 Z-4.378 F3960.000
G1 X433.251 Y1146.079 Z-4.928 F3960.000
G1 X434.125 Y1146.722 Z-5.537 F3960.000
G1 X434.871 Y1147.471 Z-6.192 F3960.000
G1 X435.475 Y1148.312 Z-6.881 F3960.000
G1 X435.925 Y1149.229 Z-7.590 F3960.000
G1 X436.212 Y1150.204 Z-8.307 F3960.000
G1 X436.332 Y1151.219 Z-9.016 F3960.000
G1 X436.280 Y1152.253 Z-9.705 F3960.000
G1 X436.060 Y1153.287 Z-10.360 F3960.000
G1 X435.674 Y1154.300 Z-10.969 F3960.000
G1 X435.130 Y1155.274 Z-11.519 F3960.000
G1 X434.439 Y1156.190 Z-12.000 F3960.000
G2 X431.189 Y1145.161 Z-12.000 I-4.629 J-4.629 F3960.000
G2 X423.411 Y1150.182 Z-12.000 I-1.379 J6.399 F3960.000
G2 X428.431 Y1157.960 Z-12.000 I6.399 J1.379 F3960.000
G2 X434.439 Y1156.190 Z-12.000 I1.379 J-6.399 F3960.000
G1 X435.186 Y1155.261 Z-12.593 F3960.000
G1 X435.759 Y1154.248 Z-13.241 F3960.000
G1 X436.145 Y1153.175 Z-13.928 F3960.000
G1 X436.336 Y1152.066 Z-14.640 F3960.000
G1 X436.326 Y1150.946 Z-15.360 F3960.000
G1 X436.117 Y1149.841 Z-16.072 F3960.000
G1 X435.713 Y1148.774 Z-16.759 F3960.000
G1 X435.123 Y1147.772 Z-17.407 F3960.000
G1 X434.361 Y1146.855 Z-18.000 F3960.000
G1 X435.123 Y1147.772 Z-18.593 F3960.000
G1 X435.713 Y1148.774 Z-19.241 F3960.000
G1 X436.117 Y1149.841 Z-19.928 F3960.000
G1 X436.326 Y1150.946 Z-20.640 F3960.000
G1 X436.336 Y1152.066 Z-21.360 F3960.000
G1 X436.145 Y1153.175 Z-22.072 F3960.000
G1 X435.759 Y1154.248 Z-22.759 F3960.000
G1 X435.186 Y1155.261 Z-23.407 F3960.000
G1 X434.439 Y1156.190 Z-24.000 F3960.000
G2 X431.189 Y1145.161 Z-24.000 I-4.629 J-4.629 F3960.000
G2 X423.411 Y1150.182 Z-24.000 I-1.379 J6.399 F3960.000
G2 X428.431 Y1157.960 Z-24.000 I6.399 J1.379 F3960.000
G2 X434.439 Y1156.190 Z-24.000 I1.379 J-6.399 F3960.000
G1 X435.180 Y1155.304 Z-24.664 F3960.000
G1 X435.753 Y1154.307 Z-25.336 F3960.000
G1 X436.143 Y1153.220 Z-26.000 F3960.000
G1 X435.753 Y1154.307 Z-26.664 F3960.000
G1 X435.180 Y1155.304 Z-27.336 F3960.000
G1 X434.439 Y1156.190 Z-28.000 F3960.000
G2 X431.189 Y1145.161 Z-28.000 I-4.629 J-4.629 F3960.000
G2 X423.411 Y1150.182 Z-28.000 I-1.379 J6.399 F3960.000
G2 X428.431 Y1157.960 Z-28.000 I6.399 J1.379 F3960.000
G2 X434.439 Y1156.190 Z-28.000 I1.379 J-6.399 F3960.000
G0 X434.439 Y1156.190 Z15.000
G0 X266.439 Y1156.190 Z15.000
G0 X266.439 Y1156.190 Z10.000
G1 X267.130 Y1155.274 Z9.519 F3960.000
G1 X267.674 Y1154.300 Z8.969 F3960.000
G1 X268.060 Y1153.287 Z8.360 F3960.000
G1 X268.280 Y1152.253 Z7.705 F3960.000
G1 X268.332 Y1151.219 Z7.016 F3960.000
G1 X268.212 Y1150.204 Z6.307 F3960.000
G1 X267.925 Y1149.229 Z5.590 F3960.000
G1 X267.475 Y1148.312 Z4.881 F3960.000
G1 X266.871 Y1147.471 Z4.192 F3960.000
G1 X266.125 Y1146.722 Z3.537 F3960.000
G1 X265.251 Y1146.079 Z2.928 F3960.000
G1 X264.266 Y1145.556 Z2.378 F3960.000
G1 X263.189 Y1145.161 Z1.897 F3960.000
G1 X262.190 Y1145.026 Z1.328 F3960.000
G1 X261.191 Y1145.044 Z0.743 F3960.000
G1 X260.209 Y1145.213 Z0.154 F3960.000
G1 X259.261 Y1145.532 Z-0.431 F3960.000
G1 X258.365 Y1145.994 Z-1.000 F3960.000
G1 X259.261 Y1145.532 Z-1.569 F3960.000
G1 X260.209 Y1145.213 Z-2.154 F3960.000
G1 X261.191 Y1145.044 Z-2.743 F3960.000
G1 X262.190 Y1145.026 Z-3.328 F3960.000
G1 X263.189 Y1145.161 Z-3.897 F3960.000
G1 X264.266 Y1145.556 Z-4.378 F3960.000
G1 X265.251 Y1146.079 Z-4.928 F3960.000
G1 X266.125 Y1146.722 Z-5.537 F3960.000
G1 X266.871 Y1147.471 Z-6.192 F3960.000
G1 X267.475 Y1148.312 Z-6.881 F3960.000
G1 X267.925 Y1149.229 Z-7.590 F3960.000
G1 X268.212 Y1150.204 Z-8.307 F3960.000
G1 X268.332 Y1151.219 Z-9.016 F3960.000
G1 X268.280 Y1152.253 Z-9.705 F3960.000
G1 X268.060 Y1153.287 Z-10.360 F3960.000
G1 X267.674 Y1154.300 Z-10.969 F3960.000
G1 X267.130 Y1155.274 Z-11.519 F3960.000
G1 X266.439 Y1156.190 Z-12.000 F3960.000
G2 X263.189 Y1145.161 Z-12.000 I-4.629 J-4.629 F3960.000
G2 X255.411 Y1150.182 Z-12.000 I-1.379 J6.399 F3960.000
G2 X260.431 Y1157.960 Z-12.000 I6.399 J1.379 F3960.000
G2 X266.439 Y1156.190 Z-12.000 I1.379 J-6.399 F3960.000
G1 X267.186 Y1155.261 Z-12.593 F3960.000
G1 X267.759 Y1154.248 Z-13.241 F3960.000
G1 X268.145 Y1153.175 Z-13.928 F3960.000
G1 X268.336 Y1152.066 Z-14.640 F3960.000
G1 X268.326 Y1150.946 Z-15.360 F3960.000
G1 X268.117 Y1149.841 Z-16.072 F3960.000
G1 X267.713 Y1148.774 Z-16.759 F3960.000
G1 X267.123 Y1147.772 Z-17.407 F3960.000
G1 X266.361 Y1146.855 Z-18.000 F3960.000
G1 X267.123 Y1147.772 Z-18.593 F3960.000
G1 X267.713 Y1148.774 Z-19.241 F3960.000
G1 X268.117 Y1149.841 Z-19.928 F3960.000
G1 X268.326 Y1150.946 Z-20.640 F3960.000
G1 X268.336 Y1152.066 Z-21.360 F3960.000
G1 X268.145 Y1153.175 Z-22.072 F3960.000
G1 X267.759 Y1154.248 Z-22.759 F3960.000
G1 X267.186 Y1155.261 Z-23.407 F3960.000
G1 X266.439 Y1156.190 Z-24.000 F3960.000
G2 X263.189 Y1145.161 Z-24.000 I-4.629 J-4.629 F3960.000
G2 X255.411 Y1150.182 Z-24.000 I-1.379 J6.399 F3960.000
G2 X260.431 Y1157.960 Z-24.000 I6.399 J1.379 F3960.000
G2 X266.439 Y1156.190 Z-24.000 I1.379 J-6.399 F3960.000
G1 X267.180 Y1155.304 Z-24.664 F3960.000
G1 X267.753 Y1154.307 Z-25.336 F3960.000
G1 X268.143 Y1153.220 Z-26.000 F3960.000
G1 X267.753 Y1154.307 Z-26.664 F3960.000
G1 X267.180 Y1155.304 Z-27.336 F3960.000
G1 X266.439 Y1156.190 Z-28.000 F3960.000
G2 X263.189 Y1145.161 Z-28.000 I-4.629 J-4.629 F3960.000
G2 X255.411 Y1150.182 Z-28.000 I-1.379 J6.399 F3960.000
G2 X260.431 Y1157.960 Z-28.000 I6.399 J1.379 F3960.000
G2 X266.439 Y1156.190 Z-28.000 I1.379 J-6.399 F3960.000
G0 X266.439 Y1156.190 Z15.000
(finish operation: RampEntryDressup003)
(begin operation: RampEntryDressup006)
(machine: not set, mm/min)
G0 X0.000 Y0.000 Z15.000
G0 X606.305 Y515.916 Z15.000
G0 X606.305 Y515.916 Z10.000
G1 X606.919 Y515.195 Z9.466 F3960.000
G1 X607.410 Y514.396 Z8.918 F3960.000
G1 X607.769 Y513.533 Z8.364 F3960.000
G1 X607.989 Y512.621 Z7.815 F3960.000
G1 X608.067 Y511.678 Z7.281 F3960.000
G1 X608.067 Y497.334 Z-1.000 F3960.000
G1 X608.067 Y511.678 Z-9.281 F3960.000
G1 X607.989 Y512.621 Z-9.815 F3960.000
G1 X607.769 Y513.533 Z-10.364 F3960.000
G1 X607.410 Y514.396 Z-10.918 F3960.000
G1 X606.919 Y515.195 Z-11.466 F3960.000
G1 X606.305 Y515.916 Z-12.000 F3960.000
G2 X608.067 Y511.678 Z-12.000 I-4.254 J-4.254 F3960.000
G1 X608.067 Y433.678 Z-12.000 F3960.000
G2 X606.638 Y430.614 Z-12.000 I-4.000 J-0.000 F3960.000
G1 X594.570 Y420.488 Z-12.000 F3960.000
G3 X593.067 Y417.264 Z-12.000 I2.549 J-3.151 F3960.000
G1 X593.067 Y250.092 Z-12.000 F3960.000
G3 X594.570 Y246.868 Z-12.000 I4.052 J-0.073 F3960.000
G1 X606.638 Y236.742 Z-12.000 F3960.000
G2 X608.067 Y233.678 Z-12.000 I-2.571 J-3.064 F3960.000
G1 X608.067 Y155.678 Z-12.000 F3960.000
G2 X602.067 Y149.678 Z-12.000 I-6.016 J0.016 F3960.000
G1 X524.067 Y149.678 Z-12.000 F3960.000
G2 X521.003 Y151.107 Z-12.000 I-0.000 J4.000 F3960.000
G1 X510.877 Y163.175 Z-12.000 F3960.000
G3 X507.653 Y164.678 Z-12.000 I-3.151 J-2.549 F3960.000
G1 X340.481 Y164.678 Z-12.000 F3960.000
G3 X337.258 Y163.175 Z-12.000 I-0.073 J-4.052 F3960.000
G1 X327.131 Y151.107 Z-12.000 F3960.000
G2 X324.067 Y149.678 Z-12.000 I-3.064 J2.571 F3960.000
G1 X246.067 Y149.678 Z-12.000 F3960.000
G2 X240.067 Y155.678 Z-12.000 I0.016 J6.016 F3960.000
G1 X240.067 Y233.678 Z-12.000 F3960.000
G2 X241.496 Y236.742 Z-12.000 I4.000 J0.000 F3960.000
G1 X253.564 Y246.868 Z-12.000 F3960.000
G3 X255.067 Y250.092 Z-12.000 I-2.549 J3.151 F3960.000
G1 X255.067 Y417.264 Z-12.000 F3960.000
G3 X253.564 Y420.488 Z-12.000 I-4.052 J0.073 F3960.000
G1 X241.496 Y430.614 Z-12.000 F3960.000
G2 X240.067 Y433.678 Z-12.000 I2.571 J3.064 F3960.000
G1 X240.067 Y511.678 Z-12.000 F3960.000
G2 X246.067 Y517.678 Z-12.000 I6.016 J-0.016 F3960.000
G1 X324.067 Y517.678 Z-12.000 F3960.000
G2 X327.131 Y516.249 Z-12.000 I0.000 J-4.000 F3960.000
G1 X337.258 Y504.181 Z-12.000 F3960.000
G3 X340.481 Y502.678 Z-12.000 I3.151 J2.549 F3960.000
G1 X507.653 Y502.678 Z-12.000 F3960.000
G3 X510.877 Y504.181 Z-12.000 I0.073 J4.052 F3960.000
G1 X521.003 Y516.249 Z-12.000 F3960.000
G2 X524.067 Y517.678 Z-12.000 I3.064 J-2.571 F3960.000
G1 X602.067 Y517.678 Z-12.000 F3960.000
G2 X606.305 Y515.916 Z-12.000 I-0.016 J-6.016 F3960.000
G1 X606.919 Y515.195 Z-12.534 F3960.000
G1 X607.410 Y514.396 Z-13.082 F3960.000
G1 X607.769 Y513.533 Z-13.636 F3960.000
G1 X607.989 Y512.621 Z-14.185 F3960.000
G1 X608.067 Y511.678 Z-14.719 F3960.000
G1 X608.067 Y505.995 Z-18.000 F3960.000
G1 X608.067 Y511.678 Z-21.281 F3960.000
G1 X607.989 Y512.621 Z-21.815 F3960.000
G1 X607.769 Y513.533 Z-22.364 F3960.000
G1 X607.410 Y514.396 Z-22.918 F3960.000
G1 X606.919 Y515.195 Z-23.466 F3960.000
G1 X606.305 Y515.916 Z-24.000 F3960.000
G2 X608.067 Y511.678 Z-24.000 I-4.254 J-4.254 F3960.000
G1 X608.067 Y433.678 Z-24.000 F3960.000
G2 X606.638 Y430.614 Z-24.000 I-4.000 J-0.000 F3960.000
G1 X594.570 Y420.488 Z-24.000 F3960.000
G3 X593.067 Y417.264 Z-24.000 I2.549 J-3.151 F3960.000
G1 X593.067 Y250.092 Z-24.000 F3960.000
G3 X594.570 Y246.868 Z-24.000 I4.052 J-0.073 F3960.000
G1 X606.638 Y236.742 Z-24.000 F3960.000
G2 X608.067 Y233.678 Z-24.000 I-2.571 J-3.064 F3960.000
G1 X608.067 Y155.678 Z-24.000 F3960.000
G2 X602.067 Y149.678 Z-24.000 I-6.016 J0.016 F3960.000
G1 X524.067 Y149.678 Z-24.000 F3960.000
G2 X521.003 Y151.107 Z-24.000 I-0.000 J4.000 F3960.000
G1 X510.877 Y163.175 Z-24.000 F3960.000
G3 X507.653 Y164.678 Z-24.000 I-3.151 J-2.549 F3960.000
G1 X340.481 Y164.678 Z-24.000 F3960.000
G3 X337.258 Y163.175 Z-24.000 I-0.073 J-4.052 F3960.000
G1 X327.131 Y151.107 Z-24.000 F3960.000
G2 X324.067 Y149.678 Z-24.000 I-3.064 J2.571 F3960.000
G1 X246.067 Y149.678 Z-24.000 F3960.000
G2 X240.067 Y155.678 Z-24.000 I0.016 J6.016 F3960.000
G1 X240.067 Y233.678 Z-24.000 F3960.000
G2 X241.496 Y236.742 Z-24.000 I4.000 J0.000 F3960.000
G1 X253.564 Y246.868 Z-24.000 F3960.000
G3 X255.067 Y250.092 Z-24.000 I-2.549 J3.151 F3960.000
G1 X255.067 Y417.264 Z-24.000 F3960.000
G3 X253.564 Y420.488 Z-24.000 I-4.052 J0.073 F3960.000
G1 X241.496 Y430.614 Z-24.000 F3960.000
G2 X240.067 Y433.678 Z-24.000 I2.571 J3.064 F3960.000
G1 X240.067 Y511.678 Z-24.000 F3960.000
G2 X246.067 Y517.678 Z-24.000 I6.016 J-0.016 F3960.000
G1 X324.067 Y517.678 Z-24.000 F3960.000
G2 X327.131 Y516.249 Z-24.000 I0.000 J-4.000 F3960.000
G1 X337.258 Y504.181 Z-24.000 F3960.000
G3 X340.481 Y502.678 Z-24.000 I3.151 J2.549 F3960.000
G1 X507.653 Y502.678 Z-24.000 F3960.000
G3 X510.877 Y504.181 Z-24.000 I0.073 J4.052 F3960.000
G1 X521.003 Y516.249 Z-24.000 F3960.000
G2 X524.067 Y517.678 Z-24.000 I3.064 J-2.571 F3960.000
G1 X602.067 Y517.678 Z-24.000 F3960.000
G2 X606.305 Y515.916 Z-24.000 I-0.016 J-6.016 F3960.000
G1 X606.873 Y515.260 Z-24.496 F3960.000
G1 X607.338 Y514.533 Z-25.000 F3960.000
G1 X607.694 Y513.747 Z-25.504 F3960.000
G1 X607.935 Y512.914 Z-26.000 F3960.000
G1 X607.694 Y513.747 Z-26.496 F3960.000
G1 X607.338 Y514.533 Z-27.000 F3960.000
G1 X606.873 Y515.260 Z-27.504 F3960.000
G1 X606.305 Y515.916 Z-28.000 F3960.000
G2 X608.067 Y511.678 Z-28.000 I-4.254 J-4.254 F3960.000
G1 X608.067 Y433.678 Z-28.000 F3960.000
G2 X606.638 Y430.614 Z-28.000 I-4.000 J-0.000 F3960.000
G1 X594.570 Y420.488 Z-28.000 F3960.000
G3 X593.067 Y417.264 Z-28.000 I2.549 J-3.151 F3960.000
G1 X593.067 Y250.092 Z-28.000 F3960.000
G3 X594.570 Y246.868 Z-28.000 I4.052 J-0.073 F3960.000
G1 X606.638 Y236.742 Z-28.000 F3960.000
G2 X608.067 Y233.678 Z-28.000 I-2.571 J-3.064 F3960.000
G1 X608.067 Y155.678 Z-28.000 F3960.000
G2 X602.067 Y149.678 Z-28.000 I-6.016 J0.016 F3960.000
G1 X524.067 Y149.678 Z-28.000 F3960.000
G2 X521.003 Y151.107 Z-28.000 I-0.000 J4.000 F3960.000
G1 X510.877 Y163.175 Z-28.000 F3960.000
G3 X507.653 Y164.678 Z-28.000 I-3.151 J-2.549 F3960.000
G1 X340.481 Y164.678 Z-28.000 F3960.000
G3 X337.258 Y163.175 Z-28.000 I-0.073 J-4.052 F3960.000
G1 X327.131 Y151.107 Z-28.000 F3960.000
G2 X324.067 Y149.678 Z-28.000 I-3.064 J2.571 F3960.000
G1 X246.067 Y149.678 Z-28.000 F3960.000
G2 X240.067 Y155.678 Z-28.000 I0.016 J6.016 F3960.000
G1 X240.067 Y233.678 Z-28.000 F3960.000
G2 X241.496 Y236.742 Z-28.000 I4.000 J0.000 F3960.000
G1 X253.564 Y246.868 Z-28.000 F3960.000
G3 X255.067 Y250.092 Z-28.000 I-2.549 J3.151 F3960.000
G1 X255.067 Y417.264 Z-28.000 F3960.000
G3 X253.564 Y420.488 Z-28.000 I-4.052 J0.073 F3960.000
G1 X241.496 Y430.614 Z-28.000 F3960.000
G2 X240.067 Y433.678 Z-28.000 I2.571 J3.064 F3960.000
G1 X240.067 Y511.678 Z-28.000 F3960.000
G2 X246.067 Y517.678 Z-28.000 I6.016 J-0.016 F3960.000
G1 X324.067 Y517.678 Z-28.000 F3960.000
G2 X327.131 Y516.249 Z-28.000 I0.000 J-4.000 F3960.000
G1 X337.258 Y504.181 Z-28.000 F3960.000
G3 X340.481 Y502.678 Z-28.000 I3.151 J2.549 F3960.000
G1 X507.653 Y502.678 Z-28.000 F3960.000
G3 X510.877 Y504.181 Z-28.000 I0.073 J4.052 F3960.000
G1 X521.003 Y516.249 Z-28.000 F3960.000
G2 X524.067 Y517.678 Z-28.000 I3.064 J-2.571 F3960.000
G1 X602.067 Y517.678 Z-28.000 F3960.000
G2 X606.305 Y515.916 Z-28.000 I-0.016 J-6.016 F3960.000
G0 X606.305 Y515.916 Z15.000
G0 X761.427 Y272.166 Z15.000
G0 X761.427 Y272.166 Z10.000
G1 X761.837 Y271.685 Z9.644 F3960.000
G1 X762.164 Y271.152 Z9.278 F3960.000
G1 X762.403 Y270.576 Z8.908 F3960.000
G1 X762.548 Y269.967 Z8.542 F3960.000
G1 X762.599 Y269.338 Z8.186 F3960.000
G1 X762.599 Y253.427 Z-1.000 F3960.000
G1 X762.599 Y269.338 Z-10.186 F3960.000
G1 X762.548 Y269.967 Z-10.542 F3960.000
G1 X762.403 Y270.576 Z-10.908 F3960.000
G1 X762.164 Y271.152 Z-11.278 F3960.000
G1 X761.837 Y271.685 Z-11.644 F3960.000
G1 X761.427 Y272.166 Z-12.000 F3960.000
G2 X762.599 Y269.338 Z-12.000 I-2.828 J-2.828 F3960.000
G1 X762.599 Y169.338 Z-12.000 F3960.000
G2 X758.599 Y165.338 Z-12.000 I-4.000 J0.000 F3960.000
G1 X708.599 Y165.338 Z-12.000 F3960.000
G2 X704.599 Y169.338 Z-12.000 I0.000 J4.000 F3960.000
G1 X704.599 Y190.338 Z-12.000 F3960.000
G1 X705.771 Y191.509 Z-12.000 F3960.000
G1 X704.599 Y190.338 Z-12.000 F3960.000
G1 X690.599 Y190.338 Z-12.000 F3960.000
G2 X686.599 Y194.338 Z-12.000 I0.000 J4.000 F3960.000
G1 X686.599 Y244.338 Z-12.000 F3960.000
G2 X690.599 Y248.338 Z-12.000 I4.000 J-0.000 F3960.000
G1 X704.599 Y248.338 Z-12.000 F3960.000
G1 X705.771 Y247.166 Z-12.000 F3960.000
G1 X704.599 Y248.338 Z-12.000 F3960.000
G1 X704.599 Y269.338 Z-12.000 F3960.000
G2 X708.599 Y273.338 Z-12.000 I4.000 J-0.000 F3960.000
G1 X758.599 Y273.338 Z-12.000 F3960.000
G2 X761.427 Y272.166 Z-12.000 I-0.000 J-4.000 F3960.000
G1 X761.837 Y271.685 Z-12.356 F3960.000
G1 X762.164 Y271.152 Z-12.722 F3960.000
G1 X762.403 Y270.576 Z-13.092 F3960.000
G1 X762.548 Y269.967 Z-13.458 F3960.000
G1 X762.599 Y269.338 Z-13.814 F3960.000
G1 X762.599 Y262.087 Z-18.000 F3960.000
G1 X762.599 Y269.338 Z-22.186 F3960.000
G1 X762.548 Y269.967 Z-22.542 F3960.000
G1 X762.403 Y270.576 Z-22.908 F3960.000
G1 X762.164 Y271.152 Z-23.278 F3960.000
G1 X761.837 Y271.685 Z-23.644 F3960.000
G1 X761.427 Y272.166 Z-24.000 F3960.000
G2 X762.599 Y269.338 Z-24.000 I-2.828 J-2.828 F3960.000
G1 X762.599 Y169.338 Z-24.000 F3960.000
G2 X758.599 Y165.338 Z-24.000 I-4.000 J0.000 F3960.000
G1 X708.599 Y165.338 Z-24.000 F3960.000
G2 X704.599 Y169.338 Z-24.000 I0.000 J4.000 F3960.000
G1 X704.599 Y190.338 Z-24.000 F3960.000
G1 X705.771 Y191.509 Z-24.000 F3960.000
G1 X704.599 Y190.338 Z-24.000 F3960.000
G1 X690.599 Y190.338 Z-24.000 F3960.000
G2 X686.599 Y194.338 Z-24.000 I0.000 J4.000 F3960.000
G1 X686.599 Y244.338 Z-24.000 F3960.000
G2 X690.599 Y248.338 Z-24.000 I4.000 J-0.000 F3960.000
G1 X704.599 Y248.338 Z-24.000 F3960.000
G1 X705.771 Y247.166 Z-24.000 F3960.000
G1 X704.599 Y248.338 Z-24.000 F3960.000
G1 X704.599 Y269.338 Z-24.000 F3960.000
G2 X708.599 Y273.338 Z-24.000 I4.000 J-0.000 F3960.000
G1 X758.599 Y273.338 Z-24.000 F3960.000
G2 X761.427 Y272.166 Z-24.000 I-0.000 J-4.000 F3960.000
G1 X761.837 Y271.685 Z-24.356 F3960.000
G1 X762.164 Y271.152 Z-24.722 F3960.000
G1 X762.403 Y270.576 Z-25.092 F3960.000
G1 X762.548 Y269.967 Z-25.458 F3960.000
G1 X762.599 Y269.338 Z-25.814 F3960.000
G1 X762.599 Y269.015 Z-26.000 F3960.000
G1 X762.599 Y269.338 Z-26.186 F3960.000
G1 X762.548 Y269.967 Z-26.542 F3960.000
G1 X762.403 Y270.576 Z-26.908 F3960.000
G1 X762.164 Y271.152 Z-27.278 F3960.000
G1 X761.837 Y271.685 Z-27.644 F3960.000
G1 X761.427 Y272.166 Z-28.000 F3960.000
G2 X762.599 Y269.338 Z-28.000 I-2.828 J-2.828 F3960.000
G1 X762.599 Y169.338 Z-28.000 F3960.000
G2 X758.599 Y165.338 Z-28.000 I-4.000 J0.000 F3960.000
G1 X708.599 Y165.338 Z-28.000 F3960.000
G2 X704.599 Y169.338 Z-28.000 I0.000 J4.000 F3960.000
G1 X704.599 Y190.338 Z-28.000 F3960.000
G1 X705.771 Y191.509 Z-28.000 F3960.000
G1 X704.599 Y190.338 Z-28.000 F3960.000
G1 X690.599 Y190.338 Z-28.000 F3960.000
G2 X686.599 Y194.338 Z-28.000 I0.000 J4.000 F3960.000
G1 X686.599 Y244.338 Z-28.000 F3960.000
G2 X690.599 Y248.338 Z-28.000 I4.000 J-0.000 F3960.000
G1 X704.599 Y248.338 Z-28.000 F3960.000
G1 X705.771 Y247.166 Z-28.000 F3960.000
G1 X704.599 Y248.338 Z-28.000 F3960.000
G1 X704.599 Y269.338 Z-28.000 F3960.000
G2 X708.599 Y273.338 Z-28.000 I4.000 J-0.000 F3960.000
G1 X758.599 Y273.338 Z-28.000 F3960.000
G2 X761.427 Y272.166 Z-28.000 I-0.000 J-4.000 F3960.000
G0 X761.427 Y272.166 Z15.000
G0 X775.343 Y560.644 Z15.000
G0 X775.343 Y560.644 Z10.000
G1 X775.821 Y560.148 Z9.614 F3960.000
G1 X776.206 Y559.586 Z9.214 F3960.000
G1 X776.487 Y558.969 Z8.810 F3960.000
G1 X776.660 Y558.310 Z8.411 F3960.000
G1 X776.720 Y557.624 Z8.024 F3960.000
G1 X776.720 Y541.994 Z-1.000 F3960.000
G1 X776.720 Y557.624 Z-10.024 F3960.000
G1 X776.660 Y558.310 Z-10.411 F3960.000
G1 X776.487 Y558.969 Z-10.810 F3960.000
G1 X776.206 Y559.586 Z-11.214 F3960.000
G1 X775.821 Y560.148 Z-11.614 F3960.000
G1 X775.343 Y560.644 Z-12.000 F3960.000
G2 X776.720 Y557.624 Z-12.000 I-2.623 J-3.020 F3960.000
G1 X776.720 Y457.624 Z-12.000 F3960.000
G2 X772.720 Y453.624 Z-12.000 I-4.000 J0.000 F3960.000
G1 X700.720 Y453.624 Z-12.000 F3960.000
G2 X688.725 Y465.428 Z-12.000 I0.006 J12.002 F3960.000
G1 X688.720 Y549.624 Z-12.000 F3960.000
G2 X700.524 Y561.619 Z-12.000 I12.002 J-0.006 F3960.000
G1 X772.720 Y561.624 Z-12.000 F3960.000
G2 X775.343 Y560.644 Z-12.000 I-0.000 J-4.000 F3960.000
G1 X775.821 Y560.148 Z-12.386 F3960.000
G1 X776.206 Y559.586 Z-12.786 F3960.000
G1 X776.487 Y558.969 Z-13.190 F3960.000
G1 X776.660 Y558.310 Z-13.589 F3960.000
G1 X776.720 Y557.624 Z-13.976 F3960.000
G1 X776.720 Y550.654 Z-18.000 F3960.000
G1 X776.720 Y557.624 Z-22.024 F3960.000
G1 X776.660 Y558.310 Z-22.411 F3960.000
G1 X776.487 Y558.969 Z-22.810 F3960.000
G1 X776.206 Y559.586 Z-23.214 F3960.000
G1 X775.821 Y560.148 Z-23.614 F3960.000
G1 X775.343 Y560.644 Z-24.000 F3960.000
G2 X776.720 Y557.624 Z-24.000 I-2.623 J-3.020 F3960.000
G1 X776.720 Y457.624 Z-24.000 F3960.000
G2 X772.720 Y453.624 Z-24.000 I-4.000 J0.000 F3960.000
G1 X700.720 Y453.624 Z-24.000 F3960.000
G2 X688.725 Y465.428 Z-24.000 I0.006 J12.002 F3960.000
G1 X688.720 Y549.624 Z-24.000 F3960.000
G2 X700.524 Y561.619 Z-24.000 I12.002 J-0.006 F3960.000
G1 X772.720 Y561.624 Z-24.000 F3960.000
G2 X775.343 Y560.644 Z-24.000 I-0.000 J-4.000 F3960.000
G1 X775.821 Y560.148 Z-24.386 F3960.000
G1 X776.206 Y559.586 Z-24.786 F3960.000
G1 X776.487 Y558.969 Z-25.190 F3960.000
G1 X776.660 Y558.310 Z-25.589 F3960.000
G1 X776.720 Y557.624 Z-25.976 F3960.000
G1 X776.720 Y557.582 Z-26.000 F3960.000
G1 X776.720 Y557.624 Z-26.024 F3960.000
G1 X776.660 Y558.310 Z-26.411 F3960.000
G1 X776.487 Y558.969 Z-26.810 F3960.000
G1 X776.206 Y559.586 Z-27.214 F3960.000
G1 X775.821 Y560.148 Z-27.614 F3960.000
G1 X775.343 Y560.644 Z-28.000 F3960.000
G2 X776.720 Y557.624 Z-28.000 I-2.623 J-3.020 F3960.000
G1 X776.720 Y457.624 Z-28.000 F3960.000
G2 X772.720 Y453.624 Z-28.000 I-4.000 J0.000 F3960.000
G1 X700.720 Y453.624 Z-28.000 F3960.000
G2 X688.725 Y465.428 Z-28.000 I0.006 J12.002 F3960.000
G1 X688.720 Y549.624 Z-28.000 F3960.000
G2 X700.524 Y561.619 Z-28.000 I12.002 J-0.006 F3960.000
G1 X772.720 Y561.624 Z-28.000 F3960.000
G2 X775.343 Y560.644 Z-28.000 I-0.000 J-4.000 F3960.000
G0 X775.343 Y560.644 Z15.000
G0 X593.149 Y874.689 Z15.000
G0 X593.149 Y874.689 Z10.000
G1 X594.431 Y874.222 Z9.212 F3960.000
G1 X596.330 Y873.321 Z8.086 F3960.000
G1 X598.023 Y872.140 Z6.893 F3960.000
G1 X599.475 Y870.707 Z5.659 F3960.000
G1 X600.653 Y869.051 Z4.412 F3960.000
G1 X601.532 Y867.210 Z3.178 F3960.000
G1 X602.093 Y865.223 Z1.985 F3960.000
G1 X602.323 Y863.134 Z0.858 F3960.000
G1 X602.323 Y859.915 Z-1.000 F3960.000
G1 X602.323 Y863.134 Z-2.858 F3960.000
G1 X602.093 Y865.223 Z-3.985 F3960.000
G1 X601.532 Y867.210 Z-5.178 F3960.000
G1 X600.653 Y869.051 Z-6.412 F3960.000
G1 X599.475 Y870.707 Z-7.659 F3960.000
G1 X598.023 Y872.140 Z-8.893 F3960.000
G1 X596.330 Y873.321 Z-10.086 F3960.000
G1 X594.431 Y874.222 Z-11.212 F3960.000
G1 X593.149 Y874.689 Z-12.000 F3960.000
G1 X594.431 Y874.222 Z-12.000 F3960.000
G2 X602.323 Y863.134 Z-12.000 I-4.113 J-11.279 F3960.000
G1 X602.327 Y807.548 Z-12.000 F3960.000
G2 X598.327 Y803.548 Z-12.000 I-4.000 J0.000 F3960.000
G1 X248.327 Y803.548 Z-12.000 F3960.000
G2 X244.327 Y807.548 Z-12.000 I0.000 J4.000 F3960.000
G1 X244.327 Y862.946 Z-12.000 F3960.000
G2 X252.048 Y874.154 Z-12.000 I12.006 J-0.007 F3960.000
G1 X329.383 Y902.307 Z-12.000 F3960.000
G2 X330.751 Y902.548 Z-12.000 I1.368 J-3.759 F3960.000
G1 X515.903 Y902.548 Z-12.000 F3960.000
G2 X517.271 Y902.307 Z-12.000 I-0.000 J-4.000 F3960.000
G1 X593.149 Y874.689 Z-12.000 F3960.000
G1 X594.431 Y874.222 Z-12.788 F3960.000
G1 X596.083 Y873.472 Z-13.812 F3960.000
G1 X597.592 Y872.494 Z-14.864 F3960.000
G1 X598.934 Y871.304 Z-15.924 F3960.000
G1 X600.085 Y869.922 Z-16.975 F3960.000
G1 X601.027 Y868.371 Z-18.000 F3960.000
G1 X600.085 Y869.922 Z-19.025 F3960.000
G1 X598.934 Y871.304 Z-20.076 F3960.000
G1 X597.592 Y872.494 Z-21.136 F3960.000
G1 X596.083 Y873.472 Z-22.188 F3960.000
G1 X594.431 Y874.222 Z-23.212 F3960.000
G1 X593.149 Y874.689 Z-24.000 F3960.000
G1 X594.431 Y874.222 Z-24.000 F3960.000
G2 X602.323 Y863.134 Z-24.000 I-4.113 J-11.279 F3960.000
G1 X602.327 Y807.548 Z-24.000 F3960.000
G2 X598.327 Y803.548 Z-24.000 I-4.000 J0.000 F3960.000
G1 X248.327 Y803.548 Z-24.000 F3960.000
G2 X244.327 Y807.548 Z-24.000 I0.000 J4.000 F3960.000
G1 X244.327 Y862.946 Z-24.000 F3960.000
G2 X252.048 Y874.154 Z-24.000 I12.006 J-0.007 F3960.000
G1 X329.383 Y902.307 Z-24.000 F3960.000
G2 X330.751 Y902.548 Z-24.000 I1.368 J-3.759 F3960.000
G1 X515.903 Y902.548 Z-24.000 F3960.000
G2 X517.271 Y902.307 Z-24.000 I-0.000 J-4.000 F3960.000
G1 X593.149 Y874.689 Z-24.000 F3960.000
G1 X594.431 Y874.222 Z-24.788 F3960.000
G1 X596.331 Y873.335 Z-26.000 F3960.000
G1 X594.431 Y874.222 Z-27.212 F3960.000
G1 X593.149 Y874.689 Z-28.000 F3960.000
G1 X594.431 Y874.222 Z-28.000 F3960.000
G2 X602.323 Y863.134 Z-28.000 I-4.113 J-11.279 F3960.000
G1 X602.327 Y807.548 Z-28.000 F3960.000
G2 X598.327 Y803.548 Z-28.000 I-4.000 J0.000 F3960.000
G1 X248.327 Y803.548 Z-28.000 F3960.000
G2 X244.327 Y807.548 Z-28.000 I0.000 J4.000 F3960.000
G1 X244.327 Y862.946 Z-28.000 F3960.000
G2 X252.048 Y874.154 Z-28.000 I12.006 J-0.007 F3960.000
G1 X329.383 Y902.307 Z-28.000 F3960.000
G2 X330.751 Y902.548 Z-28.000 I1.368 J-3.759 F3960.000
G1 X515.903 Y902.548 Z-28.000 F3960.000
G2 X517.271 Y902.307 Z-28.000 I-0.000 J-4.000 F3960.000
G1 X593.149 Y874.689 Z-28.000 F3960.000
G0 X593.149 Y874.689 Z15.000
G0 X446.775 Y1088.425 Z15.000
G0 X446.775 Y1088.425 Z10.000
G1 X447.194 Y1087.844 Z9.592 F3960.000
G1 X447.501 Y1087.203 Z9.175 F3960.000
G1 X447.689 Y1086.517 Z8.757 F3960.000
G1 X447.754 Y1085.804 Z8.349 F3960.000
G1 X447.754 Y1069.610 Z-1.000 F3960.000
G1 X447.754 Y1085.804 Z-10.349 F3960.000
G1 X447.689 Y1086.517 Z-10.757 F3960.000
G1 X447.501 Y1087.203 Z-11.175 F3960.000
G1 X447.194 Y1087.844 Z-11.592 F3960.000
G1 X446.775 Y1088.425 Z-12.000 F3960.000
G2 X447.754 Y1085.804 Z-12.000 I-3.021 J-2.622 F3960.000
G1 X447.754 Y1003.804 Z-12.000 F3960.000
G2 X435.950 Y991.808 Z-12.000 I-12.002 J0.006 F3960.000
G1 X253.754 Y991.804 Z-12.000 F3960.000
G2 X241.759 Y1003.607 Z-12.000 I0.006 J12.002 F3960.000
G1 X241.754 Y1085.804 Z-12.000 F3960.000
G2 X245.754 Y1089.804 Z-12.000 I4.000 J-0.000 F3960.000
G1 X265.754 Y1089.804 Z-12.000 F3960.000
G2 X269.754 Y1085.804 Z-12.000 I-0.000 J-4.000 F3960.000
G1 X269.754 Y1064.804 Z-12.000 F3960.000
G1 X268.582 Y1063.632 Z-12.000 F3960.000
G1 X269.754 Y1064.804 Z-12.000 F3960.000
G1 X419.754 Y1064.804 Z-12.000 F3960.000
G1 X420.926 Y1063.632 Z-12.000 F3960.000
G1 X419.754 Y1064.804 Z-12.000 F3960.000
G1 X419.754 Y1085.804 Z-12.000 F3960.000
G2 X423.754 Y1089.804 Z-12.000 I4.000 J-0.000 F3960.000
G1 X443.754 Y1089.804 Z-12.000 F3960.000
G2 X446.775 Y1088.425 Z-12.000 I-0.000 J-4.000 F3960.000
G1 X447.194 Y1087.844 Z-12.408 F3960.000
G1 X447.501 Y1087.203 Z-12.825 F3960.000
G1 X447.689 Y1086.517 Z-13.243 F3960.000
G1 X447.754 Y1085.804 Z-13.651 F3960.000
G1 X447.754 Y1078.270 Z-18.000 F3960.000
G1 X447.754 Y1085.804 Z-22.349 F3960.000
G1 X447.689 Y1086.517 Z-22.757 F3960.000
G1 X447.501 Y1087.203 Z-23.175 F3960.000
G1 X447.194 Y1087.844 Z-23.592 F3960.000
G1 X446.775 Y1088.425 Z-24.000 F3960.000
G2 X447.754 Y1085.804 Z-24.000 I-3.021 J-2.622 F3960.000
G1 X447.754 Y1003.804 Z-24.000 F3960.000
G2 X435.950 Y991.808 Z-24.000 I-12.002 J0.006 F3960.000
G1 X253.754 Y991.804 Z-24.000 F3960.000
G2 X241.759 Y1003.607 Z-24.000 I0.006 J12.002 F3960.000
G1 X241.754 Y1085.804 Z-24.000 F3960.000
G2 X245.754 Y1089.804 Z-24.000 I4.000 J-0.000 F3960.000
G1 X265.754 Y1089.804 Z-24.000 F3960.000
G2 X269.754 Y1085.804 Z-24.000 I-0.000 J-4.000 F3960.000
G1 X269.754 Y1064.804 Z-24.000 F3960.000
G1 X268.582 Y1063.632 Z-24.000 F3960.000
G1 X269.754 Y1064.804 Z-24.000 F3960.000
G1 X419.754 Y1064.804 Z-24.000 F3960.000
G1 X420.926 Y1063.632 Z-24.000 F3960.000
G1 X419.754 Y1064.804 Z-24.000 F3960.000
G1 X419.754 Y1085.804 Z-24.000 F3960.000
G2 X423.754 Y1089.804 Z-24.000 I4.000 J-0.000 F3960.000
G1 X443.754 Y1089.804 Z-24.000 F3960.000
G2 X446.775 Y1088.425 Z-24.000 I-0.000 J-4.000 F3960.000
G1 X447.194 Y1087.844 Z-24.408 F3960.000
G1 X447.501 Y1087.203 Z-24.825 F3960.000
G1 X447.689 Y1086.517 Z-25.243 F3960.000
G1 X447.754 Y1085.804 Z-25.651 F3960.000
G1 X447.754 Y1085.199 Z-26.000 F3960.000
G1 X447.754 Y1085.804 Z-26.349 F3960.000
G1 X447.689 Y1086.517 Z-26.757 F3960.000
G1 X447.501 Y1087.203 Z-27.175 F3960.000
G1 X447.194 Y1087.844 Z-27.592 F3960.000
G1 X446.775 Y1088.425 Z-28.000 F3960.000
G2 X447.754 Y1085.804 Z-28.000 I-3.021 J-2.622 F3960.000
G1 X447.754 Y1003.804 Z-28.000 F3960.000
G2 X435.950 Y991.808 Z-28.000 I-12.002 J0.006 F3960.000
G1 X253.754 Y991.804 Z-28.000 F3960.000
G2 X241.759 Y1003.607 Z-28.000 I0.006 J12.002 F3960.000
G1 X241.754 Y1085.804 Z-28.000 F3960.000
G2 X245.754 Y1089.804 Z-28.000 I4.000 J-0.000 F3960.000
G1 X265.754 Y1089.804 Z-28.000 F3960.000
G2 X269.754 Y1085.804 Z-28.000 I-0.000 J-4.000 F3960.000
G1 X269.754 Y1064.804 Z-28.000 F3960.000
G1 X268.582 Y1063.632 Z-28.000 F3960.000
G1 X269.754 Y1064.804 Z-28.000 F3960.000
G1 X419.754 Y1064.804 Z-28.000 F3960.000
G1 X420.926 Y1063.632 Z-28.000 F3960.000
G1 X419.754 Y1064.804 Z-28.000 F3960.000
G1 X419.754 Y1085.804 Z-28.000 F3960.000
G2 X423.754 Y1089.804 Z-28.000 I4.000 J-0.000 F3960.000
G1 X443.754 Y1089.804 Z-28.000 F3960.000
G2 X446.775 Y1088.425 Z-28.000 I-0.000 J-4.000 F3960.000
G0 X446.775 Y1088.425 Z15.000
G0 X447.831 Y1229.183 Z15.000
G0 X447.831 Y1229.183 Z10.000
G1 X448.250 Y1228.601 Z9.592 F3960.000
G1 X448.557 Y1227.960 Z9.175 F3960.000
G1 X448.745 Y1227.274 Z8.757 F3960.000
G1 X448.810 Y1226.561 Z8.349 F3960.000
G1 X448.810 Y1210.367 Z-1.000 F3960.000
G1 X448.810 Y1226.561 Z-10.349 F3960.000
G1 X448.745 Y1227.274 Z-10.757 F3960.000
G1 X448.557 Y1227.960 Z-11.175 F3960.000
G1 X448.250 Y1228.601 Z-11.592 F3960.000
G1 X447.831 Y1229.183 Z-12.000 F3960.000
G2 X448.810 Y1226.561 Z-12.000 I-3.021 J-2.622 F3960.000
G1 X448.810 Y1144.561 Z-12.000 F3960.000
G2 X437.006 Y1132.566 Z-12.000 I-12.002 J0.006 F3960.000
G1 X254.810 Y1132.561 Z-12.000 F3960.000
G2 X242.815 Y1144.364 Z-12.000 I0.006 J12.002 F3960.000
G1 X242.810 Y1226.561 Z-12.000 F3960.000
G2 X246.810 Y1230.561 Z-12.000 I4.000 J-0.000 F3960.000
G1 X266.810 Y1230.561 Z-12.000 F3960.000
G2 X270.810 Y1226.561 Z-12.000 I-0.000 J-4.000 F3960.000
G1 X270.810 Y1205.561 Z-12.000 F3960.000
G1 X269.638 Y1204.389 Z-12.000 F3960.000
G1 X270.810 Y1205.561 Z-12.000 F3960.000
G1 X420.810 Y1205.561 Z-12.000 F3960.000
G1 X421.982 Y1204.389 Z-12.000 F3960.000
G1 X420.810 Y1205.561 Z-12.000 F3960.000
G1 X420.810 Y1226.561 Z-12.000 F3960.000
G2 X424.810 Y1230.561 Z-12.000 I4.000 J-0.000 F3960.000
G1 X444.810 Y1230.561 Z-12.000 F3960.000
G2 X447.831 Y1229.183 Z-12.000 I-0.000 J-4.000 F3960.000
G1 X448.250 Y1228.601 Z-12.408 F3960.000
G1 X448.557 Y1227.960 Z-12.825 F3960.000
G1 X448.745 Y1227.274 Z-13.243 F3960.000
G1 X448.810 Y1226.561 Z-13.651 F3960.000
G1 X448.810 Y1219.028 Z-18.000 F3960.000
G1 X448.810 Y1226.561 Z-22.349 F3960.000
G1 X448.745 Y1227.274 Z-22.757 F3960.000
G1 X448.557 Y1227.960 Z-23.175 F3960.000
G1 X448.250 Y1228.601 Z-23.592 F3960.000
G1 X447.831 Y1229.183 Z-24.000 F3960.000
G2 X448.810 Y1226.561 Z-24.000 I-3.021 J-2.622 F3960.000
G1 X448.810 Y1144.561 Z-24.000 F3960.000
G2 X437.006 Y1132.566 Z-24.000 I-12.002 J0.006 F3960.000
G1 X254.810 Y1132.561 Z-24.000 F3960.000
G2 X242.815 Y1144.364 Z-24.000 I0.006 J12.002 F3960.000
G1 X242.810 Y1226.561 Z-24.000 F3960.000
G2 X246.810 Y1230.561 Z-24.000 I4.000 J-0.000 F3960.000
G1 X266.810 Y1230.561 Z-24.000 F3960.000
G2 X270.810 Y1226.561 Z-24.000 I-0.000 J-4.000 F3960.000
G1 X270.810 Y1205.561 Z-24.000 F3960.000
G1 X269.638 Y1204.389 Z-24.000 F3960.000
G1 X270.810 Y1205.561 Z-24.000 F3960.000
G1 X420.810 Y1205.561 Z-24.000 F3960.000
G1 X421.982 Y1204.389 Z-24.000 F3960.000
G1 X420.810 Y1205.561 Z-24.000 F3960.000
G1 X420.810 Y1226.561 Z-24.000 F3960.000
G2 X424.810 Y1230.561 Z-24.000 I4.000 J-0.000 F3960.000
G1 X444.810 Y1230.561 Z-24.000 F3960.000
G2 X447.831 Y1229.183 Z-24.000 I-0.000 J-4.000 F3960.000
G1 X448.250 Y1228.601 Z-24.408 F3960.000
G1 X448.557 Y1227.960 Z-24.825 F3960.000
G1 X448.745 Y1227.274 Z-25.243 F3960.000
G1 X448.810 Y1226.561 Z-25.651 F3960.000
G1 X448.810 Y1225.956 Z-26.000 F3960.000
G1 X448.810 Y1226.561 Z-26.349 F3960.000
G1 X448.745 Y1227.274 Z-26.757 F3960.000
G1 X448.557 Y1227.960 Z-27.175 F3960.000
G1 X448.250 Y1228.601 Z-27.592 F3960.000
G1 X447.831 Y1229.183 Z-28.000 F3960.000
G2 X448.810 Y1226.561 Z-28.000 I-3.021 J-2.622 F3960.000
G1 X448.810 Y1144.561 Z-28.000 F3960.000
G2 X437.006 Y1132.566 Z-28.000 I-12.002 J0.006 F3960.000
G1 X254.810 Y1132.561 Z-28.000 F3960.000
G2 X242.815 Y1144.364 Z-28.000 I0.006 J12.002 F3960.000
G1 X242.810 Y1226.561 Z-28.000 F3960.000
G2 X246.810 Y1230.561 Z-28.000 I4.000 J-0.000 F3960.000
G1 X266.810 Y1230.561 Z-28.000 F3960.000
G2 X270.810 Y1226.561 Z-28.000 I-0.000 J-4.000 F3960.000
G1 X270.810 Y1205.561 Z-28.000 F3960.000
G1 X269.638 Y1204.389 Z-28.000 F3960.000
G1 X270.810 Y1205.561 Z-28.000 F3960.000
G1 X420.810 Y1205.561 Z-28.000 F3960.000
G1 X421.982 Y1204.389 Z-28.000 F3960.000
G1 X420.810 Y1205.561 Z-28.000 F3960.000
G1 X420.810 Y1226.561 Z-28.000 F3960.000
G2 X424.810 Y1230.561 Z-28.000 I4.000 J-0.000 F3960.000
G1 X444.810 Y1230.561 Z-28.000 F3960.000
G2 X447.831 Y1229.183 Z-28.000 I-0.000 J-4.000 F3960.000
G0 X447.831 Y1229.183 Z15.000
(finish operation: RampEntryDressup006)
(begin operation: RampEntryDressup004)
(machine: not set, mm/min)
G0 X0.000 Y0.000 Z15.000
G0 X825.771 Y625.363 Z15.000
G0 X825.771 Y625.363 Z10.000
G1 X826.192 Y624.867 Z9.633 F3960.000
G1 X826.525 Y624.315 Z9.256 F3960.000
G1 X826.765 Y623.719 Z8.875 F3960.000
G1 X826.906 Y623.090 Z8.497 F3960.000
G1 X826.946 Y622.440 Z8.131 F3960.000
G1 X826.946 Y610.089 Z1.000 F3960.000
G1 X826.946 Y622.440 Z-6.131 F3960.000
G1 X826.906 Y623.090 Z-6.497 F3960.000
G1 X826.765 Y623.719 Z-6.875 F3960.000
G1 X826.525 Y624.315 Z-7.256 F3960.000
G1 X826.192 Y624.867 Z-7.633 F3960.000
G1 X825.771 Y625.363 Z-8.000 F3960.000
G2 X826.946 Y622.440 Z-8.000 I-2.839 J-2.839 F3960.000
G1 X826.946 Y88.637 Z-8.000 F3960.000
G2 X822.848 Y84.538 Z-8.000 I-4.014 J-0.084 F3960.000
G1 X701.044 Y84.538 Z-8.000 F3960.000
G2 X696.946 Y88.637 Z-8.000 I-0.084 J4.014 F3960.000
G1 X696.946 Y110.937 Z-8.000 F3960.000
G3 X689.225 Y122.145 Z-8.000 I-12.006 J-0.007 F3960.000
G1 X652.639 Y135.465 Z-8.000 F3960.000
G3 X648.710 Y136.185 Z-8.000 I-4.114 J-11.372 F3960.000
G1 X627.946 Y136.189 Z-8.000 F3960.000
G3 X615.951 Y124.385 Z-8.000 I0.006 J-12.002 F3960.000
G1 X615.946 Y88.637 Z-8.000 F3960.000
G2 X611.848 Y84.538 Z-8.000 I-4.014 J-0.085 F3960.000
G1 X424.044 Y84.538 Z-8.000 F3960.000
G2 X419.946 Y88.637 Z-8.000 I-0.084 J4.014 F3960.000
G1 X419.946 Y124.189 Z-8.000 F3960.000
G3 X408.142 Y136.184 Z-8.000 I-12.002 J-0.006 F3960.000
G1 X387.356 Y136.189 Z-8.000 F3960.000
G3 X383.417 Y135.521 Z-8.000 I0.024 J-12.093 F3960.000
G1 X346.842 Y122.213 Z-8.000 F3960.000
G3 X338.950 Y111.125 Z-8.000 I4.113 J-11.279 F3960.000
G1 X338.946 Y88.637 Z-8.000 F3960.000
G2 X334.848 Y84.538 Z-8.000 I-4.014 J-0.085 F3960.000
G1 X209.044 Y84.538 Z-8.000 F3960.000
G2 X204.946 Y88.637 Z-8.000 I-0.084 J4.014 F3960.000
G1 X204.946 Y622.440 Z-8.000 F3960.000
G2 X209.044 Y626.538 Z-8.000 I4.014 J0.084 F3960.000
G1 X822.848 Y626.538 Z-8.000 F3960.000
G2 X825.771 Y625.363 Z-8.000 I0.084 J-4.014 F3960.000
G1 X826.192 Y624.867 Z-8.367 F3960.000
G1 X826.525 Y624.315 Z-8.744 F3960.000
G1 X826.765 Y623.719 Z-9.125 F3960.000
G1 X826.906 Y623.090 Z-9.503 F3960.000
G1 X826.946 Y622.440 Z-9.869 F3960.000
G1 X826.946 Y618.749 Z-12.000 F3960.000
G1 X826.946 Y622.440 Z-14.131 F3960.000
G1 X826.906 Y623.090 Z-14.497 F3960.000
G1 X826.765 Y623.719 Z-14.875 F3960.000
G1 X826.525 Y624.315 Z-15.256 F3960.000
G1 X826.192 Y624.867 Z-15.633 F3960.000
G1 X825.771 Y625.363 Z-16.000 F3960.000
G2 X826.946 Y622.440 Z-16.000 I-2.839 J-2.839 F3960.000
G1 X826.946 Y88.637 Z-16.000 F3960.000
G2 X822.848 Y84.538 Z-16.000 I-4.014 J-0.084 F3960.000
G1 X701.044 Y84.538 Z-16.000 F3960.000
G2 X696.946 Y88.637 Z-16.000 I-0.084 J4.014 F3960.000
G1 X696.946 Y110.937 Z-16.000 F3960.000
G3 X689.225 Y122.145 Z-16.000 I-12.006 J-0.007 F3960.000
G1 X652.639 Y135.465 Z-16.000 F3960.000
G3 X648.710 Y136.185 Z-16.000 I-4.114 J-11.372 F3960.000
G1 X627.946 Y136.189 Z-16.000 F3960.000
G3 X615.951 Y124.385 Z-16.000 I0.006 J-12.002 F3960.000
G1 X615.946 Y88.637 Z-16.000 F3960.000
G2 X611.848 Y84.538 Z-16.000 I-4.014 J-0.085 F3960.000
G1 X424.044 Y84.538 Z-16.000 F3960.000
G2 X419.946 Y88.637 Z-16.000 I-0.084 J4.014 F3960.000
G1 X419.946 Y124.189 Z-16.000 F3960.000
G3 X408.142 Y136.184 Z-16.000 I-12.002 J-0.006 F3960.000
G1 X387.356 Y136.189 Z-16.000 F3960.000
G3 X383.417 Y135.521 Z-16.000 I0.024 J-12.093 F3960.000
G1 X346.842 Y122.213 Z-16.000 F3960.000
G3 X338.950 Y111.125 Z-16.000 I4.113 J-11.279 F3960.000
G1 X338.946 Y88.637 Z-16.000 F3960.000
G2 X334.848 Y84.538 Z-16.000 I-4.014 J-0.085 F3960.000
G1 X209.044 Y84.538 Z-16.000 F3960.000
G2 X204.946 Y88.637 Z-16.000 I-0.084 J4.014 F3960.000
G1 X204.946 Y622.440 Z-16.000 F3960.000
G2 X209.044 Y626.538 Z-16.000 I4.014 J0.084 F3960.000
G1 X822.848 Y626.538 Z-16.000 F3960.000
G2 X825.771 Y625.363 Z-16.000 I0.084 J-4.014 F3960.000
G1 X826.192 Y624.867 Z-16.367 F3960.000
G1 X826.525 Y624.315 Z-16.744 F3960.000
G1 X826.765 Y623.719 Z-17.125 F3960.000
G1 X826.906 Y623.090 Z-17.503 F3960.000
G1 X826.946 Y622.440 Z-17.869 F3960.000
G1 X826.946 Y618.749 Z-20.000 F3960.000
G1 X826.946 Y622.440 Z-22.131 F3960.000
G1 X826.906 Y623.090 Z-22.497 F3960.000
G1 X826.765 Y623.719 Z-22.875 F3960.000
G1 X826.525 Y624.315 Z-23.256 F3960.000
G1 X826.192 Y624.867 Z-23.633 F3960.000
G1 X825.771 Y625.363 Z-24.000 F3960.000
G2 X826.946 Y622.440 Z-24.000 I-2.839 J-2.839 F3960.000
G1 X826.946 Y88.637 Z-24.000 F3960.000
G2 X822.848 Y84.538 Z-24.000 I-4.014 J-0.084 F3960.000
G1 X701.044 Y84.538 Z-24.000 F3960.000
G2 X696.946 Y88.637 Z-24.000 I-0.084 J4.014 F3960.000
G1 X696.946 Y110.937 Z-24.000 F3960.000
G3 X689.225 Y122.145 Z-24.000 I-12.006 J-0.007 F3960.000
G1 X652.639 Y135.465 Z-24.000 F3960.000
G3 X648.710 Y136.185 Z-24.000 I-4.114 J-11.372 F3960.000
G1 X627.946 Y136.189 Z-24.000 F3960.000
G3 X615.951 Y124.385 Z-24.000 I0.006 J-12.002 F3960.000
G1 X615.946 Y88.637 Z-24.000 F3960.000
G2 X611.848 Y84.538 Z-24.000 I-4.014 J-0.085 F3960.000
G1 X424.044 Y84.538 Z-24.000 F3960.000
G2 X419.946 Y88.637 Z-24.000 I-0.084 J4.014 F3960.000
G1 X419.946 Y124.189 Z-24.000 F3960.000
G3 X408.142 Y136.184 Z-24.000 I-12.002 J-0.006 F3960.000
G1 X387.356 Y136.189 Z-24.000 F3960.000
G3 X383.417 Y135.521 Z-24.000 I0.024 J-12.093 F3960.000
G1 X346.842 Y122.213 Z-24.000 F3960.000
G3 X338.950 Y111.125 Z-24.000 I4.113 J-11.279 F3960.000
G1 X338.946 Y88.637 Z-24.000 F3960.000
G2 X334.848 Y84.538 Z-24.000 I-4.014 J-0.085 F3960.000
G1 X209.044 Y84.538 Z-24.000 F3960.000
G2 X204.946 Y88.637 Z-24.000 I-0.084 J4.014 F3960.000
G1 X204.946 Y622.440 Z-24.000 F3960.000
G2 X209.044 Y626.538 Z-24.000 I4.014 J0.084 F3960.000
G1 X822.848 Y626.538 Z-24.000 F3960.000
G2 X825.771 Y625.363 Z-24.000 I0.084 J-4.014 F3960.000
G1 X826.192 Y624.867 Z-24.367 F3960.000
G1 X826.525 Y624.315 Z-24.744 F3960.000
G1 X826.765 Y623.719 Z-25.125 F3960.000
G1 X826.906 Y623.090 Z-25.503 F3960.000
G1 X826.946 Y622.440 Z-25.869 F3960.000
G1 X826.946 Y622.214 Z-26.000 F3960.000
G1 X826.946 Y622.440 Z-26.131 F3960.000
G1 X826.906 Y623.090 Z-26.497 F3960.000
G1 X826.765 Y623.719 Z-26.875 F3960.000
G1 X826.525 Y624.315 Z-27.256 F3960.000
G1 X826.192 Y624.867 Z-27.633 F3960.000
G1 X825.771 Y625.363 Z-28.000 F3960.000
G2 X826.946 Y622.440 Z-28.000 I-2.839 J-2.839 F3960.000
G1 X826.946 Y88.637 Z-28.000 F3960.000
G2 X822.848 Y84.538 Z-28.000 I-4.014 J-0.084 F3960.000
G1 X701.044 Y84.538 Z-28.000 F3960.000
G2 X696.946 Y88.637 Z-28.000 I-0.084 J4.014 F3960.000
G1 X696.946 Y110.937 Z-28.000 F3960.000
G3 X689.225 Y122.145 Z-28.000 I-12.006 J-0.007 F3960.000
G1 X652.639 Y135.465 Z-28.000 F3960.000
G3 X648.710 Y136.185 Z-28.000 I-4.114 J-11.372 F3960.000
G1 X627.946 Y136.189 Z-28.000 F3960.000
G3 X615.951 Y124.385 Z-28.000 I0.006 J-12.002 F3960.000
G1 X615.946 Y88.637 Z-28.000 F3960.000
G2 X611.848 Y84.538 Z-28.000 I-4.014 J-0.085 F3960.000
G1 X424.044 Y84.538 Z-28.000 F3960.000
G2 X419.946 Y88.637 Z-28.000 I-0.084 J4.014 F3960.000
G1 X419.946 Y124.189 Z-28.000 F3960.000
G3 X408.142 Y136.184 Z-28.000 I-12.002 J-0.006 F3960.000
G1 X387.356 Y136.189 Z-28.000 F3960.000
G3 X383.417 Y135.521 Z-28.000 I0.024 J-12.093 F3960.000
G1 X346.842 Y122.213 Z-28.000 F3960.000
G3 X338.950 Y111.125 Z-28.000 I4.113 J-11.279 F3960.000
G1 X338.946 Y88.637 Z-28.000 F3960.000
G2 X334.848 Y84.538 Z-28.000 I-4.014 J-0.085 F3960.000
G1 X209.044 Y84.538 Z-28.000 F3960.000
G2 X204.946 Y88.637 Z-28.000 I-0.084 J4.014 F3960.000
G1 X204.946 Y622.440 Z-28.000 F3960.000
G2 X209.044 Y626.538 Z-28.000 I4.014 J0.084 F3960.000
G1 X822.848 Y626.538 Z-28.000 F3960.000
G2 X825.771 Y625.363 Z-28.000 I0.084 J-4.014 F3960.000
G0 X825.771 Y625.363 Z15.000
G0 X833.520 Y1253.036 Z15.000
G0 X833.520 Y1253.036 Z10.000
G1 X833.941 Y1252.540 Z9.633 F3960.000
G1 X834.274 Y1251.988 Z9.256 F3960.000
G1 X834.514 Y1251.392 Z8.875 F3960.000
G1 X834.655 Y1250.763 Z8.497 F3960.000
G1 X834.695 Y1250.113 Z8.131 F3960.000
G1 X834.695 Y1237.762 Z1.000 F3960.000
G1 X834.695 Y1250.113 Z-6.131 F3960.000
G1 X834.655 Y1250.763 Z-6.497 F3960.000
G1 X834.514 Y1251.392 Z-6.875 F3960.000
G1 X834.274 Y1251.988 Z-7.256 F3960.000
G1 X833.941 Y1252.540 Z-7.633 F3960.000
G1 X833.520 Y1253.036 Z-8.000 F3960.000
G2 X834.695 Y1250.113 Z-8.000 I-2.839 J-2.839 F3960.000
G1 X834.695 Y716.310 Z-8.000 F3960.000
G2 X830.597 Y712.211 Z-8.000 I-4.014 J-0.084 F3960.000
G1 X708.793 Y712.211 Z-8.000 F3960.000
G2 X704.695 Y716.310 Z-8.000 I-0.084 J4.014 F3960.000
G1 X704.695 Y738.610 Z-8.000 F3960.000
G3 X696.974 Y749.818 Z-8.000 I-12.006 J-0.007 F3960.000
G1 X660.389 Y763.138 Z-8.000 F3960.000
G3 X656.459 Y763.858 Z-8.000 I-4.114 J-11.372 F3960.000
G1 X635.695 Y763.862 Z-8.000 F3960.000
G3 X623.700 Y752.058 Z-8.000 I0.006 J-12.002 F3960.000
G1 X623.695 Y716.310 Z-8.000 F3960.000
G2 X619.597 Y712.211 Z-8.000 I-4.014 J-0.085 F3960.000
G1 X431.793 Y712.211 Z-8.000 F3960.000
G2 X427.695 Y716.310 Z-8.000 I-0.084 J4.014 F3960.000
G1 X427.695 Y751.862 Z-8.000 F3960.000
G3 X415.891 Y763.857 Z-8.000 I-12.002 J-0.006 F3960.000
G1 X395.106 Y763.862 Z-8.000 F3960.000
G3 X391.167 Y763.194 Z-8.000 I0.024 J-12.093 F3960.000
G1 X354.591 Y749.886 Z-8.000 F3960.000
G3 X346.699 Y738.798 Z-8.000 I4.113 J-11.279 F3960.000
G1 X346.695 Y716.310 Z-8.000 F3960.000
G2 X342.597 Y712.211 Z-8.000 I-4.014 J-0.085 F3960.000
G1 X216.793 Y712.211 Z-8.000 F3960.000
G2 X212.695 Y716.310 Z-8.000 I-0.084 J4.014 F3960.000
G1 X212.695 Y1250.113 Z-8.000 F3960.000
G2 X216.793 Y1254.211 Z-8.000 I4.014 J0.084 F3960.000
G1 X830.597 Y1254.211 Z-8.000 F3960.000
G2 X833.520 Y1253.036 Z-8.000 I0.084 J-4.014 F3960.000
G1 X833.941 Y1252.540 Z-8.367 F3960.000
G1 X834.274 Y1251.988 Z-8.744 F3960.000
G1 X834.514 Y1251.392 Z-9.125 F3960.000
G1 X834.655 Y1250.763 Z-9.503 F3960.000
G1 X834.695 Y1250.113 Z-9.869 F3960.000
G1 X834.695 Y1246.423 Z-12.000 F3960.000
G1 X834.695 Y1250.113 Z-14.131 F3960.000
G1 X834.655 Y1250.763 Z-14.497 F3960.000
G1 X834.514 Y1251.392 Z-14.875 F3960.000
G1 X834.274 Y1251.988 Z-15.256 F3960.000
G1 X833.941 Y1252.540 Z-15.633 F3960.000
G1 X833.520 Y1253.036 Z-16.000 F3960.000
G2 X834.695 Y1250.113 Z-16.000 I-2.839 J-2.839 F3960.000
G1 X834.695 Y716.310 Z-16.000 F3960.000
G2 X830.597 Y712.211 Z-16.000 I-4.014 J-0.084 F3960.000
G1 X708.793 Y712.211 Z-16.000 F3960.000
G2 X704.695 Y716.310 Z-16.000 I-0.084 J4.014 F3960.000
G1 X704.695 Y738.610 Z-16.000 F3960.000
G3 X696.974 Y749.818 Z-16.000 I-12.006 J-0.007 F3960.000
G1 X660.389 Y763.138 Z-16.000 F3960.000
G3 X656.459 Y763.858 Z-16.000 I-4.114 J-11.372 F3960.000
G1 X635.695 Y763.862 Z-16.000 F3960.000
G3 X623.700 Y752.058 Z-16.000 I0.006 J-12.002 F3960.000
G1 X623.695 Y716.310 Z-16.000 F3960.000
G2 X619.597 Y712.211 Z-16.000 I-4.014 J-0.085 F3960.000
G1 X431.793 Y712.211 Z-16.000 F3960.000
G2 X427.695 Y716.310 Z-16.000 I-0.084 J4.014 F3960.000
G1 X427.695 Y751.862 Z-16.000 F3960.000
G3 X415.891 Y763.857 Z-16.000 I-12.002 J-0.006 F3960.000
G1 X395.106 Y763.862 Z-16.000 F3960.000
G3 X391.167 Y763.194 Z-16.000 I0.024 J-12.093 F3960.000
G1 X354.591 Y749.886 Z-16.000 F3960.000
G3 X346.699 Y738.798 Z-16.000 I4.113 J-11.279 F3960.000
G1 X346.695 Y716.310 Z-16.000 F3960.000
G2 X342.597 Y712.211 Z-16.000 I-4.014 J-0.085 F3960.000
G1 X216.793 Y712.211 Z-16.000 F3960.000
G2 X212.695 Y716.310 Z-16.000 I-0.084 J4.014 F3960.000
G1 X212.695 Y1250.113 Z-16.000 F3960.000
G2 X216.793 Y1254.211 Z-16.000 I4.014 J0.084 F3960.000
G1 X830.597 Y1254.211 Z-16.000 F3960.000
G2 X833.520 Y1253.036 Z-16.000 I0.084 J-4.014 F3960.000
G1 X833.941 Y1252.540 Z-16.367 F3960.000
G1 X834.274 Y1251.988 Z-16.744 F3960.000
G1 X834.514 Y1251.392 Z-17.125 F3960.000
G1 X834.655 Y1250.763 Z-17.503 F3960.000
G1 X834.695 Y1250.113 Z-17.869 F3960.000
G1 X834.695 Y1246.423 Z-20.000 F3960.000
G1 X834.695 Y1250.113 Z-22.131 F3960.000
G1 X834.655 Y1250.763 Z-22.497 F3960.000
G1 X834.514 Y1251.392 Z-22.875 F3960.000
G1 X834.274 Y1251.988 Z-23.256 F3960.000
G1 X833.941 Y1252.540 Z-23.633 F3960.000
G1 X833.520 Y1253.036 Z-24.000 F3960.000
G2 X834.695 Y1250.113 Z-24.000 I-2.839 J-2.839 F3960.000
G1 X834.695 Y716.310 Z-24.000 F3960.000
G2 X830.597 Y712.211 Z-24.000 I-4.014 J-0.084 F3960.000
G1 X708.793 Y712.211 Z-24.000 F3960.000
G2 X704.695 Y716.310 Z-24.000 I-0.084 J4.014 F3960.000
G1 X704.695 Y738.610 Z-24.000 F3960.000
G3 X696.974 Y749.818 Z-24.000 I-12.006 J-0.007 F3960.000
G1 X660.389 Y763.138 Z-24.000 F3960.000
G3 X656.459 Y763.858 Z-24.000 I-4.114 J-11.372 F3960.000
G1 X635.695 Y763.862 Z-24.000 F3960.000
G3 X623.700 Y752.058 Z-24.000 I0.006 J-12.002 F3960.000
G1 X623.695 Y716.310 Z-24.000 F3960.000
G2 X619.597 Y712.211 Z-24.000 I-4.014 J-0.085 F3960.000
G1 X431.793 Y712.211 Z-24.000 F3960.000
G2 X427.695 Y716.310 Z-24.000 I-0.084 J4.014 F3960.000
G1 X427.695 Y751.862 Z-24.000 F3960.000
G3 X415.891 Y763.857 Z-24.000 I-12.002 J-0.006 F3960.000
G1 X395.106 Y763.862 Z-24.000 F3960.000
G3 X391.167 Y763.194 Z-24.000 I0.024 J-12.093 F3960.000
G1 X354.591 Y749.886 Z-24.000 F3960.000
G3 X346.699 Y738.798 Z-24.000 I4.113 J-11.279 F3960.000
G1 X346.695 Y716.310 Z-24.000 F3960.000
G2 X342.597 Y712.211 Z-24.000 I-4.014 J-0.085 F3960.000
G1 X216.793 Y712.211 Z-24.000 F3960.000
G2 X212.695 Y716.310 Z-24.000 I-0.084 J4.014 F3960.000
G1 X212.695 Y1250.113 Z-24.000 F3960.000
G2 X216.793 Y1254.211 Z-24.000 I4.014 J0.084 F3960.000
G1 X830.597 Y1254.211 Z-24.000 F3960.000
G2 X833.520 Y1253.036 Z-24.000 I0.084 J-4.014 F3960.000
G1 X833.941 Y1252.540 Z-24.367 F3960.000
G1 X834.274 Y1251.988 Z-24.744 F3960.000
G1 X834.514 Y1251.392 Z-25.125 F3960.000
G1 X834.655 Y1250.763 Z-25.503 F3960.000
G1 X834.695 Y1250.113 Z-25.869 F3960.000
G1 X834.695 Y1249.887 Z-26.000 F3960.000
G1 X834.695 Y1250.113 Z-26.131 F3960.000
G1 X834.655 Y1250.763 Z-26.497 F3960.000
G1 X834.514 Y1251.392 Z-26.875 F3960.000
G1 X834.274 Y1251.988 Z-27.256 F3960.000
G1 X833.941 Y1252.540 Z-27.633 F3960.000
G1 X833.520 Y1253.036 Z-28.000 F3960.000
G2 X834.695 Y1250.113 Z-28.000 I-2.839 J-2.839 F3960.000
G1 X834.695 Y716.310 Z-28.000 F3960.000
G2 X830.597 Y712.211 Z-28.000 I-4.014 J-0.084 F3960.000
G1 X708.793 Y712.211 Z-28.000 F3960.000
G2 X704.695 Y716.310 Z-28.000 I-0.084 J4.014 F3960.000
G1 X704.695 Y738.610 Z-28.000 F3960.000
G3 X696.974 Y749.818 Z-28.000 I-12.006 J-0.007 F3960.000
G1 X660.389 Y763.138 Z-28.000 F3960.000
G3 X656.459 Y763.858 Z-28.000 I-4.114 J-11.372 F3960.000
G1 X635.695 Y763.862 Z-28.000 F3960.000
G3 X623.700 Y752.058 Z-28.000 I0.006 J-12.002 F3960.000
G1 X623.695 Y716.310 Z-28.000 F3960.000
G2 X619.597 Y712.211 Z-28.000 I-4.014 J-0.085 F3960.000
G1 X431.793 Y712.211 Z-28.000 F3960.000
G2 X427.695 Y716.310 Z-28.000 I-0.084 J4.014 F3960.000
G1 X427.695 Y751.862 Z-28.000 F3960.000
G3 X415.891 Y763.857 Z-28.000 I-12.002 J-0.006 F3960.000
G1 X395.106 Y763.862 Z-28.000 F3960.000
G3 X391.167 Y763.194 Z-28.000 I0.024 J-12.093 F3960.000
G1 X354.591 Y749.886 Z-28.000 F3960.000
G3 X346.699 Y738.798 Z-28.000 I4.113 J-11.279 F3960.000
G1 X346.695 Y716.310 Z-28.000 F3960.000
G2 X342.597 Y712.211 Z-28.000 I-4.014 J-0.085 F3960.000
G1 X216.793 Y712.211 Z-28.000 F3960.000
G2 X212.695 Y716.310 Z-28.000 I-0.084 J4.014 F3960.000
G1 X212.695 Y1250.113 Z-28.000 F3960.000
G2 X216.793 Y1254.211 Z-28.000 I4.014 J0.084 F3960.000
G1 X830.597 Y1254.211 Z-28.000 F3960.000
G2 X833.520 Y1253.036 Z-28.000 I0.084 J-4.014 F3960.000
G0 X833.520 Y1253.036 Z15.000
(finish operation: RampEntryDressup004)
(begin operation: RampEntryDressup026)
(machine: not set, mm/min)
G0 X0.000 Y0.000 Z15.000
G0 X858.184 Y657.776 Z15.000
G0 X858.184 Y657.776 Z10.000
G1 X858.798 Y657.056 Z9.466 F3960.000
G1 X859.288 Y656.257 Z8.918 F3960.000
G1 X859.647 Y655.393 Z8.364 F3960.000
G1 X859.868 Y654.482 Z7.815 F3960.000
G1 X859.946 Y653.538 Z7.281 F3960.000
G1 X859.946 Y639.195 Z-1.000 F3960.000
G1 X859.946 Y653.538 Z-9.281 F3960.000
G1 X859.868 Y654.482 Z-9.815 F3960.000
G1 X859.647 Y655.393 Z-10.364 F3960.000
G1 X859.288 Y656.257 Z-10.918 F3960.000
G1 X858.798 Y657.056 Z-11.466 F3960.000
G1 X858.184 Y657.776 Z-12.000 F3960.000
G2 X859.946 Y653.538 Z-12.000 I-4.254 J-4.254 F3960.000
G1 X859.946 Y55.538 Z-12.000 F3960.000
G2 X855.946 Y51.538 Z-12.000 I-4.000 J0.000 F3960.000
G1 X75.946 Y51.538 Z-12.000 F3960.000
G2 X71.946 Y55.538 Z-12.000 I0.000 J4.000 F3960.000
G1 X71.946 Y553.538 Z-12.000 F3960.000
G2 X77.946 Y559.538 Z-12.000 I6.016 J-0.016 F3960.000
G1 X167.848 Y559.538 Z-12.000 F3960.000
G3 X171.946 Y563.637 Z-12.000 I0.084 J4.014 F3960.000
G1 X171.946 Y653.538 Z-12.000 F3960.000
G2 X177.946 Y659.538 Z-12.000 I6.016 J-0.016 F3960.000
G1 X853.946 Y659.538 Z-12.000 F3960.000
G2 X858.184 Y657.776 Z-12.000 I-0.016 J-6.016 F3960.000
G1 X858.798 Y657.056 Z-12.534 F3960.000
G1 X859.288 Y656.257 Z-13.082 F3960.000
G1 X859.647 Y655.393 Z-13.636 F3960.000
G1 X859.868 Y654.482 Z-14.185 F3960.000
G1 X859.946 Y653.538 Z-14.719 F3960.000
G1 X859.946 Y647.855 Z-18.000 F3960.000
G1 X859.946 Y653.538 Z-21.281 F3960.000
G1 X859.868 Y654.482 Z-21.815 F3960.000
G1 X859.647 Y655.393 Z-22.364 F3960.000
G1 X859.288 Y656.257 Z-22.918 F3960.000
G1 X858.798 Y657.056 Z-23.466 F3960.000
G1 X858.184 Y657.776 Z-24.000 F3960.000
G2 X859.946 Y653.538 Z-24.000 I-4.254 J-4.254 F3960.000
G1 X859.946 Y55.538 Z-24.000 F3960.000
G2 X855.946 Y51.538 Z-24.000 I-4.000 J0.000 F3960.000
G1 X75.946 Y51.538 Z-24.000 F3960.000
G2 X71.946 Y55.538 Z-24.000 I0.000 J4.000 F3960.000
G1 X71.946 Y553.538 Z-24.000 F3960.000
G2 X77.946 Y559.538 Z-24.000 I6.016 J-0.016 F3960.000
G1 X167.848 Y559.538 Z-24.000 F3960.000
G3 X171.946 Y563.637 Z-24.000 I0.084 J4.014 F3960.000
G1 X171.946 Y653.538 Z-24.000 F3960.000
G2 X177.946 Y659.538 Z-24.000 I6.016 J-0.016 F3960.000
G1 X853.946 Y659.538 Z-24.000 F3960.000
G2 X858.184 Y657.776 Z-24.000 I-0.016 J-6.016 F3960.000
G1 X858.751 Y657.120 Z-24.496 F3960.000
G1 X859.217 Y656.393 Z-25.000 F3960.000
G1 X859.573 Y655.607 Z-25.504 F3960.000
G1 X859.814 Y654.774 Z-26.000 F3960.000
G1 X859.573 Y655.607 Z-26.496 F3960.000
G1 X859.217 Y656.393 Z-27.000 F3960.000
G1 X858.751 Y657.120 Z-27.504 F3960.000
G1 X858.184 Y657.776 Z-28.000 F3960.000
G2 X859.946 Y653.538 Z-28.000 I-4.254 J-4.254 F3960.000
G1 X859.946 Y55.538 Z-28.000 F3960.000
G2 X855.946 Y51.538 Z-28.000 I-4.000 J0.000 F3960.000
G1 X75.946 Y51.538 Z-28.000 F3960.000
G2 X71.946 Y55.538 Z-28.000 I0.000 J4.000 F3960.000
G1 X71.946 Y553.538 Z-28.000 F3960.000
G2 X77.946 Y559.538 Z-28.000 I6.016 J-0.016 F3960.000
G1 X167.848 Y559.538 Z-28.000 F3960.000
G3 X171.946 Y563.637 Z-28.000 I0.084 J4.014 F3960.000
G1 X171.946 Y653.538 Z-28.000 F3960.000
G2 X177.946 Y659.538 Z-28.000 I6.016 J-0.016 F3960.000
G1 X853.946 Y659.538 Z-28.000 F3960.000
G2 X858.184 Y657.776 Z-28.000 I-0.016 J-6.016 F3960.000
G0 X858.184 Y657.776 Z15.000
G0 X865.933 Y1285.449 Z15.000
G0 X865.933 Y1285.449 Z10.000
G1 X866.547 Y1284.729 Z9.466 F3960.000
G1 X867.038 Y1283.930 Z8.918 F3960.000
G1 X867.397 Y1283.066 Z8.364 F3960.000
