(Exported by FreeCAD)
(Post Processor: linuxcnc_post)
(Output Time:2018-10-11 10:11:48.628891)
(begin preamble)
G17 G54 G40 G49 G80 G90
G21
(begin operation: T1: 8mm001)
(machine: not set, mm/min)
(T1: 8mm001)
M6 T1
M3 S12000
(finish operation: T1: 8mm001)
(begin operation: RampEntryDressup)
(machine: not set, mm/min)
G0 X0.000 Y0.000 Z15.000
G0 X98.004 Y74.767 Z15.000
G0 X98.004 Y74.767 Z10.000
G1 X98.214 Y74.490 Z9.854 F3960.000
G1 X98.379 Y74.196 Z9.687 F3960.000
G1 X98.497 Y73.889 Z9.503 F3960.000
G1 X98.564 Y73.576 Z9.304 F3960.000
G1 X98.581 Y73.263 Z9.096 F3960.000
G1 X98.547 Y72.955 Z8.881 F3960.000
G1 X98.461 Y72.659 Z8.665 F3960.000
G1 X98.327 Y72.380 Z8.450 F3960.000
G1 X98.146 Y72.124 Z8.242 F3960.000
G1 X97.922 Y71.895 Z8.044 F3960.000
G1 X97.659 Y71.698 Z7.859 F3960.000
G1 X97.363 Y71.536 Z7.692 F3960.000
G1 X97.038 Y71.413 Z7.546 F3960.000
G1 X96.672 Y71.432 Z7.456 F3960.000
G1 X96.319 Y71.488 Z7.335 F3960.000
G1 X95.985 Y71.581 Z7.186 F3960.000
G1 X95.677 Y71.709 Z7.010 F3960.000
G1 X95.399 Y71.870 Z6.812 F3960.000
G1 X95.158 Y72.062 Z6.594 F3960.000
G1 X94.956 Y72.279 Z6.360 F3960.000
G1 X94.799 Y72.520 Z6.116 F3960.000
G1 X94.688 Y72.779 Z5.865 F3960.000
G1 X94.626 Y73.051 Z5.611 F3960.000
G1 X94.613 Y73.332 Z5.360 F3960.000
G1 X94.651 Y73.617 Z5.116 F3960.000
G1 X94.738 Y73.901 Z4.882 F3960.000
G1 X94.873 Y74.178 Z4.665 F3960.000
G1 X95.053 Y74.444 Z4.466 F3960.000
G1 X95.275 Y74.693 Z4.290 F3960.000
G1 X95.535 Y74.922 Z4.141 F3960.000
G1 X95.829 Y75.126 Z4.020 F3960.000
G1 X96.151 Y75.301 Z3.930 F3960.000
G1 X96.487 Y75.347 Z3.743 F3960.000
G1 X96.821 Y75.338 Z3.548 F3960.000
G1 X97.146 Y75.273 Z3.349 F3960.000
G1 X97.456 Y75.154 Z3.150 F3960.000
G1 X97.744 Y74.985 Z2.954 F3960.000
G1 X98.004 Y74.767 Z2.768 F3960.000
G1 X97.744 Y74.985 Z2.581 F3960.000
G1 X97.456 Y75.154 Z2.386 F3960.000
G1 X97.146 Y75.273 Z2.186 F3960.000
G1 X96.821 Y75.338 Z1.987 F3960.000
G1 X96.487 Y75.347 Z1.792 F3960.000
G1 X96.151 Y75.301 Z1.605 F3960.000
G1 X95.829 Y75.126 Z1.515 F3960.000
G1 X95.535 Y74.922 Z1.394 F3960.000
G1 X95.275 Y74.693 Z1.245 F3960.000
G1 X95.053 Y74.444 Z1.069 F3960.000
G1 X94.873 Y74.178 Z0.871 F3960.000
G1 X94.738 Y73.901 Z0.653 F3960.000
G1 X94.651 Y73.617 Z0.420 F3960.000
G1 X94.613 Y73.332 Z0.175 F3960.000
G1 X94.626 Y73.051 Z-0.076 F3960.000
G1 X94.688 Y72.779 Z-0.330 F3960.000
G1 X94.799 Y72.520 Z-0.581 F3960.000
G1 X94.956 Y72.279 Z-0.825 F3960.000
G1 X95.158 Y72.062 Z-1.058 F3960.000
G1 X95.399 Y71.870 Z-1.276 F3960.000
G1 X95.677 Y71.709 Z-1.475 F3960.000
G1 X95.985 Y71.581 Z-1.650 F3960.000
G1 X96.319 Y71.488 Z-1.800 F3960.000
G1 X96.672 Y71.432 Z-1.921 F3960.000
G1 X97.038 Y71.413 Z-2.011 F3960.000
G1 X97.363 Y71.536 Z-2.157 F3960.000
G1 X97.659 Y71.698 Z-2.324 F3960.000
G1 X97.922 Y71.895 Z-2.508 F3960.000
G1 X98.146 Y72.124 Z-2.706 F3960.000
G1 X98.327 Y72.380 Z-2.915 F3960.000
G1 X98.461 Y72.659 Z-3.129 F3960.000
G1 X98.547 Y72.955 Z-3.346 F3960.000
G1 X98.581 Y73.263 Z-3.561 F3960.000
G1 X98.564 Y73.576 Z-3.769 F3960.000
G1 X98.497 Y73.889 Z-3.967 F3960.000
G1 X98.379 Y74.196 Z-4.152 F3960.000
G1 X98.214 Y74.490 Z-4.318 F3960.000
G1 X98.004 Y74.767 Z-4.465 F3960.000
G1 X98.214 Y74.490 Z-4.611 F3960.000
G1 X98.379 Y74.196 Z-4.778 F3960.000
G1 X98.497 Y73.889 Z-4.962 F3960.000
G1 X98.564 Y73.576 Z-5.160 F3960.000
G1 X98.581 Y73.263 Z-5.369 F3960.000
G1 X98.547 Y72.955 Z-5.583 F3960.000
G1 X98.461 Y72.659 Z-5.800 F3960.000
G1 X98.327 Y72.380 Z-6.014 F3960.000
G1 X98.146 Y72.124 Z-6.223 F3960.000
G1 X97.922 Y71.895 Z-6.421 F3960.000
G1 X97.659 Y71.698 Z-6.605 F3960.000
G1 X97.363 Y71.536 Z-6.772 F3960.000
G1 X97.038 Y71.413 Z-6.918 F3960.000
G1 X96.672 Y71.432 Z-7.008 F3960.000
G1 X96.319 Y71.488 Z-7.129 F3960.000
G1 X95.985 Y71.581 Z-7.279 F3960.000
G1 X95.677 Y71.709 Z-7.455 F3960.000
G1 X95.399 Y71.870 Z-7.653 F3960.000
G1 X95.158 Y72.062 Z-7.871 F3960.000
G1 X94.956 Y72.279 Z-8.104 F3960.000
G1 X94.799 Y72.520 Z-8.349 F3960.000
G1 X94.688 Y72.779 Z-8.600 F3960.000
G1 X94.626 Y73.051 Z-8.853 F3960.000
G1 X94.613 Y73.332 Z-9.105 F3960.000
G1 X94.651 Y73.617 Z-9.349 F3960.000
G1 X94.738 Y73.901 Z-9.582 F3960.000
G1 X94.873 Y74.178 Z-9.800 F3960.000
G1 X95.053 Y74.444 Z-9.999 F3960.000
G1 X95.275 Y74.693 Z-10.174 F3960.000
G1 X95.535 Y74.922 Z-10.324 F3960.000
G1 X95.829 Y75.126 Z-10.445 F3960.000
G1 X96.151 Y75.301 Z-10.535 F3960.000
G1 X96.487 Y75.347 Z-10.721 F3960.000
G1 X96.821 Y75.338 Z-10.917 F3960.000
G1 X97.146 Y75.273 Z-11.116 F3960.000
G1 X97.456 Y75.154 Z-11.315 F3960.000
G1 X97.744 Y74.985 Z-11.510 F3960.000
G1 X98.004 Y74.767 Z-11.697 F3960.000
G1 X97.744 Y74.985 Z-11.884 F3960.000
G1 X97.456 Y75.154 Z-12.079 F3960.000
G1 X97.146 Y75.273 Z-12.278 F3960.000
G1 X96.821 Y75.338 Z-12.477 F3960.000
G1 X96.487 Y75.347 Z-12.673 F3960.000
G1 X96.151 Y75.301 Z-12.859 F3960.000
G1 X95.813 Y75.145 Z-12.980 F3960.000
G1 X95.507 Y74.955 Z-13.129 F3960.000
G1 X95.237 Y74.733 Z-13.303 F3960.000
G1 X95.010 Y74.484 Z-13.501 F3960.000
G1 X94.830 Y74.212 Z-13.716 F3960.000
G1 X94.700 Y73.924 Z-13.946 F3960.000
G1 X94.623 Y73.626 Z-14.185 F3960.000
G1 X94.601 Y73.322 Z-14.430 F3960.000
G1 X94.634 Y73.019 Z-14.674 F3960.000
G1 X94.721 Y72.723 Z-14.913 F3960.000
G1 X94.861 Y72.439 Z-15.143 F3960.000
G1 X95.051 Y72.175 Z-15.359 F3960.000
G1 X95.287 Y71.934 Z-15.556 F3960.000
G1 X95.564 Y71.722 Z-15.731 F3960.000
G1 X95.878 Y71.542 Z-15.880 F3960.000
G1 X96.220 Y71.399 Z-16.000 F3960.000
G2 X97.038 Y71.413 Z-16.000 I0.374 J1.958 F3960.000
G3 X98.004 Y74.767 Z-16.000 I-0.444 J1.944 F3960.000
G2 X97.038 Y71.413 Z-16.000 I-1.410 J-1.410 F3960.000
G2 X96.151 Y75.301 Z-16.000 I-0.444 J1.944 F3960.000
G2 X98.004 Y74.767 Z-16.000 I0.444 J-1.944 F3960.000
G1 X98.228 Y74.485 Z-16.172 F3960.000
G1 X98.401 Y74.179 Z-16.363 F3960.000
G1 X98.519 Y73.857 Z-16.567 F3960.000
G1 X98.580 Y73.525 Z-16.781 F3960.000
G1 X98.581 Y73.191 Z-17.000 F3960.000
G1 X98.524 Y72.862 Z-17.219 F3960.000
G1 X98.409 Y72.545 Z-17.433 F3960.000
G1 X98.240 Y72.247 Z-17.637 F3960.000
G1 X98.018 Y71.974 Z-17.828 F3960.000
G1 X97.751 Y71.733 Z-18.000 F3960.000
G1 X98.018 Y71.974 Z-18.172 F3960.000
G1 X98.240 Y72.247 Z-18.363 F3960.000
G1 X98.409 Y72.545 Z-18.567 F3960.000
G1 X98.524 Y72.862 Z-18.781 F3960.000
G1 X98.581 Y73.191 Z-19.000 F3960.000
G1 X98.580 Y73.525 Z-19.219 F3960.000
G1 X98.519 Y73.857 Z-19.433 F3960.000
G1 X98.401 Y74.179 Z-19.637 F3960.000
G1 X98.228 Y74.485 Z-19.828 F3960.000
G1 X98.004 Y74.767 Z-20.000 F3960.000
G2 X97.038 Y71.413 Z-20.000 I-1.410 J-1.410 F3960.000
G2 X96.151 Y75.301 Z-20.000 I-0.444 J1.944 F3960.000
G2 X98.004 Y74.767 Z-20.000 I0.444 J-1.944 F3960.000
G0 X98.004 Y74.767 Z15.000
G0 X333.033 Y74.767 Z15.000
G0 X333.033 Y74.767 Z10.000
G1 X333.242 Y74.490 Z9.854 F3960.000
G1 X333.407 Y74.196 Z9.687 F3960.000
G1 X333.525 Y73.889 Z9.503 F3960.000
G1 X333.593 Y73.576 Z9.304 F3960.000
G1 X333.610 Y73.263 Z9.096 F3960.000
G1 X333.575 Y72.955 Z8.881 F3960.000
G1 X333.490 Y72.659 Z8.665 F3960.000
G1 X333.355 Y72.380 Z8.450 F3960.000
G1 X333.175 Y72.124 Z8.242 F3960.000
G1 X332.951 Y71.895 Z8.044 F3960.000
G1 X332.688 Y71.698 Z7.859 F3960.000
G1 X332.391 Y71.536 Z7.692 F3960.000
G1 X332.067 Y71.413 Z7.546 F3960.000
G1 X331.701 Y71.432 Z7.456 F3960.000
G1 X331.348 Y71.488 Z7.335 F3960.000
G1 X331.014 Y71.581 Z7.186 F3960.000
G1 X330.705 Y71.709 Z7.010 F3960.000
G1 X330.428 Y71.870 Z6.812 F3960.000
G1 X330.186 Y72.062 Z6.594 F3960.000
G1 X329.985 Y72.279 Z6.360 F3960.000
G1 X329.827 Y72.520 Z6.116 F3960.000
G1 X329.717 Y72.779 Z5.865 F3960.000
G1 X329.654 Y73.051 Z5.611 F3960.000
G1 X329.642 Y73.332 Z5.360 F3960.000
G1 X329.680 Y73.617 Z5.116 F3960.000
G1 X329.766 Y73.901 Z4.882 F3960.000
G1 X329.901 Y74.178 Z4.665 F3960.000
G1 X330.081 Y74.444 Z4.466 F3960.000
G1 X330.303 Y74.693 Z4.290 F3960.000
G1 X330.564 Y74.922 Z4.141 F3960.000
G1 X330.857 Y75.126 Z4.020 F3960.000
G1 X331.179 Y75.301 Z3.930 F3960.000
G1 X331.515 Y75.347 Z3.743 F3960.000
G1 X331.849 Y75.338 Z3.548 F3960.000
G1 X332.175 Y75.273 Z3.349 F3960.000
G1 X332.485 Y75.154 Z3.150 F3960.000
G1 X332.773 Y74.985 Z2.954 F3960.000
G1 X333.033 Y74.767 Z2.768 F3960.000
G1 X332.773 Y74.985 Z2.581 F3960.000
G1 X332.485 Y75.154 Z2.386 F3960.000
G1 X332.175 Y75.273 Z2.186 F3960.000
G1 X331.849 Y75.338 Z1.987 F3960.000
G1 X331.515 Y75.347 Z1.792 F3960.000
G1 X331.179 Y75.301 Z1.605 F3960.000
G1 X330.857 Y75.126 Z1.515 F3960.000
G1 X330.564 Y74.922 Z1.394 F3960.000
G1 X330.303 Y74.693 Z1.245 F3960.000
G1 X330.081 Y74.444 Z1.069 F3960.000
G1 X329.901 Y74.178 Z0.871 F3960.000
G1 X329.766 Y73.901 Z0.653 F3960.000
G1 X329.680 Y73.617 Z0.420 F3960.000
G1 X329.642 Y73.332 Z0.175 F3960.000
G1 X329.654 Y73.051 Z-0.076 F3960.000
G1 X329.717 Y72.779 Z-0.330 F3960.000
G1 X329.827 Y72.520 Z-0.581 F3960.000
G1 X329.985 Y72.279 Z-0.825 F3960.000
G1 X330.186 Y72.062 Z-1.058 F3960.000
G1 X330.428 Y71.870 Z-1.276 F3960.000
G1 X330.705 Y71.709 Z-1.475 F3960.000
G1 X331.014 Y71.581 Z-1.650 F3960.000
G1 X331.348 Y71.488 Z-1.800 F3960.000
G1 X331.701 Y71.432 Z-1.921 F3960.000
G1 X332.067 Y71.413 Z-2.011 F3960.000
G1 X332.391 Y71.536 Z-2.157 F3960.000
G1 X332.688 Y71.698 Z-2.324 F3960.000
G1 X332.951 Y71.895 Z-2.508 F3960.000
G1 X333.175 Y72.124 Z-2.706 F3960.000
G1 X333.355 Y72.380 Z-2.915 F3960.000
G1 X333.490 Y72.659 Z-3.129 F3960.000
G1 X333.575 Y72.955 Z-3.346 F3960.000
G1 X333.610 Y73.263 Z-3.561 F3960.000
G1 X333.593 Y73.576 Z-3.769 F3960.000
G1 X333.525 Y73.889 Z-3.967 F3960.000
G1 X333.407 Y74.196 Z-4.152 F3960.000
G1 X333.242 Y74.490 Z-4.318 F3960.000
G1 X333.033 Y74.767 Z-4.465 F3960.000
G1 X333.242 Y74.490 Z-4.611 F3960.000
G1 X333.407 Y74.196 Z-4.778 F3960.000
G1 X333.525 Y73.889 Z-4.962 F3960.000
G1 X333.593 Y73.576 Z-5.160 F3960.000
G1 X333.610 Y73.263 Z-5.369 F3960.000
G1 X333.575 Y72.955 Z-5.583 F3960.000
G1 X333.490 Y72.659 Z-5.800 F3960.000
G1 X333.355 Y72.380 Z-6.014 F3960.000
G1 X333.175 Y72.124 Z-6.223 F3960.000
G1 X332.951 Y71.895 Z-6.421 F3960.000
G1 X332.688 Y71.698 Z-6.605 F3960.000
G1 X332.391 Y71.536 Z-6.772 F3960.000
G1 X332.067 Y71.413 Z-6.918 F3960.000
G1 X331.701 Y71.432 Z-7.008 F3960.000
G1 X331.348 Y71.488 Z-7.129 F3960.000
G1 X331.014 Y71.581 Z-7.279 F3960.000
G1 X330.705 Y71.709 Z-7.455 F3960.000
G1 X330.428 Y71.870 Z-7.653 F3960.000
G1 X330.186 Y72.062 Z-7.871 F3960.000
G1 X329.985 Y72.279 Z-8.104 F3960.000
G1 X329.827 Y72.520 Z-8.349 F3960.000
G1 X329.717 Y72.779 Z-8.600 F3960.000
G1 X329.654 Y73.051 Z-8.853 F3960.000
G1 X329.642 Y73.332 Z-9.105 F3960.000
G1 X329.680 Y73.617 Z-9.349 F3960.000
G1 X329.766 Y73.901 Z-9.582 F3960.000
G1 X329.901 Y74.178 Z-9.800 F3960.000
G1 X330.081 Y74.444 Z-9.999 F3960.000
G1 X330.303 Y74.693 Z-10.174 F3960.000
G1 X330.564 Y74.922 Z-10.324 F3960.000
G1 X330.857 Y75.126 Z-10.445 F3960.000
G1 X331.179 Y75.301 Z-10.535 F3960.000
G1 X331.515 Y75.347 Z-10.721 F3960.000
G1 X331.849 Y75.338 Z-10.917 F3960.000
G1 X332.175 Y75.273 Z-11.116 F3960.000
G1 X332.485 Y75.154 Z-11.315 F3960.000
G1 X332.773 Y74.985 Z-11.510 F3960.000
G1 X333.033 Y74.767 Z-11.697 F3960.000
G1 X332.773 Y74.985 Z-11.884 F3960.000
G1 X332.485 Y75.154 Z-12.079 F3960.000
G1 X332.175 Y75.273 Z-12.278 F3960.000
G1 X331.849 Y75.338 Z-12.477 F3960.000
G1 X331.515 Y75.347 Z-12.673 F3960.000
G1 X331.179 Y75.301 Z-12.859 F3960.000
G1 X330.842 Y75.145 Z-12.980 F3960.000
G1 X330.535 Y74.955 Z-13.129 F3960.000
G1 X330.266 Y74.733 Z-13.303 F3960.000
G1 X330.038 Y74.484 Z-13.501 F3960.000
G1 X329.858 Y74.212 Z-13.716 F3960.000
G1 X329.728 Y73.924 Z-13.946 F3960.000
G1 X329.652 Y73.626 Z-14.185 F3960.000
G1 X329.630 Y73.322 Z-14.430 F3960.000
G1 X329.663 Y73.019 Z-14.674 F3960.000
G1 X329.750 Y72.723 Z-14.913 F3960.000
G1 X329.890 Y72.439 Z-15.143 F3960.000
G1 X330.080 Y72.175 Z-15.359 F3960.000
G1 X330.316 Y71.934 Z-15.556 F3960.000
G1 X330.593 Y71.722 Z-15.731 F3960.000
G1 X330.906 Y71.542 Z-15.880 F3960.000
G1 X331.249 Y71.399 Z-16.000 F3960.000
G2 X332.067 Y71.413 Z-16.000 I0.374 J1.958 F3960.000
G3 X333.033 Y74.767 Z-16.000 I-0.444 J1.944 F3960.000
G2 X332.067 Y71.413 Z-16.000 I-1.410 J-1.410 F3960.000
G2 X331.179 Y75.301 Z-16.000 I-0.444 J1.944 F3960.000
G2 X333.033 Y74.767 Z-16.000 I0.444 J-1.944 F3960.000
G1 X333.257 Y74.485 Z-16.172 F3960.000
G1 X333.430 Y74.179 Z-16.363 F3960.000
G1 X333.548 Y73.857 Z-16.567 F3960.000
G1 X333.608 Y73.525 Z-16.781 F3960.000
G1 X333.610 Y73.191 Z-17.000 F3960.000
G1 X333.553 Y72.862 Z-17.219 F3960.000
G1 X333.438 Y72.545 Z-17.433 F3960.000
G1 X333.268 Y72.247 Z-17.637 F3960.000
G1 X333.047 Y71.974 Z-17.828 F3960.000
G1 X332.779 Y71.733 Z-18.000 F3960.000
G1 X333.047 Y71.974 Z-18.172 F3960.000
G1 X333.268 Y72.247 Z-18.363 F3960.000
G1 X333.438 Y72.545 Z-18.567 F3960.000
G1 X333.553 Y72.862 Z-18.781 F3960.000
G1 X333.610 Y73.191 Z-19.000 F3960.000
G1 X333.608 Y73.525 Z-19.219 F3960.000
G1 X333.548 Y73.857 Z-19.433 F3960.000
G1 X333.430 Y74.179 Z-19.637 F3960.000
G1 X333.257 Y74.485 Z-19.828 F3960.000
G1 X333.033 Y74.767 Z-20.000 F3960.000
G2 X332.067 Y71.413 Z-20.000 I-1.410 J-1.410 F3960.000
G2 X331.179 Y75.301 Z-20.000 I-0.444 J1.944 F3960.000
G2 X333.033 Y74.767 Z-20.000 I0.444 J-1.944 F3960.000
G0 X333.033 Y74.767 Z15.000
G0 X333.033 Y144.767 Z15.000
G0 X333.033 Y144.767 Z10.000
G1 X333.242 Y144.490 Z9.854 F3960.000
G1 X333.407 Y144.196 Z9.687 F3960.000
G1 X333.525 Y143.889 Z9.503 F3960.000
G1 X333.593 Y143.576 Z9.304 F3960.000
G1 X333.610 Y143.263 Z9.096 F3960.000
G1 X333.575 Y142.955 Z8.881 F3960.000
G1 X333.490 Y142.659 Z8.665 F3960.000
G1 X333.355 Y142.380 Z8.450 F3960.000
G1 X333.175 Y142.124 Z8.242 F3960.000
G1 X332.951 Y141.895 Z8.044 F3960.000
G1 X332.688 Y141.698 Z7.859 F3960.000
G1 X332.391 Y141.536 Z7.692 F3960.000
G1 X332.067 Y141.413 Z7.546 F3960.000
G1 X331.701 Y141.432 Z7.456 F3960.000
G1 X331.348 Y141.488 Z7.335 F3960.000
G1 X331.014 Y141.581 Z7.186 F3960.000
G1 X330.705 Y141.709 Z7.010 F3960.000
G1 X330.428 Y141.870 Z6.812 F3960.000
G1 X330.186 Y142.062 Z6.594 F3960.000
G1 X329.985 Y142.279 Z6.360 F3960.000
G1 X329.827 Y142.520 Z6.116 F3960.000
G1 X329.717 Y142.779 Z5.865 F3960.000
G1 X329.654 Y143.051 Z5.611 F3960.000
G1 X329.642 Y143.332 Z5.360 F3960.000
G1 X329.680 Y143.617 Z5.116 F3960.000
G1 X329.766 Y143.901 Z4.882 F3960.000
G1 X329.901 Y144.178 Z4.665 F3960.000
G1 X330.081 Y144.444 Z4.466 F3960.000
G1 X330.303 Y144.693 Z4.290 F3960.000
G1 X330.564 Y144.922 Z4.141 F3960.000
G1 X330.857 Y145.126 Z4.020 F3960.000
G1 X331.179 Y145.301 Z3.930 F3960.000
G1 X331.515 Y145.347 Z3.743 F3960.000
G1 X331.849 Y145.338 Z3.548 F3960.000
G1 X332.175 Y145.273 Z3.349 F3960.000
G1 X332.485 Y145.154 Z3.150 F3960.000
G1 X332.773 Y144.985 Z2.954 F3960.000
G1 X333.033 Y144.767 Z2.768 F3960.000
G1 X332.773 Y144.985 Z2.581 F3960.000
G1 X332.485 Y145.154 Z2.386 F3960.000
G1 X332.175 Y145.273 Z2.186 F3960.000
G1 X331.849 Y145.338 Z1.987 F3960.000
G1 X331.515 Y145.347 Z1.792 F3960.000
G1 X331.179 Y145.301 Z1.605 F3960.000
G1 X330.857 Y145.126 Z1.515 F3960.000
G1 X330.564 Y144.922 Z1.394 F3960.000
G1 X330.303 Y144.693 Z1.245 F3960.000
G1 X330.081 Y144.444 Z1.069 F3960.000
G1 X329.901 Y144.178 Z0.871 F3960.000
G1 X329.766 Y143.901 Z0.653 F3960.000
G1 X329.680 Y143.617 Z0.420 F3960.000
G1 X329.642 Y143.332 Z0.175 F3960.000
G1 X329.654 Y143.051 Z-0.076 F3960.000
G1 X329.717 Y142.779 Z-0.330 F3960.000
G1 X329.827 Y142.520 Z-0.581 F3960.000
G1 X329.985 Y142.279 Z-0.825 F3960.000
G1 X330.186 Y142.062 Z-1.058 F3960.000
G1 X330.428 Y141.870 Z-1.276 F3960.000
G1 X330.705 Y141.709 Z-1.475 F3960.000
G1 X331.014 Y141.581 Z-1.650 F3960.000
G1 X331.348 Y141.488 Z-1.800 F3960.000
G1 X331.701 Y141.432 Z-1.921 F3960.000
G1 X332.067 Y141.413 Z-2.011 F3960.000
G1 X332.391 Y141.536 Z-2.157 F3960.000
G1 X332.688 Y141.698 Z-2.324 F3960.000
G1 X332.951 Y141.895 Z-2.508 F3960.000
G1 X333.175 Y142.124 Z-2.706 F3960.000
G1 X333.355 Y142.380 Z-2.915 F3960.000
G1 X333.490 Y142.659 Z-3.129 F3960.000
G1 X333.575 Y142.955 Z-3.346 F3960.000
G1 X333.610 Y143.263 Z-3.561 F3960.000
G1 X333.593 Y143.576 Z-3.769 F3960.000
G1 X333.525 Y143.889 Z-3.967 F3960.000
G1 X333.407 Y144.196 Z-4.152 F3960.000
G1 X333.242 Y144.490 Z-4.318 F3960.000
G1 X333.033 Y144.767 Z-4.465 F3960.000
G1 X333.242 Y144.490 Z-4.611 F3960.000
G1 X333.407 Y144.196 Z-4.778 F3960.000
G1 X333.525 Y143.889 Z-4.962 F3960.000
G1 X333.593 Y143.576 Z-5.160 F3960.000
G1 X333.610 Y143.263 Z-5.369 F3960.000
G1 X333.575 Y142.955 Z-5.583 F3960.000
G1 X333.490 Y142.659 Z-5.800 F3960.000
G1 X333.355 Y142.380 Z-6.014 F3960.000
G1 X333.175 Y142.124 Z-6.223 F3960.000
G1 X332.951 Y141.895 Z-6.421 F3960.000
G1 X332.688 Y141.698 Z-6.605 F3960.000
G1 X332.391 Y141.536 Z-6.772 F3960.000
G1 X332.067 Y141.413 Z-6.918 F3960.000
G1 X331.701 Y141.432 Z-7.008 F3960.000
G1 X331.348 Y141.488 Z-7.129 F3960.000
G1 X331.014 Y141.581 Z-7.279 F3960.000
G1 X330.705 Y141.709 Z-7.455 F3960.000
G1 X330.428 Y141.870 Z-7.653 F3960.000
G1 X330.186 Y142.062 Z-7.871 F3960.000
G1 X329.985 Y142.279 Z-8.104 F3960.000
G1 X329.827 Y142.520 Z-8.349 F3960.000
G1 X329.717 Y142.779 Z-8.600 F3960.000
G1 X329.654 Y143.051 Z-8.853 F3960.000
G1 X329.642 Y143.332 Z-9.105 F3960.000
G1 X329.680 Y143.617 Z-9.349 F3960.000
G1 X329.766 Y143.901 Z-9.582 F3960.000
G1 X329.901 Y144.178 Z-9.800 F3960.000
G1 X330.081 Y144.444 Z-9.999 F3960.000
G1 X330.303 Y144.693 Z-10.174 F3960.000
G1 X330.564 Y144.922 Z-10.324 F3960.000
G1 X330.857 Y145.126 Z-10.445 F3960.000
G1 X331.179 Y145.301 Z-10.535 F3960.000
G1 X331.515 Y145.347 Z-10.721 F3960.000
G1 X331.849 Y145.338 Z-10.917 F3960.000
G1 X332.175 Y145.273 Z-11.116 F3960.000
G1 X332.485 Y145.154 Z-11.315 F3960.000
G1 X332.773 Y144.985 Z-11.510 F3960.000
G1 X333.033 Y144.767 Z-11.697 F3960.000
G1 X332.773 Y144.985 Z-11.884 F3960.000
G1 X332.485 Y145.154 Z-12.079 F3960.000
G1 X332.175 Y145.273 Z-12.278 F3960.000
G1 X331.849 Y145.338 Z-12.477 F3960.000
G1 X331.515 Y145.347 Z-12.673 F3960.000
G1 X331.179 Y145.301 Z-12.859 F3960.000
G1 X330.842 Y145.145 Z-12.980 F3960.000
G1 X330.535 Y144.955 Z-13.129 F3960.000
G1 X330.266 Y144.733 Z-13.303 F3960.000
G1 X330.038 Y144.484 Z-13.501 F3960.000
G1 X329.858 Y144.212 Z-13.716 F3960.000
G1 X329.728 Y143.924 Z-13.946 F3960.000
G1 X329.652 Y143.626 Z-14.185 F3960.000
G1 X329.630 Y143.322 Z-14.430 F3960.000
G1 X329.663 Y143.019 Z-14.674 F3960.000
G1 X329.750 Y142.723 Z-14.913 F3960.000
G1 X329.890 Y142.439 Z-15.143 F3960.000
G1 X330.080 Y142.175 Z-15.359 F3960.000
G1 X330.316 Y141.934 Z-15.556 F3960.000
G1 X330.593 Y141.722 Z-15.731 F3960.000
G1 X330.906 Y141.542 Z-15.880 F3960.000
G1 X331.249 Y141.399 Z-16.000 F3960.000
G2 X332.067 Y141.413 Z-16.000 I0.374 J1.958 F3960.000
G3 X333.033 Y144.767 Z-16.000 I-0.444 J1.944 F3960.000
G2 X332.067 Y141.413 Z-16.000 I-1.410 J-1.410 F3960.000
G2 X331.179 Y145.301 Z-16.000 I-0.444 J1.944 F3960.000
G2 X333.033 Y144.767 Z-16.000 I0.444 J-1.944 F3960.000
G1 X333.257 Y144.485 Z-16.172 F3960.000
G1 X333.430 Y144.179 Z-16.363 F3960.000
G1 X333.548 Y143.857 Z-16.567 F3960.000
G1 X333.608 Y143.525 Z-16.781 F3960.000
G1 X333.610 Y143.191 Z-17.000 F3960.000
G1 X333.553 Y142.862 Z-17.219 F3960.000
G1 X333.438 Y142.545 Z-17.433 F3960.000
G1 X333.268 Y142.247 Z-17.637 F3960.000
G1 X333.047 Y141.974 Z-17.828 F3960.000
G1 X332.779 Y141.733 Z-18.000 F3960.000
G1 X333.047 Y141.974 Z-18.172 F3960.000
G1 X333.268 Y142.247 Z-18.363 F3960.000
G1 X333.438 Y142.545 Z-18.567 F3960.000
G1 X333.553 Y142.862 Z-18.781 F3960.000
G1 X333.610 Y143.191 Z-19.000 F3960.000
G1 X333.608 Y143.525 Z-19.219 F3960.000
G1 X333.548 Y143.857 Z-19.433 F3960.000
G1 X333.430 Y144.179 Z-19.637 F3960.000
G1 X333.257 Y144.485 Z-19.828 F3960.000
G1 X333.033 Y144.767 Z-20.000 F3960.000
G2 X332.067 Y141.413 Z-20.000 I-1.410 J-1.410 F3960.000
G2 X331.179 Y145.301 Z-20.000 I-0.444 J1.944 F3960.000
G2 X333.033 Y144.767 Z-20.000 I0.444 J-1.944 F3960.000
G0 X333.033 Y144.767 Z15.000
G0 X98.004 Y144.767 Z15.000
G0 X98.004 Y144.767 Z10.000
G1 X98.214 Y144.490 Z9.854 F3960.000
G1 X98.379 Y144.196 Z9.687 F3960.000
G1 X98.497 Y143.889 Z9.503 F3960.000
G1 X98.564 Y143.576 Z9.304 F3960.000
G1 X98.581 Y143.263 Z9.096 F3960.000
G1 X98.547 Y142.955 Z8.881 F3960.000
G1 X98.461 Y142.659 Z8.665 F3960.000
G1 X98.327 Y142.380 Z8.450 F3960.000
G1 X98.146 Y142.124 Z8.242 F3960.000
G1 X97.922 Y141.895 Z8.044 F3960.000
G1 X97.659 Y141.698 Z7.859 F3960.000
G1 X97.363 Y141.536 Z7.692 F3960.000
G1 X97.038 Y141.413 Z7.546 F3960.000
G1 X96.672 Y141.432 Z7.456 F3960.000
G1 X96.319 Y141.488 Z7.335 F3960.000
G1 X95.985 Y141.581 Z7.186 F3960.000
G1 X95.677 Y141.709 Z7.010 F3960.000
G1 X95.399 Y141.870 Z6.812 F3960.000
G1 X95.158 Y142.062 Z6.594 F3960.000
G1 X94.956 Y142.279 Z6.360 F3960.000
G1 X94.799 Y142.520 Z6.116 F3960.000
G1 X94.688 Y142.779 Z5.865 F3960.000
G1 X94.626 Y143.051 Z5.611 F3960.000
G1 X94.613 Y143.332 Z5.360 F3960.000
G1 X94.651 Y143.617 Z5.116 F3960.000
G1 X94.738 Y143.901 Z4.882 F3960.000
G1 X94.873 Y144.178 Z4.665 F3960.000
G1 X95.053 Y144.444 Z4.466 F3960.000
G1 X95.275 Y144.693 Z4.290 F3960.000
G1 X95.535 Y144.922 Z4.141 F3960.000
G1 X95.829 Y145.126 Z4.020 F3960.000
G1 X96.151 Y145.301 Z3.930 F3960.000
G1 X96.487 Y145.347 Z3.743 F3960.000
G1 X96.821 Y145.338 Z3.548 F3960.000
G1 X97.146 Y145.273 Z3.349 F3960.000
G1 X97.456 Y145.154 Z3.150 F3960.000
G1 X97.744 Y144.985 Z2.954 F3960.000
G1 X98.004 Y144.767 Z2.768 F3960.000
G1 X97.744 Y144.985 Z2.581 F3960.000
G1 X97.456 Y145.154 Z2.386 F3960.000
G1 X97.146 Y145.273 Z2.186 F3960.000
G1 X96.821 Y145.338 Z1.987 F3960.000
G1 X96.487 Y145.347 Z1.792 F3960.000
G1 X96.151 Y145.301 Z1.605 F3960.000
G1 X95.829 Y145.126 Z1.515 F3960.000
G1 X95.535 Y144.922 Z1.394 F3960.000
G1 X95.275 Y144.693 Z1.245 F3960.000
G1 X95.053 Y144.444 Z1.069 F3960.000
G1 X94.873 Y144.178 Z0.871 F3960.000
G1 X94.738 Y143.901 Z0.653 F3960.000
G1 X94.651 Y143.617 Z0.420 F3960.000
G1 X94.613 Y143.332 Z0.175 F3960.000
G1 X94.626 Y143.051 Z-0.076 F3960.000
G1 X94.688 Y142.779 Z-0.330 F3960.000
G1 X94.799 Y142.520 Z-0.581 F3960.000
G1 X94.956 Y142.279 Z-0.825 F3960.000
G1 X95.158 Y142.062 Z-1.058 F3960.000
G1 X95.399 Y141.870 Z-1.276 F3960.000
G1 X95.677 Y141.709 Z-1.475 F3960.000
G1 X95.985 Y141.581 Z-1.650 F3960.000
G1 X96.319 Y141.488 Z-1.800 F3960.000
G1 X96.672 Y141.432 Z-1.921 F3960.000
G1 X97.038 Y141.413 Z-2.011 F3960.000
G1 X97.363 Y141.536 Z-2.157 F3960.000
G1 X97.659 Y141.698 Z-2.324 F3960.000
G1 X97.922 Y141.895 Z-2.508 F3960.000
G1 X98.146 Y142.124 Z-2.706 F3960.000
G1 X98.327 Y142.380 Z-2.915 F3960.000
G1 X98.461 Y142.659 Z-3.129 F3960.000
G1 X98.547 Y142.955 Z-3.346 F3960.000
G1 X98.581 Y143.263 Z-3.561 F3960.000
G1 X98.564 Y143.576 Z-3.769 F3960.000
G1 X98.497 Y143.889 Z-3.967 F3960.000
G1 X98.379 Y144.196 Z-4.152 F3960.000
G1 X98.214 Y144.490 Z-4.318 F3960.000
G1 X98.004 Y144.767 Z-4.465 F3960.000
G1 X98.214 Y144.490 Z-4.611 F3960.000
G1 X98.379 Y144.196 Z-4.778 F3960.000
G1 X98.497 Y143.889 Z-4.962 F3960.000
G1 X98.564 Y143.576 Z-5.160 F3960.000
G1 X98.581 Y143.263 Z-5.369 F3960.000
G1 X98.547 Y142.955 Z-5.583 F3960.000
G1 X98.461 Y142.659 Z-5.800 F3960.000
G1 X98.327 Y142.380 Z-6.014 F3960.000
G1 X98.146 Y142.124 Z-6.223 F3960.000
G1 X97.922 Y141.895 Z-6.421 F3960.000
G1 X97.659 Y141.698 Z-6.605 F3960.000
G1 X97.363 Y141.536 Z-6.772 F3960.000
G1 X97.038 Y141.413 Z-6.918 F3960.000
G1 X96.672 Y141.432 Z-7.008 F3960.000
G1 X96.319 Y141.488 Z-7.129 F3960.000
G1 X95.985 Y141.581 Z-7.279 F3960.000
G1 X95.677 Y141.709 Z-7.455 F3960.000
G1 X95.399 Y141.870 Z-7.653 F3960.000
G1 X95.158 Y142.062 Z-7.871 F3960.000
G1 X94.956 Y142.279 Z-8.104 F3960.000
G1 X94.799 Y142.520 Z-8.349 F3960.000
G1 X94.688 Y142.779 Z-8.600 F3960.000
G1 X94.626 Y143.051 Z-8.853 F3960.000
G1 X94.613 Y143.332 Z-9.105 F3960.000
G1 X94.651 Y143.617 Z-9.349 F3960.000
G1 X94.738 Y143.901 Z-9.582 F3960.000
G1 X94.873 Y144.178 Z-9.800 F3960.000
G1 X95.053 Y144.444 Z-9.999 F3960.000
G1 X95.275 Y144.693 Z-10.174 F3960.000
G1 X95.535 Y144.922 Z-10.324 F3960.000
G1 X95.829 Y145.126 Z-10.445 F3960.000
G1 X96.151 Y145.301 Z-10.535 F3960.000
G1 X96.487 Y145.347 Z-10.721 F3960.000
G1 X96.821 Y145.338 Z-10.917 F3960.000
G1 X97.146 Y145.273 Z-11.116 F3960.000
G1 X97.456 Y145.154 Z-11.315 F3960.000
G1 X97.744 Y144.985 Z-11.510 F3960.000
G1 X98.004 Y144.767 Z-11.697 F3960.000
G1 X97.744 Y144.985 Z-11.884 F3960.000
G1 X97.456 Y145.154 Z-12.079 F3960.000
G1 X97.146 Y145.273 Z-12.278 F3960.000
G1 X96.821 Y145.338 Z-12.477 F3960.000
G1 X96.487 Y145.347 Z-12.673 F3960.000
G1 X96.151 Y145.301 Z-12.859 F3960.000
G1 X95.813 Y145.145 Z-12.980 F3960.000
G1 X95.507 Y144.955 Z-13.129 F3960.000
G1 X95.237 Y144.733 Z-13.303 F3960.000
G1 X95.010 Y144.484 Z-13.501 F3960.000
G1 X94.830 Y144.212 Z-13.716 F3960.000
G1 X94.700 Y143.924 Z-13.946 F3960.000
G1 X94.623 Y143.626 Z-14.185 F3960.000
G1 X94.601 Y143.322 Z-14.430 F3960.000
G1 X94.634 Y143.019 Z-14.674 F3960.000
G1 X94.721 Y142.723 Z-14.913 F3960.000
G1 X94.861 Y142.439 Z-15.143 F3960.000
G1 X95.051 Y142.175 Z-15.359 F3960.000
G1 X95.287 Y141.934 Z-15.556 F3960.000
G1 X95.564 Y141.722 Z-15.731 F3960.000
G1 X95.878 Y141.542 Z-15.880 F3960.000
G1 X96.220 Y141.399 Z-16.000 F3960.000
G2 X97.038 Y141.413 Z-16.000 I0.374 J1.958 F3960.000
G3 X98.004 Y144.767 Z-16.000 I-0.444 J1.944 F3960.000
G2 X97.038 Y141.413 Z-16.000 I-1.410 J-1.410 F3960.000
G2 X96.151 Y145.301 Z-16.000 I-0.444 J1.944 F3960.000
G2 X98.004 Y144.767 Z-16.000 I0.444 J-1.944 F3960.000
G1 X98.228 Y144.485 Z-16.172 F3960.000
G1 X98.401 Y144.179 Z-16.363 F3960.000
G1 X98.519 Y143.857 Z-16.567 F3960.000
G1 X98.580 Y143.525 Z-16.781 F3960.000
G1 X98.581 Y143.191 Z-17.000 F3960.000
G1 X98.524 Y142.862 Z-17.219 F3960.000
G1 X98.409 Y142.545 Z-17.433 F3960.000
G1 X98.240 Y142.247 Z-17.637 F3960.000
G1 X98.018 Y141.974 Z-17.828 F3960.000
G1 X97.751 Y141.733 Z-18.000 F3960.000
G1 X98.018 Y141.974 Z-18.172 F3960.000
G1 X98.240 Y142.247 Z-18.363 F3960.000
G1 X98.409 Y142.545 Z-18.567 F3960.000
G1 X98.524 Y142.862 Z-18.781 F3960.000
G1 X98.581 Y143.191 Z-19.000 F3960.000
G1 X98.580 Y143.525 Z-19.219 F3960.000
G1 X98.519 Y143.857 Z-19.433 F3960.000
G1 X98.401 Y144.179 Z-19.637 F3960.000
G1 X98.228 Y144.485 Z-19.828 F3960.000
G1 X98.004 Y144.767 Z-20.000 F3960.000
G2 X97.038 Y141.413 Z-20.000 I-1.410 J-1.410 F3960.000
G2 X96.151 Y145.301 Z-20.000 I-0.444 J1.944 F3960.000
G2 X98.004 Y144.767 Z-20.000 I0.444 J-1.944 F3960.000
G0 X98.004 Y144.767 Z15.000
(finish operation: RampEntryDressup)
(begin operation: RampEntryDressup001)
(machine: not set, mm/min)
G0 X0.000 Y0.000 Z15.000
G0 X110.275 Y291.266 Z15.000
G0 X110.275 Y291.266 Z10.000
G1 X110.275 Y268.749 Z-3.000 F3960.000
G1 X110.275 Y291.266 Z-16.000 F3960.000
G1 X110.275 Y249.266 Z-16.000 F3960.000
G1 X111.447 Y248.094 Z-16.000 F3960.000
G1 X110.275 Y249.266 Z-16.000 F3960.000
G1 X93.275 Y249.266 Z-16.000 F3960.000
G1 X92.104 Y248.094 Z-16.000 F3960.000
G1 X93.275 Y249.266 Z-16.000 F3960.000
G1 X93.275 Y291.266 Z-16.000 F3960.000
G1 X92.104 Y292.437 Z-16.000 F3960.000
G1 X93.275 Y291.266 Z-16.000 F3960.000
G1 X110.275 Y291.266 Z-16.000 F3960.000
G1 X111.447 Y292.437 Z-16.000 F3960.000
G1 X110.275 Y291.266 Z-16.000 F3960.000
G1 X110.275 Y287.801 Z-18.000 F3960.000
G1 X110.275 Y291.266 Z-20.000 F3960.000
G1 X110.275 Y249.266 Z-20.000 F3960.000
G1 X111.447 Y248.094 Z-20.000 F3960.000
G1 X110.275 Y249.266 Z-20.000 F3960.000
G1 X93.275 Y249.266 Z-20.000 F3960.000
G1 X92.104 Y248.094 Z-20.000 F3960.000
G1 X93.275 Y249.266 Z-20.000 F3960.000
G1 X93.275 Y291.266 Z-20.000 F3960.000
G1 X92.104 Y292.437 Z-20.000 F3960.000
G1 X93.275 Y291.266 Z-20.000 F3960.000
G1 X110.275 Y291.266 Z-20.000 F3960.000
G1 X111.447 Y292.437 Z-20.000 F3960.000
G1 X110.275 Y291.266 Z-20.000 F3960.000
G0 X110.275 Y291.266 Z15.000
(finish operation: RampEntryDressup001)
(begin operation: RampEntryDressup002)
(machine: not set, mm/min)
G0 X0.000 Y0.000 Z15.000
G0 X152.258 Y320.749 Z15.000
G0 X152.258 Y320.749 Z10.000
G1 X153.462 Y319.339 Z8.954 F3960.000
G1 X154.430 Y317.777 Z7.879 F3960.000
G1 X155.146 Y316.090 Z6.794 F3960.000
G1 X155.595 Y314.308 Z5.719 F3960.000
G1 X155.771 Y312.462 Z4.673 F3960.000
G1 X155.771 Y299.172 Z-3.000 F3960.000
G1 X155.771 Y312.462 Z-10.673 F3960.000
G1 X155.595 Y314.308 Z-11.719 F3960.000
G1 X155.146 Y316.090 Z-12.794 F3960.000
G1 X154.430 Y317.777 Z-13.879 F3960.000
G1 X153.462 Y319.339 Z-14.954 F3960.000
G1 X152.258 Y320.749 Z-16.000 F3960.000
G2 X155.771 Y312.462 Z-16.000 I-8.488 J-8.486 F3960.000
G1 X155.775 Y228.266 Z-16.000 F3960.000
G2 X143.972 Y216.270 Z-16.000 I-12.002 J0.006 F3960.000
G1 X59.775 Y216.266 Z-16.000 F3960.000
G2 X47.780 Y228.069 Z-16.000 I0.006 J12.002 F3960.000
G1 X47.775 Y312.266 Z-16.000 F3960.000
G2 X59.579 Y324.261 Z-16.000 I12.002 J-0.006 F3960.000
G1 X143.775 Y324.266 Z-16.000 F3960.000
G2 X152.258 Y320.749 Z-16.000 I-0.006 J-12.002 F3960.000
G1 X153.390 Y319.440 Z-17.000 F3960.000
G1 X154.322 Y317.982 Z-18.000 F3960.000
G1 X153.390 Y319.440 Z-19.000 F3960.000
G1 X152.258 Y320.749 Z-20.000 F3960.000
G2 X155.771 Y312.462 Z-20.000 I-8.488 J-8.486 F3960.000
G1 X155.775 Y228.266 Z-20.000 F3960.000
G2 X143.972 Y216.270 Z-20.000 I-12.002 J0.006 F3960.000
G1 X59.775 Y216.266 Z-20.000 F3960.000
G2 X47.780 Y228.069 Z-20.000 I0.006 J12.002 F3960.000
G1 X47.775 Y312.266 Z-20.000 F3960.000
G2 X59.579 Y324.261 Z-20.000 I12.002 J-0.006 F3960.000
G1 X143.775 Y324.266 Z-20.000 F3960.000
G2 X152.258 Y320.749 Z-20.000 I-0.006 J-12.002 F3960.000
G0 X152.258 Y320.749 Z15.000
G0 X452.105 Y183.841 Z15.000
G0 X452.105 Y183.841 Z10.000
G1 X453.310 Y182.431 Z8.954 F3960.000
G1 X454.278 Y180.869 Z7.879 F3960.000
G1 X454.993 Y179.181 Z6.794 F3960.000
G1 X455.442 Y177.399 Z5.719 F3960.000
G1 X455.618 Y175.553 Z4.673 F3960.000
G1 X455.622 Y162.263 Z-3.000 F3960.000
G1 X455.618 Y175.553 Z-10.673 F3960.000
G1 X455.442 Y177.399 Z-11.719 F3960.000
G1 X454.993 Y179.181 Z-12.794 F3960.000
G1 X454.278 Y180.869 Z-13.879 F3960.000
G1 X453.310 Y182.431 Z-14.954 F3960.000
G1 X452.105 Y183.841 Z-16.000 F3960.000
G2 X455.618 Y175.553 Z-16.000 I-8.488 J-8.486 F3960.000
G1 X455.623 Y158.357 Z-16.000 F3960.000
G2 X451.623 Y154.357 Z-16.000 I-4.000 J0.000 F3960.000
G1 X430.623 Y154.357 Z-16.000 F3960.000
G1 X429.451 Y155.529 Z-16.000 F3960.000
G1 X430.623 Y154.357 Z-16.000 F3960.000
G1 X430.623 Y133.357 Z-16.000 F3960.000
G2 X426.623 Y129.357 Z-16.000 I-4.000 J0.000 F3960.000
G1 X350.623 Y129.357 Z-16.000 F3960.000
G1 X349.451 Y130.529 Z-16.000 F3960.000
G1 X350.623 Y129.357 Z-16.000 F3960.000
G1 X350.623 Y87.357 Z-16.000 F3960.000
G1 X349.451 Y86.186 Z-16.000 F3960.000
G1 X350.623 Y87.357 Z-16.000 F3960.000
G1 X426.623 Y87.357 Z-16.000 F3960.000
G2 X430.623 Y83.357 Z-16.000 I-0.000 J-4.000 F3960.000
G1 X430.623 Y62.357 Z-16.000 F3960.000
G1 X429.451 Y61.186 Z-16.000 F3960.000
G1 X430.623 Y62.357 Z-16.000 F3960.000
G1 X451.623 Y62.357 Z-16.000 F3960.000
G2 X455.623 Y58.357 Z-16.000 I-0.000 J-4.000 F3960.000
G1 X455.623 Y41.357 Z-16.000 F3960.000
G2 X443.819 Y29.362 Z-16.000 I-12.002 J0.006 F3960.000
G1 X299.623 Y29.357 Z-16.000 F3960.000
G2 X287.628 Y41.161 Z-16.000 I0.006 J12.002 F3960.000
G1 X287.623 Y83.357 Z-16.000 F3960.000
G2 X291.623 Y87.357 Z-16.000 I4.000 J-0.000 F3960.000
G1 X312.623 Y87.357 Z-16.000 F3960.000
G1 X313.795 Y86.186 Z-16.000 F3960.000
G1 X312.623 Y87.357 Z-16.000 F3960.000
G1 X312.623 Y129.357 Z-16.000 F3960.000
G1 X313.795 Y130.529 Z-16.000 F3960.000
G1 X312.623 Y129.357 Z-16.000 F3960.000
G1 X291.623 Y129.357 Z-16.000 F3960.000
G2 X287.623 Y133.357 Z-16.000 I0.000 J4.000 F3960.000
G1 X287.623 Y175.357 Z-16.000 F3960.000
G2 X299.427 Y187.352 Z-16.000 I12.002 J-0.006 F3960.000
G1 X443.623 Y187.357 Z-16.000 F3960.000
G2 X452.105 Y183.841 Z-16.000 I-0.006 J-12.002 F3960.000
G1 X453.238 Y182.532 Z-17.000 F3960.000
G1 X454.170 Y181.074 Z-18.000 F3960.000
G1 X453.238 Y182.532 Z-19.000 F3960.000
G1 X452.105 Y183.841 Z-20.000 F3960.000
G2 X455.618 Y175.553 Z-20.000 I-8.488 J-8.486 F3960.000
G1 X455.623 Y158.357 Z-20.000 F3960.000
G2 X451.623 Y154.357 Z-20.000 I-4.000 J0.000 F3960.000
G1 X430.623 Y154.357 Z-20.000 F3960.000
G1 X429.451 Y155.529 Z-20.000 F3960.000
G1 X430.623 Y154.357 Z-20.000 F3960.000
G1 X430.623 Y133.357 Z-20.000 F3960.000
G2 X426.623 Y129.357 Z-20.000 I-4.000 J0.000 F3960.000
G1 X350.623 Y129.357 Z-20.000 F3960.000
G1 X349.451 Y130.529 Z-20.000 F3960.000
G1 X350.623 Y129.357 Z-20.000 F3960.000
G1 X350.623 Y87.357 Z-20.000 F3960.000
G1 X349.451 Y86.186 Z-20.000 F3960.000
G1 X350.623 Y87.357 Z-20.000 F3960.000
G1 X426.623 Y87.357 Z-20.000 F3960.000
G2 X430.623 Y83.357 Z-20.000 I-0.000 J-4.000 F3960.000
G1 X430.623 Y62.357 Z-20.000 F3960.000
G1 X429.451 Y61.186 Z-20.000 F3960.000
G1 X430.623 Y62.357 Z-20.000 F3960.000
G1 X451.623 Y62.357 Z-20.000 F3960.000
G2 X455.623 Y58.357 Z-20.000 I-0.000 J-4.000 F3960.000
G1 X455.623 Y41.357 Z-20.000 F3960.000
G2 X443.819 Y29.362 Z-20.000 I-12.002 J0.006 F3960.000
G1 X299.623 Y29.357 Z-20.000 F3960.000
G2 X287.628 Y41.161 Z-20.000 I0.006 J12.002 F3960.000
G1 X287.623 Y83.357 Z-20.000 F3960.000
G2 X291.623 Y87.357 Z-20.000 I4.000 J-0.000 F3960.000
G1 X312.623 Y87.357 Z-20.000 F3960.000
G1 X313.795 Y86.186 Z-20.000 F3960.000
G1 X312.623 Y87.357 Z-20.000 F3960.000
G1 X312.623 Y129.357 Z-20.000 F3960.000
G1 X313.795 Y130.529 Z-20.000 F3960.000
G1 X312.623 Y129.357 Z-20.000 F3960.000
G1 X291.623 Y129.357 Z-20.000 F3960.000
G2 X287.623 Y133.357 Z-20.000 I0.000 J4.000 F3960.000
G1 X287.623 Y175.357 Z-20.000 F3960.000
G2 X299.427 Y187.352 Z-20.000 I12.002 J-0.006 F3960.000
G1 X443.623 Y187.357 Z-20.000 F3960.000
G2 X452.105 Y183.841 Z-20.000 I-0.006 J-12.002 F3960.000
G0 X452.105 Y183.841 Z15.000
G0 X217.077 Y183.841 Z15.000
G0 X217.077 Y183.841 Z10.000
G1 X218.281 Y182.431 Z8.954 F3960.000
G1 X219.249 Y180.869 Z7.879 F3960.000
G1 X219.965 Y179.181 Z6.794 F3960.000
G1 X220.414 Y177.399 Z5.719 F3960.000
G1 X220.590 Y175.553 Z4.673 F3960.000
G1 X220.593 Y162.263 Z-3.000 F3960.000
G1 X220.590 Y175.553 Z-10.673 F3960.000
G1 X220.414 Y177.399 Z-11.719 F3960.000
G1 X219.965 Y179.181 Z-12.794 F3960.000
G1 X219.249 Y180.869 Z-13.879 F3960.000
G1 X218.281 Y182.431 Z-14.954 F3960.000
G1 X217.077 Y183.841 Z-16.000 F3960.000
G2 X220.590 Y175.553 Z-16.000 I-8.488 J-8.486 F3960.000
G1 X220.594 Y158.357 Z-16.000 F3960.000
G2 X216.594 Y154.357 Z-16.000 I-4.000 J0.000 F3960.000
G1 X195.594 Y154.357 Z-16.000 F3960.000
G1 X194.423 Y155.529 Z-16.000 F3960.000
G1 X195.594 Y154.357 Z-16.000 F3960.000
G1 X195.594 Y133.357 Z-16.000 F3960.000
G2 X191.594 Y129.357 Z-16.000 I-4.000 J0.000 F3960.000
G1 X115.594 Y129.357 Z-16.000 F3960.000
G1 X114.423 Y130.529 Z-16.000 F3960.000
G1 X115.594 Y129.357 Z-16.000 F3960.000
G1 X115.594 Y87.357 Z-16.000 F3960.000
G1 X114.423 Y86.186 Z-16.000 F3960.000
G1 X115.594 Y87.357 Z-16.000 F3960.000
G1 X191.594 Y87.357 Z-16.000 F3960.000
G2 X195.594 Y83.357 Z-16.000 I-0.000 J-4.000 F3960.000
G1 X195.594 Y62.357 Z-16.000 F3960.000
G1 X194.423 Y61.186 Z-16.000 F3960.000
G1 X195.594 Y62.357 Z-16.000 F3960.000
G1 X216.594 Y62.357 Z-16.000 F3960.000
G2 X220.594 Y58.357 Z-16.000 I-0.000 J-4.000 F3960.000
G1 X220.594 Y41.357 Z-16.000 F3960.000
G2 X208.791 Y29.362 Z-16.000 I-12.002 J0.006 F3960.000
G1 X64.594 Y29.357 Z-16.000 F3960.000
G2 X52.599 Y41.161 Z-16.000 I0.006 J12.002 F3960.000
G1 X52.594 Y83.357 Z-16.000 F3960.000
G2 X56.594 Y87.357 Z-16.000 I4.000 J-0.000 F3960.000
G1 X77.594 Y87.357 Z-16.000 F3960.000
G1 X78.766 Y86.186 Z-16.000 F3960.000
G1 X77.594 Y87.357 Z-16.000 F3960.000
G1 X77.594 Y129.357 Z-16.000 F3960.000
G1 X78.766 Y130.529 Z-16.000 F3960.000
G1 X77.594 Y129.357 Z-16.000 F3960.000
G1 X56.594 Y129.357 Z-16.000 F3960.000
G2 X52.594 Y133.357 Z-16.000 I0.000 J4.000 F3960.000
G1 X52.594 Y175.357 Z-16.000 F3960.000
G2 X64.398 Y187.352 Z-16.000 I12.002 J-0.006 F3960.000
G1 X208.594 Y187.357 Z-16.000 F3960.000
G2 X217.077 Y183.841 Z-16.000 I-0.006 J-12.002 F3960.000
G1 X218.209 Y182.532 Z-17.000 F3960.000
G1 X219.141 Y181.074 Z-18.000 F3960.000
G1 X218.209 Y182.532 Z-19.000 F3960.000
G1 X217.077 Y183.841 Z-20.000 F3960.000
G2 X220.590 Y175.553 Z-20.000 I-8.488 J-8.486 F3960.000
G1 X220.594 Y158.357 Z-20.000 F3960.000
G2 X216.594 Y154.357 Z-20.000 I-4.000 J0.000 F3960.000
G1 X195.594 Y154.357 Z-20.000 F3960.000
G1 X194.423 Y155.529 Z-20.000 F3960.000
G1 X195.594 Y154.357 Z-20.000 F3960.000
G1 X195.594 Y133.357 Z-20.000 F3960.000
G2 X191.594 Y129.357 Z-20.000 I-4.000 J0.000 F3960.000
G1 X115.594 Y129.357 Z-20.000 F3960.000
G1 X114.423 Y130.529 Z-20.000 F3960.000
G1 X115.594 Y129.357 Z-20.000 F3960.000
G1 X115.594 Y87.357 Z-20.000 F3960.000
G1 X114.423 Y86.186 Z-20.000 F3960.000
G1 X115.594 Y87.357 Z-20.000 F3960.000
G1 X191.594 Y87.357 Z-20.000 F3960.000
G2 X195.594 Y83.357 Z-20.000 I-0.000 J-4.000 F3960.000
G1 X195.594 Y62.357 Z-20.000 F3960.000
G1 X194.423 Y61.186 Z-20.000 F3960.000
G1 X195.594 Y62.357 Z-20.000 F3960.000
G1 X216.594 Y62.357 Z-20.000 F3960.000
G2 X220.594 Y58.357 Z-20.000 I-0.000 J-4.000 F3960.000
G1 X220.594 Y41.357 Z-20.000 F3960.000
G2 X208.791 Y29.362 Z-20.000 I-12.002 J0.006 F3960.000
G1 X64.594 Y29.357 Z-20.000 F3960.000
G2 X52.599 Y41.161 Z-20.000 I0.006 J12.002 F3960.000
G1 X52.594 Y83.357 Z-20.000 F3960.000
G2 X56.594 Y87.357 Z-20.000 I4.000 J-0.000 F3960.000
G1 X77.594 Y87.357 Z-20.000 F3960.000
G1 X78.766 Y86.186 Z-20.000 F3960.000
G1 X77.594 Y87.357 Z-20.000 F3960.000
G1 X77.594 Y129.357 Z-20.000 F3960.000
G1 X78.766 Y130.529 Z-20.000 F3960.000
G1 X77.594 Y129.357 Z-20.000 F3960.000
G1 X56.594 Y129.357 Z-20.000 F3960.000
G2 X52.594 Y133.357 Z-20.000 I0.000 J4.000 F3960.000
G1 X52.594 Y175.357 Z-20.000 F3960.000
G2 X64.398 Y187.352 Z-20.000 I12.002 J-0.006 F3960.000
G1 X208.594 Y187.357 Z-20.000 F3960.000
G2 X217.077 Y183.841 Z-20.000 I-0.006 J-12.002 F3960.000
G0 X217.077 Y183.841 Z15.000
(finish operation: RampEntryDressup002)
(begin postamble)
M05
G17 G54 G90 G80 G40
M2
