(Exported by FreeCAD)
(Post Processor: linuxcnc_post)
(Output Time:2018-10-14 22:37:54.365403)
(begin preamble)
G17 G54 G40 G49 G80 G90
G21
(begin operation: T1: 8mm)
(machine: not set, mm/min)
(T1: 8mm)
M6 T1
M3 S12000
(finish operation: T1: 8mm)
(begin operation: RampEntryDressup009)
(machine: not set, mm/min)
G0 X0.000 Y0.000 Z15.165
G0 X761.075 Y1357.175 Z15.165
G0 X761.075 Y1357.175 Z10.165
G1 X761.495 Y1357.672 Z9.798 F3960.000
G1 X761.828 Y1358.224 Z9.421 F3960.000
G1 X762.068 Y1358.820 Z9.040 F3960.000
G1 X762.209 Y1359.449 Z8.663 F3960.000
G1 X762.250 Y1360.098 Z8.296 F3960.000
G1 X762.250 Y1365.138 Z5.386 F3960.000
G1 X753.112 Y1356.000 Z-2.075 F3960.000
G1 X752.519 Y1356.000 Z-2.418 F3960.000
G1 X753.112 Y1356.000 Z-2.760 F3960.000
G1 X762.250 Y1365.138 Z-10.221 F3960.000
G1 X762.250 Y1360.098 Z-13.131 F3960.000
G1 X762.209 Y1359.449 Z-13.498 F3960.000
G1 X762.068 Y1358.820 Z-13.875 F3960.000
G1 X761.828 Y1358.224 Z-14.256 F3960.000
G1 X761.495 Y1357.672 Z-14.634 F3960.000
G1 X761.075 Y1357.175 Z-15.000 F3960.000
G3 X762.250 Y1360.098 Z-15.000 I-2.856 J2.846 F3960.000
G1 X762.250 Y1365.138 Z-15.000 F3960.000
G1 X753.112 Y1356.000 Z-15.000 F3960.000
G1 X746.324 Y1356.000 Z-15.000 F3960.000
G1 X762.250 Y1371.926 Z-15.000 F3960.000
G1 X762.250 Y1374.250 Z-15.000 F3960.000
G2 X766.026 Y1378.244 Z-15.000 I4.000 J0.000 F3960.000
G3 X767.493 Y1381.809 Z-15.000 I0.204 J2.000 F3960.000
G3 X766.026 Y1382.256 Z-15.000 I-1.320 J-1.697 F3960.000
G1 X765.818 Y1382.282 Z-15.000 F3960.000
G1 X739.535 Y1356.000 Z-15.000 F3960.000
G1 X732.747 Y1356.000 Z-15.000 F3960.000
G1 X762.316 Y1385.568 Z-15.000 F3960.000
G2 X762.250 Y1386.250 Z-15.000 I2.426 J0.578 F3960.000
G1 X762.250 Y1392.291 Z-15.000 F3960.000
G1 X725.959 Y1356.000 Z-15.000 F3960.000
G1 X719.171 Y1356.000 Z-15.000 F3960.000
G1 X762.250 Y1399.079 Z-15.000 F3960.000
G3 X762.226 Y1400.892 Z-15.000 I-18.457 J0.661 F3960.000
G3 X760.304 Y1403.921 Z-15.000 I-3.953 J-0.383 F3960.000
G1 X714.329 Y1357.946 Z-15.000 F3960.000
G2 X713.750 Y1360.098 Z-15.000 I3.414 J2.072 F3960.000
G1 X713.750 Y1364.156 Z-15.000 F3960.000
G1 X754.094 Y1404.500 Z-15.000 F3960.000
G1 X747.306 Y1404.500 Z-15.000 F3960.000
G1 X713.750 Y1370.944 Z-15.000 F3960.000
G1 X713.750 Y1377.732 Z-15.000 F3960.000
G1 X740.518 Y1404.500 Z-15.000 F3960.000
G1 X733.730 Y1404.500 Z-15.000 F3960.000
G1 X713.750 Y1384.520 Z-15.000 F3960.000
G1 X713.750 Y1391.309 Z-15.000 F3960.000
G1 X726.941 Y1404.500 Z-15.000 F3960.000
G1 X720.153 Y1404.500 Z-15.000 F3960.000
G1 X713.750 Y1398.097 Z-15.000 F3960.000
G1 X713.750 Y1400.402 Z-15.000 F3960.000
G2 X717.848 Y1404.500 Z-15.000 I4.014 J0.084 F3960.000
G1 X720.153 Y1404.500 Z-15.000 F3960.000
G0 X720.153 Y1404.500 Z15.165
G0 X761.075 Y1910.675 Z15.165
G0 X761.075 Y1910.675 Z10.165
G1 X761.495 Y1911.172 Z9.798 F3960.000
G1 X761.828 Y1911.724 Z9.421 F3960.000
G1 X762.068 Y1912.320 Z9.040 F3960.000
G1 X762.209 Y1912.949 Z8.663 F3960.000
G1 X762.250 Y1913.598 Z8.296 F3960.000
G1 X762.250 Y1918.638 Z5.386 F3960.000
G1 X753.112 Y1909.500 Z-2.075 F3960.000
G1 X752.519 Y1909.500 Z-2.418 F3960.000
G1 X753.112 Y1909.500 Z-2.760 F3960.000
G1 X762.250 Y1918.638 Z-10.221 F3960.000
G1 X762.250 Y1913.598 Z-13.131 F3960.000
G1 X762.209 Y1912.949 Z-13.498 F3960.000
G1 X762.068 Y1912.320 Z-13.875 F3960.000
G1 X761.828 Y1911.724 Z-14.256 F3960.000
G1 X761.495 Y1911.172 Z-14.634 F3960.000
G1 X761.075 Y1910.675 Z-15.000 F3960.000
G3 X762.250 Y1913.598 Z-15.000 I-2.856 J2.846 F3960.000
G1 X762.250 Y1918.638 Z-15.000 F3960.000
G1 X753.112 Y1909.500 Z-15.000 F3960.000
G1 X746.324 Y1909.500 Z-15.000 F3960.000
G1 X762.250 Y1925.426 Z-15.000 F3960.000
G1 X762.250 Y1927.750 Z-15.000 F3960.000
G2 X766.026 Y1931.744 Z-15.000 I4.000 J0.000 F3960.000
G3 X767.493 Y1935.309 Z-15.000 I0.204 J2.000 F3960.000
G3 X766.026 Y1935.756 Z-15.000 I-1.320 J-1.697 F3960.000
G1 X765.818 Y1935.782 Z-15.000 F3960.000
G1 X739.535 Y1909.500 Z-15.000 F3960.000
G1 X732.747 Y1909.500 Z-15.000 F3960.000
G1 X762.316 Y1939.068 Z-15.000 F3960.000
G2 X762.250 Y1939.750 Z-15.000 I2.426 J0.578 F3960.000
G1 X762.250 Y1945.791 Z-15.000 F3960.000
G1 X725.959 Y1909.500 Z-15.000 F3960.000
G1 X719.171 Y1909.500 Z-15.000 F3960.000
G1 X762.250 Y1952.579 Z-15.000 F3960.000
G3 X762.226 Y1954.392 Z-15.000 I-18.457 J0.661 F3960.000
G3 X760.304 Y1957.421 Z-15.000 I-3.953 J-0.383 F3960.000
G1 X714.329 Y1911.446 Z-15.000 F3960.000
G2 X713.750 Y1913.598 Z-15.000 I3.414 J2.072 F3960.000
G1 X713.750 Y1917.656 Z-15.000 F3960.000
G1 X754.094 Y1958.000 Z-15.000 F3960.000
G1 X747.306 Y1958.000 Z-15.000 F3960.000
G1 X713.750 Y1924.444 Z-15.000 F3960.000
G1 X713.750 Y1931.232 Z-15.000 F3960.000
G1 X740.518 Y1958.000 Z-15.000 F3960.000
G1 X733.730 Y1958.000 Z-15.000 F3960.000
G1 X713.750 Y1938.020 Z-15.000 F3960.000
G1 X713.750 Y1944.809 Z-15.000 F3960.000
G1 X726.941 Y1958.000 Z-15.000 F3960.000
G1 X720.153 Y1958.000 Z-15.000 F3960.000
G1 X713.750 Y1951.597 Z-15.000 F3960.000
G1 X713.750 Y1953.902 Z-15.000 F3960.000
G2 X717.848 Y1958.000 Z-15.000 I4.014 J0.084 F3960.000
G1 X720.153 Y1958.000 Z-15.000 F3960.000
G0 X720.153 Y1958.000 Z15.165
(finish operation: RampEntryDressup009)
(begin operation: RampEntryDressup010)
(machine: not set, mm/min)
G0 X0.000 Y0.000 Z15.000
G0 X230.250 Y2077.112 Z15.000
G0 X230.250 Y2077.112 Z10.000
G1 X236.138 Y2083.000 Z5.192 F3960.000
G1 X230.250 Y2083.000 Z1.792 F3960.000
G1 X230.250 Y2077.112 Z-1.607 F3960.000
G1 X230.250 Y2075.565 Z-2.500 F3960.000
G1 X230.250 Y2077.112 Z-3.393 F3960.000
G1 X230.250 Y2083.000 Z-6.792 F3960.000
G1 X236.138 Y2083.000 Z-10.192 F3960.000
G1 X230.250 Y2077.112 Z-15.000 F3960.000
G1 X236.138 Y2083.000 Z-15.000 F3960.000
G1 X230.250 Y2083.000 Z-15.000 F3960.000
G1 X230.250 Y2077.112 Z-15.000 F3960.000
G1 X230.250 Y2070.323 Z-15.000 F3960.000
G1 X242.927 Y2083.000 Z-15.000 F3960.000
G1 X249.715 Y2083.000 Z-15.000 F3960.000
G1 X230.250 Y2063.535 Z-15.000 F3960.000
G1 X230.250 Y2056.747 Z-15.000 F3960.000
G1 X256.503 Y2083.000 Z-15.000 F3960.000
G1 X263.291 Y2083.000 Z-15.000 F3960.000
G1 X230.250 Y2049.959 Z-15.000 F3960.000
G1 X230.250 Y2043.170 Z-15.000 F3960.000
G1 X270.080 Y2083.000 Z-15.000 F3960.000
G1 X276.868 Y2083.000 Z-15.000 F3960.000
G1 X230.250 Y2036.382 Z-15.000 F3960.000
G1 X230.250 Y2029.594 Z-15.000 F3960.000
G1 X278.750 Y2078.094 Z-15.000 F3960.000
G1 X278.750 Y2071.306 Z-15.000 F3960.000
G1 X230.250 Y2022.806 Z-15.000 F3960.000
G1 X230.250 Y2017.000 Z-15.000 F3960.000
G1 X231.232 Y2017.000 Z-15.000 F3960.000
G1 X278.750 Y2064.518 Z-15.000 F3960.000
G1 X278.750 Y2057.729 Z-15.000 F3960.000
G1 X238.021 Y2017.000 Z-15.000 F3960.000
G1 X244.809 Y2017.000 Z-15.000 F3960.000
G1 X278.750 Y2050.941 Z-15.000 F3960.000
G1 X278.750 Y2044.153 Z-15.000 F3960.000
G1 X251.597 Y2017.000 Z-15.000 F3960.000
G1 X258.385 Y2017.000 Z-15.000 F3960.000
G1 X278.750 Y2037.365 Z-15.000 F3960.000
G1 X278.750 Y2030.576 Z-15.000 F3960.000
G1 X265.174 Y2017.000 Z-15.000 F3960.000
G1 X271.962 Y2017.000 Z-15.000 F3960.000
G1 X278.750 Y2023.788 Z-15.000 F3960.000
G1 X278.750 Y2017.000 Z-15.000 F3960.000
G0 X278.750 Y2017.000 Z15.000
(finish operation: RampEntryDressup010)
(begin operation: RampEntryDressup011)
(machine: not set, mm/min)
G0 X0.000 Y0.000 Z15.165
G0 X254.480 Y2248.430 Z15.165
G0 X254.480 Y2248.430 Z10.165
G1 X255.274 Y2247.367 Z9.617 F3960.000
G1 X255.894 Y2246.236 Z8.985 F3960.000
G1 X256.328 Y2245.061 Z8.284 F3960.000
G1 X256.568 Y2243.865 Z7.526 F3960.000
G1 X256.608 Y2242.673 Z6.727 F3960.000
G1 X256.448 Y2241.508 Z5.903 F3960.000
G1 X256.091 Y2240.394 Z5.071 F3960.000
G1 X255.544 Y2239.353 Z4.247 F3960.000
G1 X254.819 Y2238.406 Z3.448 F3960.000
G1 X253.929 Y2237.572 Z2.690 F3960.000
G1 X252.893 Y2236.869 Z1.988 F3960.000
G1 X251.731 Y2236.309 Z1.357 F3960.000
G1 X250.467 Y2235.904 Z0.809 F3960.000
G1 X249.215 Y2235.804 Z0.082 F3960.000
G1 X250.467 Y2235.904 Z-0.644 F3960.000
G1 X251.731 Y2236.309 Z-1.192 F3960.000
G1 X252.893 Y2236.869 Z-1.824 F3960.000
G1 X253.929 Y2237.572 Z-2.525 F3960.000
G1 X254.819 Y2238.406 Z-3.283 F3960.000
G1 X255.544 Y2239.353 Z-4.082 F3960.000
G1 X256.091 Y2240.394 Z-4.906 F3960.000
G1 X256.448 Y2241.508 Z-5.738 F3960.000
G1 X256.608 Y2242.673 Z-6.562 F3960.000
G1 X256.568 Y2243.865 Z-7.361 F3960.000
G1 X256.328 Y2245.061 Z-8.119 F3960.000
G1 X255.894 Y2246.236 Z-8.820 F3960.000
G1 X255.274 Y2247.367 Z-9.452 F3960.000
G1 X254.480 Y2248.430 Z-10.000 F3960.000
G2 X250.467 Y2235.904 Z-10.000 I-5.230 J-5.230 F3960.000
G2 X248.033 Y2250.496 Z-10.000 I-1.217 J7.296 F3960.000
G2 X254.480 Y2248.430 Z-10.000 I1.217 J-7.296 F3960.000
G0 X254.480 Y2248.430 Z15.165
G0 X807.980 Y2248.430 Z15.165
G0 X807.980 Y2248.430 Z10.165
G1 X808.727 Y2247.557 Z9.509 F3960.000
G1 X809.326 Y2246.585 Z8.841 F3960.000
G1 X809.769 Y2245.532 Z8.173 F3960.000
G1 X810.046 Y2244.417 Z7.517 F3960.000
G1 X810.113 Y2243.080 Z6.876 F3960.000
G1 X809.976 Y2241.782 Z6.168 F3960.000
G1 X809.636 Y2240.553 Z5.408 F3960.000
G1 X809.101 Y2239.420 Z4.613 F3960.000
G1 X808.383 Y2238.406 Z3.800 F3960.000
G1 X807.497 Y2237.535 Z2.986 F3960.000
G1 X806.464 Y2236.826 Z2.191 F3960.000
G1 X805.305 Y2236.294 Z1.431 F3960.000
G1 X804.046 Y2235.950 Z0.723 F3960.000
G1 X802.715 Y2235.804 Z0.082 F3960.000
G1 X804.046 Y2235.950 Z-0.558 F3960.000
G1 X805.305 Y2236.294 Z-1.266 F3960.000
G1 X806.464 Y2236.826 Z-2.026 F3960.000
G1 X807.497 Y2237.535 Z-2.822 F3960.000
G1 X808.383 Y2238.406 Z-3.635 F3960.000
G1 X809.101 Y2239.420 Z-4.448 F3960.000
G1 X809.636 Y2240.553 Z-5.243 F3960.000
G1 X809.976 Y2241.782 Z-6.003 F3960.000
G1 X810.113 Y2243.080 Z-6.712 F3960.000
G1 X810.046 Y2244.417 Z-7.352 F3960.000
G1 X809.769 Y2245.532 Z-8.008 F3960.000
G1 X809.326 Y2246.585 Z-8.676 F3960.000
G1 X808.727 Y2247.557 Z-9.344 F3960.000
G1 X807.980 Y2248.430 Z-10.000 F3960.000
G2 X810.046 Y2244.417 Z-10.000 I-5.230 J-5.230 F3960.000
G2 X795.454 Y2241.983 Z-10.000 I-7.296 J-1.217 F3960.000
G2 X807.980 Y2248.430 Z-10.000 I7.296 J1.217 F3960.000
G0 X807.980 Y2248.430 Z15.165
(finish operation: RampEntryDressup011)
(begin operation: RampEntryDressup012)
(machine: not set, mm/min)
G0 X0.000 Y0.000 Z15.165
G0 X250.660 Y2244.610 Z15.165
G0 X250.660 Y2244.610 Z10.165
G1 X250.869 Y2244.333 Z10.019 F3960.000
G1 X251.034 Y2244.038 Z9.852 F3960.000
G1 X251.152 Y2243.732 Z9.667 F3960.000
G1 X251.220 Y2243.419 Z9.469 F3960.000
G1 X251.237 Y2243.106 Z9.261 F3960.000
G1 X251.202 Y2242.798 Z9.046 F3960.000
G1 X251.117 Y2242.502 Z8.830 F3960.000
G1 X250.982 Y2242.223 Z8.615 F3960.000
G1 X250.802 Y2241.967 Z8.407 F3960.000
G1 X250.578 Y2241.738 Z8.208 F3960.000
G1 X250.315 Y2241.541 Z8.024 F3960.000
G1 X250.018 Y2241.379 Z7.857 F3960.000
G1 X249.694 Y2241.256 Z7.711 F3960.000
G1 X249.328 Y2241.275 Z7.621 F3960.000
G1 X248.975 Y2241.331 Z7.500 F3960.000
G1 X248.641 Y2241.424 Z7.351 F3960.000
G1 X248.332 Y2241.552 Z7.175 F3960.000
G1 X248.055 Y2241.713 Z6.976 F3960.000
G1 X247.813 Y2241.904 Z6.759 F3960.000
G1 X247.612 Y2242.122 Z6.525 F3960.000
G1 X247.454 Y2242.363 Z6.281 F3960.000
G1 X247.344 Y2242.622 Z6.030 F3960.000
G1 X247.281 Y2242.894 Z5.776 F3960.000
G1 X247.269 Y2243.175 Z5.525 F3960.000
G1 X247.307 Y2243.460 Z5.280 F3960.000
G1 X247.394 Y2243.744 Z5.047 F3960.000
G1 X247.528 Y2244.021 Z4.829 F3960.000
G1 X247.708 Y2244.287 Z4.631 F3960.000
G1 X247.930 Y2244.536 Z4.455 F3960.000
G1 X248.191 Y2244.765 Z4.306 F3960.000
G1 X248.484 Y2244.968 Z4.185 F3960.000
G1 X248.806 Y2245.144 Z4.095 F3960.000
G1 X249.142 Y2245.190 Z3.908 F3960.000
G1 X249.476 Y2245.180 Z3.713 F3960.000
G1 X249.802 Y2245.116 Z3.514 F3960.000
G1 X250.112 Y2244.997 Z3.314 F3960.000
G1 X250.400 Y2244.827 Z3.119 F3960.000
G1 X250.660 Y2244.610 Z2.932 F3960.000
G1 X250.400 Y2244.827 Z2.746 F3960.000
G1 X250.112 Y2244.997 Z2.551 F3960.000
G1 X249.802 Y2245.116 Z2.351 F3960.000
G1 X249.476 Y2245.180 Z2.152 F3960.000
G1 X249.142 Y2245.190 Z1.957 F3960.000
G1 X248.806 Y2245.144 Z1.770 F3960.000
G1 X248.484 Y2244.968 Z1.680 F3960.000
G1 X248.191 Y2244.765 Z1.559 F3960.000
G1 X247.930 Y2244.536 Z1.410 F3960.000
G1 X247.708 Y2244.287 Z1.234 F3960.000
G1 X247.528 Y2244.021 Z1.035 F3960.000
G1 X247.394 Y2243.744 Z0.818 F3960.000
G1 X247.307 Y2243.460 Z0.584 F3960.000
G1 X247.269 Y2243.175 Z0.340 F3960.000
G1 X247.281 Y2242.894 Z0.089 F3960.000
G1 X247.344 Y2242.622 Z-0.165 F3960.000
G1 X247.454 Y2242.363 Z-0.416 F3960.000
G1 X247.612 Y2242.122 Z-0.660 F3960.000
G1 X247.813 Y2241.904 Z-0.894 F3960.000
G1 X248.055 Y2241.713 Z-1.111 F3960.000
G1 X248.332 Y2241.552 Z-1.310 F3960.000
G1 X248.641 Y2241.424 Z-1.486 F3960.000
G1 X248.975 Y2241.331 Z-1.635 F3960.000
G1 X249.328 Y2241.275 Z-1.756 F3960.000
G1 X249.694 Y2241.256 Z-1.846 F3960.000
G1 X250.018 Y2241.379 Z-1.992 F3960.000
G1 X250.315 Y2241.541 Z-2.159 F3960.000
G1 X250.578 Y2241.738 Z-2.343 F3960.000
G1 X250.802 Y2241.967 Z-2.542 F3960.000
G1 X250.982 Y2242.223 Z-2.750 F3960.000
G1 X251.117 Y2242.502 Z-2.965 F3960.000
G1 X251.202 Y2242.798 Z-3.181 F3960.000
G1 X251.237 Y2243.106 Z-3.396 F3960.000
G1 X251.220 Y2243.419 Z-3.604 F3960.000
G1 X251.152 Y2243.732 Z-3.803 F3960.000
G1 X251.034 Y2244.038 Z-3.987 F3960.000
G1 X250.869 Y2244.333 Z-4.154 F3960.000
G1 X250.660 Y2244.610 Z-4.300 F3960.000
G1 X250.873 Y2244.350 Z-4.471 F3960.000
G1 X251.041 Y2244.066 Z-4.655 F3960.000
G1 X251.160 Y2243.765 Z-4.849 F3960.000
G1 X251.227 Y2243.452 Z-5.049 F3960.000
G1 X251.242 Y2243.134 Z-5.251 F3960.000
G1 X251.204 Y2242.816 Z-5.451 F3960.000
G1 X251.114 Y2242.505 Z-5.645 F3960.000
G1 X250.974 Y2242.207 Z-5.829 F3960.000
G1 X250.786 Y2241.928 Z-6.000 F3960.000
G3 X250.660 Y2244.610 Z-6.000 I-1.536 J1.272 F3960.000
G2 X249.694 Y2241.256 Z-6.000 I-1.410 J-1.410 F3960.000
G2 X248.806 Y2245.144 Z-6.000 I-0.444 J1.944 F3960.000
G2 X250.660 Y2244.610 Z-6.000 I0.444 J-1.944 F3960.000
G1 X250.869 Y2244.333 Z-6.146 F3960.000
G1 X251.034 Y2244.038 Z-6.313 F3960.000
G1 X251.152 Y2243.732 Z-6.497 F3960.000
G1 X251.220 Y2243.419 Z-6.696 F3960.000
G1 X251.237 Y2243.106 Z-6.904 F3960.000
G1 X251.202 Y2242.798 Z-7.119 F3960.000
G1 X251.117 Y2242.502 Z-7.335 F3960.000
G1 X250.982 Y2242.223 Z-7.550 F3960.000
G1 X250.802 Y2241.967 Z-7.758 F3960.000
G1 X250.578 Y2241.738 Z-7.956 F3960.000
G1 X250.315 Y2241.541 Z-8.141 F3960.000
G1 X250.018 Y2241.379 Z-8.308 F3960.000
G1 X249.694 Y2241.256 Z-8.454 F3960.000
G1 X249.382 Y2241.211 Z-8.635 F3960.000
G1 X249.067 Y2241.215 Z-8.819 F3960.000
G1 X248.757 Y2241.268 Z-9.000 F3960.000
G1 X249.067 Y2241.215 Z-9.181 F3960.000
G1 X249.382 Y2241.211 Z-9.365 F3960.000
G1 X249.694 Y2241.256 Z-9.546 F3960.000
G1 X250.018 Y2241.379 Z-9.692 F3960.000
G1 X250.315 Y2241.541 Z-9.859 F3960.000
G1 X250.578 Y2241.738 Z-10.044 F3960.000
G1 X250.802 Y2241.967 Z-10.242 F3960.000
G1 X250.982 Y2242.223 Z-10.450 F3960.000
G1 X251.117 Y2242.502 Z-10.665 F3960.000
G1 X251.202 Y2242.798 Z-10.881 F3960.000
G1 X251.237 Y2243.106 Z-11.096 F3960.000
G1 X251.220 Y2243.419 Z-11.304 F3960.000
G1 X251.152 Y2243.732 Z-11.503 F3960.000
G1 X251.034 Y2244.038 Z-11.687 F3960.000
G1 X250.869 Y2244.333 Z-11.854 F3960.000
G1 X250.660 Y2244.610 Z-12.000 F3960.000
G2 X249.694 Y2241.256 Z-12.000 I-1.410 J-1.410 F3960.000
G2 X248.806 Y2245.144 Z-12.000 I-0.444 J1.944 F3960.000
G2 X250.660 Y2244.610 Z-12.000 I0.444 J-1.944 F3960.000
G1 X250.869 Y2244.333 Z-12.146 F3960.000
G1 X251.034 Y2244.038 Z-12.313 F3960.000
G1 X251.152 Y2243.732 Z-12.497 F3960.000
G1 X251.220 Y2243.419 Z-12.696 F3960.000
G1 X251.237 Y2243.106 Z-12.904 F3960.000
G1 X251.202 Y2242.798 Z-13.119 F3960.000
G1 X251.117 Y2242.502 Z-13.335 F3960.000
G1 X250.982 Y2242.223 Z-13.550 F3960.000
G1 X250.802 Y2241.967 Z-13.758 F3960.000
G1 X250.578 Y2241.738 Z-13.956 F3960.000
G1 X250.315 Y2241.541 Z-14.141 F3960.000
G1 X250.018 Y2241.379 Z-14.308 F3960.000
G1 X249.694 Y2241.256 Z-14.454 F3960.000
G1 X249.382 Y2241.211 Z-14.635 F3960.000
G1 X249.067 Y2241.215 Z-14.819 F3960.000
G1 X248.757 Y2241.268 Z-15.000 F3960.000
G1 X249.067 Y2241.215 Z-15.181 F3960.000
G1 X249.382 Y2241.211 Z-15.365 F3960.000
G1 X249.694 Y2241.256 Z-15.546 F3960.000
G1 X250.018 Y2241.379 Z-15.692 F3960.000
G1 X250.315 Y2241.541 Z-15.859 F3960.000
G1 X250.578 Y2241.738 Z-16.044 F3960.000
G1 X250.802 Y2241.967 Z-16.242 F3960.000
G1 X250.982 Y2242.223 Z-16.450 F3960.000
G1 X251.117 Y2242.502 Z-16.665 F3960.000
G1 X251.202 Y2242.798 Z-16.881 F3960.000
G1 X251.237 Y2243.106 Z-17.096 F3960.000
G1 X251.220 Y2243.419 Z-17.304 F3960.000
G1 X251.152 Y2243.732 Z-17.503 F3960.000
G1 X251.034 Y2244.038 Z-17.687 F3960.000
G1 X250.869 Y2244.333 Z-17.854 F3960.000
G1 X250.660 Y2244.610 Z-18.000 F3960.000
G2 X249.694 Y2241.256 Z-18.000 I-1.410 J-1.410 F3960.000
G2 X248.806 Y2245.144 Z-18.000 I-0.444 J1.944 F3960.000
G2 X250.660 Y2244.610 Z-18.000 I0.444 J-1.944 F3960.000
G1 X250.869 Y2244.333 Z-18.146 F3960.000
G1 X251.034 Y2244.038 Z-18.313 F3960.000
G1 X251.152 Y2243.732 Z-18.497 F3960.000
G1 X251.220 Y2243.419 Z-18.696 F3960.000
G1 X251.237 Y2243.106 Z-18.904 F3960.000
G1 X251.202 Y2242.798 Z-19.119 F3960.000
G1 X251.117 Y2242.502 Z-19.335 F3960.000
G1 X250.982 Y2242.223 Z-19.550 F3960.000
G1 X250.802 Y2241.967 Z-19.758 F3960.000
G1 X250.578 Y2241.738 Z-19.956 F3960.000
G1 X250.315 Y2241.541 Z-20.141 F3960.000
G1 X250.018 Y2241.379 Z-20.308 F3960.000
G1 X249.694 Y2241.256 Z-20.454 F3960.000
G1 X249.382 Y2241.211 Z-20.635 F3960.000
G1 X249.067 Y2241.215 Z-20.819 F3960.000
G1 X248.757 Y2241.268 Z-21.000 F3960.000
G1 X249.067 Y2241.215 Z-21.181 F3960.000
G1 X249.382 Y2241.211 Z-21.365 F3960.000
G1 X249.694 Y2241.256 Z-21.546 F3960.000
G1 X250.018 Y2241.379 Z-21.692 F3960.000
G1 X250.315 Y2241.541 Z-21.859 F3960.000
G1 X250.578 Y2241.738 Z-22.044 F3960.000
G1 X250.802 Y2241.967 Z-22.242 F3960.000
G1 X250.982 Y2242.223 Z-22.450 F3960.000
G1 X251.117 Y2242.502 Z-22.665 F3960.000
G1 X251.202 Y2242.798 Z-22.881 F3960.000
G1 X251.237 Y2243.106 Z-23.096 F3960.000
G1 X251.220 Y2243.419 Z-23.304 F3960.000
G1 X251.152 Y2243.732 Z-23.503 F3960.000
G1 X251.034 Y2244.038 Z-23.687 F3960.000
G1 X250.869 Y2244.333 Z-23.854 F3960.000
G1 X250.660 Y2244.610 Z-24.000 F3960.000
G2 X249.694 Y2241.256 Z-24.000 I-1.410 J-1.410 F3960.000
G2 X248.806 Y2245.144 Z-24.000 I-0.444 J1.944 F3960.000
G2 X250.660 Y2244.610 Z-24.000 I0.444 J-1.944 F3960.000
G1 X250.884 Y2244.328 Z-24.172 F3960.000
G1 X251.057 Y2244.022 Z-24.363 F3960.000
G1 X251.175 Y2243.700 Z-24.567 F3960.000
G1 X251.235 Y2243.368 Z-24.781 F3960.000
G1 X251.237 Y2243.034 Z-25.000 F3960.000
G1 X251.180 Y2242.705 Z-25.219 F3960.000
G1 X251.065 Y2242.388 Z-25.433 F3960.000
G1 X250.895 Y2242.089 Z-25.637 F3960.000
G1 X250.674 Y2241.817 Z-25.828 F3960.000
G1 X250.406 Y2241.576 Z-26.000 F3960.000
G1 X250.674 Y2241.817 Z-26.172 F3960.000
G1 X250.895 Y2242.089 Z-26.363 F3960.000
G1 X251.065 Y2242.388 Z-26.567 F3960.000
G1 X251.180 Y2242.705 Z-26.781 F3960.000
G1 X251.237 Y2243.034 Z-27.000 F3960.000
G1 X251.235 Y2243.368 Z-27.219 F3960.000
G1 X251.175 Y2243.700 Z-27.433 F3960.000
G1 X251.057 Y2244.022 Z-27.637 F3960.000
G1 X250.884 Y2244.328 Z-27.828 F3960.000
G1 X250.660 Y2244.610 Z-28.000 F3960.000
G2 X249.694 Y2241.256 Z-28.000 I-1.410 J-1.410 F3960.000
G2 X248.806 Y2245.144 Z-28.000 I-0.444 J1.944 F3960.000
G2 X250.660 Y2244.610 Z-28.000 I0.444 J-1.944 F3960.000
G0 X250.660 Y2244.610 Z15.165
G0 X804.160 Y2244.610 Z15.165
G0 X804.160 Y2244.610 Z10.165
G1 X804.369 Y2244.333 Z10.019 F3960.000
G1 X804.534 Y2244.038 Z9.852 F3960.000
G1 X804.652 Y2243.732 Z9.667 F3960.000
G1 X804.720 Y2243.419 Z9.469 F3960.000
G1 X804.737 Y2243.106 Z9.261 F3960.000
G1 X804.702 Y2242.798 Z9.046 F3960.000
G1 X804.617 Y2242.502 Z8.830 F3960.000
G1 X804.482 Y2242.223 Z8.615 F3960.000
G1 X804.302 Y2241.967 Z8.407 F3960.000
G1 X804.078 Y2241.738 Z8.208 F3960.000
G1 X803.815 Y2241.541 Z8.024 F3960.000
G1 X803.518 Y2241.379 Z7.857 F3960.000
G1 X803.194 Y2241.256 Z7.711 F3960.000
G1 X802.828 Y2241.275 Z7.621 F3960.000
G1 X802.475 Y2241.331 Z7.500 F3960.000
G1 X802.141 Y2241.424 Z7.351 F3960.000
G1 X801.832 Y2241.552 Z7.175 F3960.000
G1 X801.555 Y2241.713 Z6.976 F3960.000
G1 X801.313 Y2241.904 Z6.759 F3960.000
G1 X801.112 Y2242.122 Z6.525 F3960.000
G1 X800.954 Y2242.363 Z6.281 F3960.000
G1 X800.844 Y2242.622 Z6.030 F3960.000
G1 X800.781 Y2242.894 Z5.776 F3960.000
G1 X800.769 Y2243.175 Z5.525 F3960.000
G1 X800.807 Y2243.460 Z5.280 F3960.000
G1 X800.894 Y2243.744 Z5.047 F3960.000
G1 X801.028 Y2244.021 Z4.829 F3960.000
G1 X801.208 Y2244.287 Z4.631 F3960.000
G1 X801.430 Y2244.536 Z4.455 F3960.000
G1 X801.691 Y2244.765 Z4.306 F3960.000
G1 X801.984 Y2244.968 Z4.185 F3960.000
G1 X802.306 Y2245.144 Z4.095 F3960.000
G1 X802.642 Y2245.190 Z3.908 F3960.000
G1 X802.976 Y2245.180 Z3.713 F3960.000
G1 X803.302 Y2245.116 Z3.514 F3960.000
G1 X803.612 Y2244.997 Z3.314 F3960.000
G1 X803.900 Y2244.827 Z3.119 F3960.000
G1 X804.160 Y2244.610 Z2.932 F3960.000
G1 X803.900 Y2244.827 Z2.746 F3960.000
G1 X803.612 Y2244.997 Z2.551 F3960.000
G1 X803.302 Y2245.116 Z2.351 F3960.000
G1 X802.976 Y2245.180 Z2.152 F3960.000
G1 X802.642 Y2245.190 Z1.957 F3960.000
G1 X802.306 Y2245.144 Z1.770 F3960.000
G1 X801.984 Y2244.968 Z1.680 F3960.000
G1 X801.691 Y2244.765 Z1.559 F3960.000
G1 X801.430 Y2244.536 Z1.410 F3960.000
G1 X801.208 Y2244.287 Z1.234 F3960.000
G1 X801.028 Y2244.021 Z1.035 F3960.000
G1 X800.894 Y2243.744 Z0.818 F3960.000
G1 X800.807 Y2243.460 Z0.584 F3960.000
G1 X800.769 Y2243.175 Z0.340 F3960.000
G1 X800.781 Y2242.894 Z0.089 F3960.000
G1 X800.844 Y2242.622 Z-0.165 F3960.000
G1 X800.954 Y2242.363 Z-0.416 F3960.000
G1 X801.112 Y2242.122 Z-0.660 F3960.000
G1 X801.313 Y2241.904 Z-0.894 F3960.000
G1 X801.555 Y2241.713 Z-1.111 F3960.000
G1 X801.832 Y2241.552 Z-1.310 F3960.000
G1 X802.141 Y2241.424 Z-1.486 F3960.000
G1 X802.475 Y2241.331 Z-1.635 F3960.000
G1 X802.828 Y2241.275 Z-1.756 F3960.000
G1 X803.194 Y2241.256 Z-1.846 F3960.000
G1 X803.518 Y2241.379 Z-1.992 F3960.000
G1 X803.815 Y2241.541 Z-2.159 F3960.000
G1 X804.078 Y2241.738 Z-2.343 F3960.000
G1 X804.302 Y2241.967 Z-2.542 F3960.000
G1 X804.482 Y2242.223 Z-2.750 F3960.000
G1 X804.617 Y2242.502 Z-2.965 F3960.000
G1 X804.702 Y2242.798 Z-3.181 F3960.000
G1 X804.737 Y2243.106 Z-3.396 F3960.000
G1 X804.720 Y2243.419 Z-3.604 F3960.000
G1 X804.652 Y2243.732 Z-3.803 F3960.000
G1 X804.534 Y2244.038 Z-3.987 F3960.000
G1 X804.369 Y2244.333 Z-4.154 F3960.000
G1 X804.160 Y2244.610 Z-4.300 F3960.000
G1 X804.373 Y2244.350 Z-4.471 F3960.000
G1 X804.541 Y2244.066 Z-4.655 F3960.000
G1 X804.660 Y2243.765 Z-4.849 F3960.000
G1 X804.727 Y2243.452 Z-5.049 F3960.000
G1 X804.742 Y2243.134 Z-5.251 F3960.000
G1 X804.704 Y2242.816 Z-5.451 F3960.000
G1 X804.614 Y2242.505 Z-5.645 F3960.000
G1 X804.474 Y2242.207 Z-5.829 F3960.000
G1 X804.286 Y2241.928 Z-6.000 F3960.000
G3 X804.160 Y2244.610 Z-6.000 I-1.536 J1.272 F3960.000
G2 X803.194 Y2241.256 Z-6.000 I-1.410 J-1.410 F3960.000
G2 X802.306 Y2245.144 Z-6.000 I-0.444 J1.944 F3960.000
G2 X804.160 Y2244.610 Z-6.000 I0.444 J-1.944 F3960.000
G1 X804.369 Y2244.333 Z-6.146 F3960.000
G1 X804.534 Y2244.038 Z-6.313 F3960.000
G1 X804.652 Y2243.732 Z-6.497 F3960.000
G1 X804.720 Y2243.419 Z-6.696 F3960.000
G1 X804.737 Y2243.106 Z-6.904 F3960.000
G1 X804.702 Y2242.798 Z-7.119 F3960.000
G1 X804.617 Y2242.502 Z-7.335 F3960.000
G1 X804.482 Y2242.223 Z-7.550 F3960.000
G1 X804.302 Y2241.967 Z-7.758 F3960.000
G1 X804.078 Y2241.738 Z-7.956 F3960.000
G1 X803.815 Y2241.541 Z-8.141 F3960.000
G1 X803.518 Y2241.379 Z-8.308 F3960.000
G1 X803.194 Y2241.256 Z-8.454 F3960.000
G1 X802.882 Y2241.211 Z-8.635 F3960.000
G1 X802.567 Y2241.215 Z-8.819 F3960.000
G1 X802.257 Y2241.268 Z-9.000 F3960.000
G1 X802.567 Y2241.215 Z-9.181 F3960.000
G1 X802.882 Y2241.211 Z-9.365 F3960.000
G1 X803.194 Y2241.256 Z-9.546 F3960.000
G1 X803.518 Y2241.379 Z-9.692 F3960.000
G1 X803.815 Y2241.541 Z-9.859 F3960.000
G1 X804.078 Y2241.738 Z-10.044 F3960.000
G1 X804.302 Y2241.967 Z-10.242 F3960.000
G1 X804.482 Y2242.223 Z-10.450 F3960.000
G1 X804.617 Y2242.502 Z-10.665 F3960.000
G1 X804.702 Y2242.798 Z-10.881 F3960.000
G1 X804.737 Y2243.106 Z-11.096 F3960.000
G1 X804.720 Y2243.419 Z-11.304 F3960.000
G1 X804.652 Y2243.732 Z-11.503 F3960.000
G1 X804.534 Y2244.038 Z-11.687 F3960.000
G1 X804.369 Y2244.333 Z-11.854 F3960.000
G1 X804.160 Y2244.610 Z-12.000 F3960.000
G2 X803.194 Y2241.256 Z-12.000 I-1.410 J-1.410 F3960.000
G2 X802.306 Y2245.144 Z-12.000 I-0.444 J1.944 F3960.000
G2 X804.160 Y2244.610 Z-12.000 I0.444 J-1.944 F3960.000
G1 X804.369 Y2244.333 Z-12.146 F3960.000
G1 X804.534 Y2244.038 Z-12.313 F3960.000
G1 X804.652 Y2243.732 Z-12.497 F3960.000
G1 X804.720 Y2243.419 Z-12.696 F3960.000
G1 X804.737 Y2243.106 Z-12.904 F3960.000
G1 X804.702 Y2242.798 Z-13.119 F3960.000
G1 X804.617 Y2242.502 Z-13.335 F3960.000
G1 X804.482 Y2242.223 Z-13.550 F3960.000
G1 X804.302 Y2241.967 Z-13.758 F3960.000
G1 X804.078 Y2241.738 Z-13.956 F3960.000
G1 X803.815 Y2241.541 Z-14.141 F3960.000
G1 X803.518 Y2241.379 Z-14.308 F3960.000
G1 X803.194 Y2241.256 Z-14.454 F3960.000
G1 X802.882 Y2241.211 Z-14.635 F3960.000
G1 X802.567 Y2241.215 Z-14.819 F3960.000
G1 X802.257 Y2241.268 Z-15.000 F3960.000
G1 X802.567 Y2241.215 Z-15.181 F3960.000
G1 X802.882 Y2241.211 Z-15.365 F3960.000
G1 X803.194 Y2241.256 Z-15.546 F3960.000
G1 X803.518 Y2241.379 Z-15.692 F3960.000
G1 X803.815 Y2241.541 Z-15.859 F3960.000
G1 X804.078 Y2241.738 Z-16.044 F3960.000
G1 X804.302 Y2241.967 Z-16.242 F3960.000
G1 X804.482 Y2242.223 Z-16.450 F3960.000
G1 X804.617 Y2242.502 Z-16.665 F3960.000
G1 X804.702 Y2242.798 Z-16.881 F3960.000
G1 X804.737 Y2243.106 Z-17.096 F3960.000
G1 X804.720 Y2243.419 Z-17.304 F3960.000
G1 X804.652 Y2243.732 Z-17.503 F3960.000
G1 X804.534 Y2244.038 Z-17.687 F3960.000
G1 X804.369 Y2244.333 Z-17.854 F3960.000
G1 X804.160 Y2244.610 Z-18.000 F3960.000
G2 X803.194 Y2241.256 Z-18.000 I-1.410 J-1.410 F3960.000
G2 X802.306 Y2245.144 Z-18.000 I-0.444 J1.944 F3960.000
G2 X804.160 Y2244.610 Z-18.000 I0.444 J-1.944 F3960.000
G1 X804.369 Y2244.333 Z-18.146 F3960.000
G1 X804.534 Y2244.038 Z-18.313 F3960.000
G1 X804.652 Y2243.732 Z-18.497 F3960.000
G1 X804.720 Y2243.419 Z-18.696 F3960.000
G1 X804.737 Y2243.106 Z-18.904 F3960.000
G1 X804.702 Y2242.798 Z-19.119 F3960.000
G1 X804.617 Y2242.502 Z-19.335 F3960.000
G1 X804.482 Y2242.223 Z-19.550 F3960.000
G1 X804.302 Y2241.967 Z-19.758 F3960.000
G1 X804.078 Y2241.738 Z-19.956 F3960.000
G1 X803.815 Y2241.541 Z-20.141 F3960.000
G1 X803.518 Y2241.379 Z-20.308 F3960.000
G1 X803.194 Y2241.256 Z-20.454 F3960.000
G1 X802.882 Y2241.211 Z-20.635 F3960.000
G1 X802.567 Y2241.215 Z-20.819 F3960.000
G1 X802.257 Y2241.268 Z-21.000 F3960.000
G1 X802.567 Y2241.215 Z-21.181 F3960.000
G1 X802.882 Y2241.211 Z-21.365 F3960.000
G1 X803.194 Y2241.256 Z-21.546 F3960.000
G1 X803.518 Y2241.379 Z-21.692 F3960.000
G1 X803.815 Y2241.541 Z-21.859 F3960.000
G1 X804.078 Y2241.738 Z-22.044 F3960.000
G1 X804.302 Y2241.967 Z-22.242 F3960.000
G1 X804.482 Y2242.223 Z-22.450 F3960.000
G1 X804.617 Y2242.502 Z-22.665 F3960.000
G1 X804.702 Y2242.798 Z-22.881 F3960.000
G1 X804.737 Y2243.106 Z-23.096 F3960.000
G1 X804.720 Y2243.419 Z-23.304 F3960.000
G1 X804.652 Y2243.732 Z-23.503 F3960.000
G1 X804.534 Y2244.038 Z-23.687 F3960.000
G1 X804.369 Y2244.333 Z-23.854 F3960.000
G1 X804.160 Y2244.610 Z-24.000 F3960.000
G2 X803.194 Y2241.256 Z-24.000 I-1.410 J-1.410 F3960.000
G2 X802.306 Y2245.144 Z-24.000 I-0.444 J1.944 F3960.000
G2 X804.160 Y2244.610 Z-24.000 I0.444 J-1.944 F3960.000
G1 X804.384 Y2244.328 Z-24.172 F3960.000
G1 X804.557 Y2244.022 Z-24.363 F3960.000
G1 X804.675 Y2243.700 Z-24.567 F3960.000
G1 X804.735 Y2243.368 Z-24.781 F3960.000
G1 X804.737 Y2243.034 Z-25.000 F3960.000
G1 X804.680 Y2242.705 Z-25.219 F3960.000
G1 X804.565 Y2242.388 Z-25.433 F3960.000
G1 X804.395 Y2242.089 Z-25.637 F3960.000
G1 X804.174 Y2241.817 Z-25.828 F3960.000
G1 X803.906 Y2241.576 Z-26.000 F3960.000
G1 X804.174 Y2241.817 Z-26.172 F3960.000
G1 X804.395 Y2242.089 Z-26.363 F3960.000
G1 X804.565 Y2242.388 Z-26.567 F3960.000
G1 X804.680 Y2242.705 Z-26.781 F3960.000
G1 X804.737 Y2243.034 Z-27.000 F3960.000
G1 X804.735 Y2243.368 Z-27.219 F3960.000
G1 X804.675 Y2243.700 Z-27.433 F3960.000
G1 X804.557 Y2244.022 Z-27.637 F3960.000
G1 X804.384 Y2244.328 Z-27.828 F3960.000
G1 X804.160 Y2244.610 Z-28.000 F3960.000
G2 X803.194 Y2241.256 Z-28.000 I-1.410 J-1.410 F3960.000
G2 X802.306 Y2245.144 Z-28.000 I-0.444 J1.944 F3960.000
G2 X804.160 Y2244.610 Z-28.000 I0.444 J-1.944 F3960.000
G0 X804.160 Y2244.610 Z15.165
G0 X804.160 Y2314.610 Z15.165
G0 X804.160 Y2314.610 Z10.165
G1 X804.369 Y2314.333 Z10.019 F3960.000
G1 X804.534 Y2314.038 Z9.852 F3960.000
G1 X804.652 Y2313.732 Z9.667 F3960.000
G1 X804.720 Y2313.419 Z9.469 F3960.000
G1 X804.737 Y2313.106 Z9.261 F3960.000
G1 X804.702 Y2312.798 Z9.046 F3960.000
G1 X804.617 Y2312.502 Z8.830 F3960.000
G1 X804.482 Y2312.223 Z8.615 F3960.000
G1 X804.302 Y2311.967 Z8.407 F3960.000
G1 X804.078 Y2311.738 Z8.208 F3960.000
G1 X803.815 Y2311.541 Z8.024 F3960.000
G1 X803.518 Y2311.379 Z7.857 F3960.000
G1 X803.194 Y2311.256 Z7.711 F3960.000
G1 X802.828 Y2311.275 Z7.621 F3960.000
G1 X802.475 Y2311.331 Z7.500 F3960.000
G1 X802.141 Y2311.424 Z7.351 F3960.000
G1 X801.832 Y2311.552 Z7.175 F3960.000
G1 X801.555 Y2311.713 Z6.976 F3960.000
G1 X801.313 Y2311.904 Z6.759 F3960.000
G1 X801.112 Y2312.122 Z6.525 F3960.000
G1 X800.954 Y2312.363 Z6.281 F3960.000
G1 X800.844 Y2312.622 Z6.030 F3960.000
G1 X800.781 Y2312.894 Z5.776 F3960.000
G1 X800.769 Y2313.175 Z5.525 F3960.000
G1 X800.807 Y2313.460 Z5.280 F3960.000
G1 X800.894 Y2313.744 Z5.047 F3960.000
G1 X801.028 Y2314.021 Z4.829 F3960.000
G1 X801.208 Y2314.287 Z4.631 F3960.000
G1 X801.430 Y2314.536 Z4.455 F3960.000
G1 X801.691 Y2314.765 Z4.306 F3960.000
G1 X801.984 Y2314.968 Z4.185 F3960.000
G1 X802.306 Y2315.144 Z4.095 F3960.000
G1 X802.642 Y2315.190 Z3.908 F3960.000
G1 X802.976 Y2315.180 Z3.713 F3960.000
G1 X803.302 Y2315.116 Z3.514 F3960.000
G1 X803.612 Y2314.997 Z3.314 F3960.000
G1 X803.900 Y2314.827 Z3.119 F3960.000
G1 X804.160 Y2314.610 Z2.932 F3960.000
G1 X803.900 Y2314.827 Z2.746 F3960.000
G1 X803.612 Y2314.997 Z2.551 F3960.000
G1 X803.302 Y2315.116 Z2.351 F3960.000
G1 X802.976 Y2315.180 Z2.152 F3960.000
G1 X802.642 Y2315.190 Z1.957 F3960.000
G1 X802.306 Y2315.144 Z1.770 F3960.000
G1 X801.984 Y2314.968 Z1.680 F3960.000
G1 X801.691 Y2314.765 Z1.559 F3960.000
G1 X801.430 Y2314.536 Z1.410 F3960.000
G1 X801.208 Y2314.287 Z1.234 F3960.000
G1 X801.028 Y2314.021 Z1.035 F3960.000
G1 X800.894 Y2313.744 Z0.818 F3960.000
G1 X800.807 Y2313.460 Z0.584 F3960.000
G1 X800.769 Y2313.175 Z0.340 F3960.000
G1 X800.781 Y2312.894 Z0.089 F3960.000
G1 X800.844 Y2312.622 Z-0.165 F3960.000
G1 X800.954 Y2312.363 Z-0.416 F3960.000
G1 X801.112 Y2312.122 Z-0.660 F3960.000
G1 X801.313 Y2311.904 Z-0.894 F3960.000
G1 X801.555 Y2311.713 Z-1.111 F3960.000
G1 X801.832 Y2311.552 Z-1.310 F3960.000
G1 X802.141 Y2311.424 Z-1.486 F3960.000
G1 X802.475 Y2311.331 Z-1.635 F3960.000
G1 X802.828 Y2311.275 Z-1.756 F3960.000
G1 X803.194 Y2311.256 Z-1.846 F3960.000
G1 X803.518 Y2311.379 Z-1.992 F3960.000
G1 X803.815 Y2311.541 Z-2.159 F3960.000
G1 X804.078 Y2311.738 Z-2.343 F3960.000
G1 X804.302 Y2311.967 Z-2.542 F3960.000
G1 X804.482 Y2312.223 Z-2.750 F3960.000
G1 X804.617 Y2312.502 Z-2.965 F3960.000
G1 X804.702 Y2312.798 Z-3.181 F3960.000
G1 X804.737 Y2313.106 Z-3.396 F3960.000
G1 X804.720 Y2313.419 Z-3.604 F3960.000
G1 X804.652 Y2313.732 Z-3.803 F3960.000
G1 X804.534 Y2314.038 Z-3.987 F3960.000
G1 X804.369 Y2314.333 Z-4.154 F3960.000
G1 X804.160 Y2314.610 Z-4.300 F3960.000
G1 X804.373 Y2314.350 Z-4.471 F3960.000
G1 X804.541 Y2314.066 Z-4.655 F3960.000
G1 X804.660 Y2313.765 Z-4.849 F3960.000
G1 X804.727 Y2313.452 Z-5.049 F3960.000
G1 X804.742 Y2313.134 Z-5.251 F3960.000
G1 X804.704 Y2312.816 Z-5.451 F3960.000
G1 X804.614 Y2312.505 Z-5.645 F3960.000
G1 X804.474 Y2312.207 Z-5.829 F3960.000
G1 X804.286 Y2311.928 Z-6.000 F3960.000
G3 X804.160 Y2314.610 Z-6.000 I-1.536 J1.272 F3960.000
G2 X803.194 Y2311.256 Z-6.000 I-1.410 J-1.410 F3960.000
G2 X802.306 Y2315.144 Z-6.000 I-0.444 J1.944 F3960.000
G2 X804.160 Y2314.610 Z-6.000 I0.444 J-1.944 F3960.000
G1 X804.369 Y2314.333 Z-6.146 F3960.000
G1 X804.534 Y2314.038 Z-6.313 F3960.000
G1 X804.652 Y2313.732 Z-6.497 F3960.000
G1 X804.720 Y2313.419 Z-6.696 F3960.000
G1 X804.737 Y2313.106 Z-6.904 F3960.000
G1 X804.702 Y2312.798 Z-7.119 F3960.000
G1 X804.617 Y2312.502 Z-7.335 F3960.000
G1 X804.482 Y2312.223 Z-7.550 F3960.000
G1 X804.302 Y2311.967 Z-7.758 F3960.000
G1 X804.078 Y2311.738 Z-7.956 F3960.000
G1 X803.815 Y2311.541 Z-8.141 F3960.000
G1 X803.518 Y2311.379 Z-8.308 F3960.000
G1 X803.194 Y2311.256 Z-8.454 F3960.000
G1 X802.882 Y2311.211 Z-8.635 F3960.000
G1 X802.567 Y2311.215 Z-8.819 F3960.000
G1 X802.257 Y2311.268 Z-9.000 F3960.000
G1 X802.567 Y2311.215 Z-9.181 F3960.000
G1 X802.882 Y2311.211 Z-9.365 F3960.000
G1 X803.194 Y2311.256 Z-9.546 F3960.000
G1 X803.518 Y2311.379 Z-9.692 F3960.000
G1 X803.815 Y2311.541 Z-9.859 F3960.000
G1 X804.078 Y2311.738 Z-10.044 F3960.000
G1 X804.302 Y2311.967 Z-10.242 F3960.000
G1 X804.482 Y2312.223 Z-10.450 F3960.000
G1 X804.617 Y2312.502 Z-10.665 F3960.000
G1 X804.702 Y2312.798 Z-10.881 F3960.000
G1 X804.737 Y2313.106 Z-11.096 F3960.000
G1 X804.720 Y2313.419 Z-11.304 F3960.000
G1 X804.652 Y2313.732 Z-11.503 F3960.000
G1 X804.534 Y2314.038 Z-11.687 F3960.000
G1 X804.369 Y2314.333 Z-11.854 F3960.000
G1 X804.160 Y2314.610 Z-12.000 F3960.000
G2 X803.194 Y2311.256 Z-12.000 I-1.410 J-1.410 F3960.000
G2 X802.306 Y2315.144 Z-12.000 I-0.444 J1.944 F3960.000
G2 X804.160 Y2314.610 Z-12.000 I0.444 J-1.944 F3960.000
G1 X804.369 Y2314.333 Z-12.146 F3960.000
G1 X804.534 Y2314.038 Z-12.313 F3960.000
G1 X804.652 Y2313.732 Z-12.497 F3960.000
G1 X804.720 Y2313.419 Z-12.696 F3960.000
G1 X804.737 Y2313.106 Z-12.904 F3960.000
G1 X804.702 Y2312.798 Z-13.119 F3960.000
G1 X804.617 Y2312.502 Z-13.335 F3960.000
G1 X804.482 Y2312.223 Z-13.550 F3960.000
G1 X804.302 Y2311.967 Z-13.758 F3960.000
G1 X804.078 Y2311.738 Z-13.956 F3960.000
G1 X803.815 Y2311.541 Z-14.141 F3960.000
G1 X803.518 Y2311.379 Z-14.308 F3960.000
G1 X803.194 Y2311.256 Z-14.454 F3960.000
G1 X802.882 Y2311.211 Z-14.635 F3960.000
G1 X802.567 Y2311.215 Z-14.819 F3960.000
G1 X802.257 Y2311.268 Z-15.000 F3960.000
G1 X802.567 Y2311.215 Z-15.181 F3960.000
G1 X802.882 Y2311.211 Z-15.365 F3960.000
G1 X803.194 Y2311.256 Z-15.546 F3960.000
G1 X803.518 Y2311.379 Z-15.692 F3960.000
G1 X803.815 Y2311.541 Z-15.859 F3960.000
G1 X804.078 Y2311.738 Z-16.044 F3960.000
G1 X804.302 Y2311.967 Z-16.242 F3960.000
G1 X804.482 Y2312.223 Z-16.450 F3960.000
G1 X804.617 Y2312.502 Z-16.665 F3960.000
G1 X804.702 Y2312.798 Z-16.881 F3960.000
G1 X804.737 Y2313.106 Z-17.096 F3960.000
G1 X804.720 Y2313.419 Z-17.304 F3960.000
G1 X804.652 Y2313.732 Z-17.503 F3960.000
G1 X804.534 Y2314.038 Z-17.687 F3960.000
G1 X804.369 Y2314.333 Z-17.854 F3960.000
G1 X804.160 Y2314.610 Z-18.000 F3960.000
G2 X803.194 Y2311.256 Z-18.000 I-1.410 J-1.410 F3960.000
G2 X802.306 Y2315.144 Z-18.000 I-0.444 J1.944 F3960.000
G2 X804.160 Y2314.610 Z-18.000 I0.444 J-1.944 F3960.000
G1 X804.369 Y2314.333 Z-18.146 F3960.000
G1 X804.534 Y2314.038 Z-18.313 F3960.000
G1 X804.652 Y2313.732 Z-18.497 F3960.000
G1 X804.720 Y2313.419 Z-18.696 F3960.000
G1 X804.737 Y2313.106 Z-18.904 F3960.000
G1 X804.702 Y2312.798 Z-19.119 F3960.000
G1 X804.617 Y2312.502 Z-19.335 F3960.000
G1 X804.482 Y2312.223 Z-19.550 F3960.000
G1 X804.302 Y2311.967 Z-19.758 F3960.000
G1 X804.078 Y2311.738 Z-19.956 F3960.000
G1 X803.815 Y2311.541 Z-20.141 F3960.000
G1 X803.518 Y2311.379 Z-20.308 F3960.000
G1 X803.194 Y2311.256 Z-20.454 F3960.000
G1 X802.882 Y2311.211 Z-20.635 F3960.000
G1 X802.567 Y2311.215 Z-20.819 F3960.000
G1 X802.257 Y2311.268 Z-21.000 F3960.000
G1 X802.567 Y2311.215 Z-21.181 F3960.000
G1 X802.882 Y2311.211 Z-21.365 F3960.000
G1 X803.194 Y2311.256 Z-21.546 F3960.000
G1 X803.518 Y2311.379 Z-21.692 F3960.000
G1 X803.815 Y2311.541 Z-21.859 F3960.000
G1 X804.078 Y2311.738 Z-22.044 F3960.000
G1 X804.302 Y2311.967 Z-22.242 F3960.000
G1 X804.482 Y2312.223 Z-22.450 F3960.000
G1 X804.617 Y2312.502 Z-22.665 F3960.000
G1 X804.702 Y2312.798 Z-22.881 F3960.000
G1 X804.737 Y2313.106 Z-23.096 F3960.000
G1 X804.720 Y2313.419 Z-23.304 F3960.000
G1 X804.652 Y2313.732 Z-23.503 F3960.000
G1 X804.534 Y2314.038 Z-23.687 F3960.000
G1 X804.369 Y2314.333 Z-23.854 F3960.000
G1 X804.160 Y2314.610 Z-24.000 F3960.000
G2 X803.194 Y2311.256 Z-24.000 I-1.410 J-1.410 F3960.000
G2 X802.306 Y2315.144 Z-24.000 I-0.444 J1.944 F3960.000
G2 X804.160 Y2314.610 Z-24.000 I0.444 J-1.944 F3960.000
G1 X804.384 Y2314.328 Z-24.172 F3960.000
G1 X804.557 Y2314.022 Z-24.363 F3960.000
G1 X804.675 Y2313.700 Z-24.567 F3960.000
G1 X804.735 Y2313.368 Z-24.781 F3960.000
G1 X804.737 Y2313.034 Z-25.000 F3960.000
G1 X804.680 Y2312.705 Z-25.219 F3960.000
G1 X804.565 Y2312.388 Z-25.433 F3960.000
G1 X804.395 Y2312.089 Z-25.637 F3960.000
G1 X804.174 Y2311.817 Z-25.828 F3960.000
G1 X803.906 Y2311.576 Z-26.000 F3960.000
G1 X804.174 Y2311.817 Z-26.172 F3960.000
G1 X804.395 Y2312.089 Z-26.363 F3960.000
G1 X804.565 Y2312.388 Z-26.567 F3960.000
G1 X804.680 Y2312.705 Z-26.781 F3960.000
G1 X804.737 Y2313.034 Z-27.000 F3960.000
G1 X804.735 Y2313.368 Z-27.219 F3960.000
G1 X804.675 Y2313.700 Z-27.433 F3960.000
G1 X804.557 Y2314.022 Z-27.637 F3960.000
G1 X804.384 Y2314.328 Z-27.828 F3960.000
G1 X804.160 Y2314.610 Z-28.000 F3960.000
G2 X803.194 Y2311.256 Z-28.000 I-1.410 J-1.410 F3960.000
G2 X802.306 Y2315.144 Z-28.000 I-0.444 J1.944 F3960.000
G2 X804.160 Y2314.610 Z-28.000 I0.444 J-1.944 F3960.000
G0 X804.160 Y2314.610 Z15.165
G0 X250.660 Y2314.610 Z15.165
G0 X250.660 Y2314.610 Z10.165
G1 X250.869 Y2314.333 Z10.019 F3960.000
G1 X251.034 Y2314.038 Z9.852 F3960.000
G1 X251.152 Y2313.732 Z9.667 F3960.000
G1 X251.220 Y2313.419 Z9.469 F3960.000
G1 X251.237 Y2313.106 Z9.261 F3960.000
G1 X251.202 Y2312.798 Z9.046 F3960.000
G1 X251.117 Y2312.502 Z8.830 F3960.000
G1 X250.982 Y2312.223 Z8.615 F3960.000
G1 X250.802 Y2311.967 Z8.407 F3960.000
G1 X250.578 Y2311.738 Z8.208 F3960.000
G1 X250.315 Y2311.541 Z8.024 F3960.000
G1 X250.018 Y2311.379 Z7.857 F3960.000
G1 X249.694 Y2311.256 Z7.711 F3960.000
G1 X249.328 Y2311.275 Z7.621 F3960.000
G1 X248.975 Y2311.331 Z7.500 F3960.000
G1 X248.641 Y2311.424 Z7.351 F3960.000
G1 X248.332 Y2311.552 Z7.175 F3960.000
G1 X248.055 Y2311.713 Z6.976 F3960.000
G1 X247.813 Y2311.904 Z6.759 F3960.000
G1 X247.612 Y2312.122 Z6.525 F3960.000
G1 X247.454 Y2312.363 Z6.281 F3960.000
G1 X247.344 Y2312.622 Z6.030 F3960.000
G1 X247.281 Y2312.894 Z5.776 F3960.000
G1 X247.269 Y2313.175 Z5.525 F3960.000
G1 X247.307 Y2313.460 Z5.280 F3960.000
G1 X247.394 Y2313.744 Z5.047 F3960.000
G1 X247.528 Y2314.021 Z4.829 F3960.000
G1 X247.708 Y2314.287 Z4.631 F3960.000
G1 X247.930 Y2314.536 Z4.455 F3960.000
G1 X248.191 Y2314.765 Z4.306 F3960.000
G1 X248.484 Y2314.968 Z4.185 F3960.000
G1 X248.806 Y2315.144 Z4.095 F3960.000
G1 X249.142 Y2315.190 Z3.908 F3960.000
G1 X249.476 Y2315.180 Z3.713 F3960.000
G1 X249.802 Y2315.116 Z3.514 F3960.000
G1 X250.112 Y2314.997 Z3.314 F3960.000
G1 X250.400 Y2314.827 Z3.119 F3960.000
G1 X250.660 Y2314.610 Z2.932 F3960.000
G1 X250.400 Y2314.827 Z2.746 F3960.000
G1 X250.112 Y2314.997 Z2.551 F3960.000
G1 X249.802 Y2315.116 Z2.351 F3960.000
G1 X249.476 Y2315.180 Z2.152 F3960.000
G1 X249.142 Y2315.190 Z1.957 F3960.000
G1 X248.806 Y2315.144 Z1.770 F3960.000
G1 X248.484 Y2314.968 Z1.680 F3960.000
G1 X248.191 Y2314.765 Z1.559 F3960.000
G1 X247.930 Y2314.536 Z1.410 F3960.000
G1 X247.708 Y2314.287 Z1.234 F3960.000
G1 X247.528 Y2314.021 Z1.035 F3960.000
G1 X247.394 Y2313.744 Z0.818 F3960.000
G1 X247.307 Y2313.460 Z0.584 F3960.000
G1 X247.269 Y2313.175 Z0.340 F3960.000
G1 X247.281 Y2312.894 Z0.089 F3960.000
G1 X247.344 Y2312.622 Z-0.165 F3960.000
G1 X247.454 Y2312.363 Z-0.416 F3960.000
G1 X247.612 Y2312.122 Z-0.660 F3960.000
G1 X247.813 Y2311.904 Z-0.894 F3960.000
G1 X248.055 Y2311.713 Z-1.111 F3960.000
G1 X248.332 Y2311.552 Z-1.310 F3960.000
G1 X248.641 Y2311.424 Z-1.486 F3960.000
G1 X248.975 Y2311.331 Z-1.635 F3960.000
G1 X249.328 Y2311.275 Z-1.756 F3960.000
G1 X249.694 Y2311.256 Z-1.846 F3960.000
G1 X250.018 Y2311.379 Z-1.992 F3960.000
G1 X250.315 Y2311.541 Z-2.159 F3960.000
G1 X250.578 Y2311.738 Z-2.343 F3960.000
G1 X250.802 Y2311.967 Z-2.542 F3960.000
G1 X250.982 Y2312.223 Z-2.750 F3960.000
G1 X251.117 Y2312.502 Z-2.965 F3960.000
G1 X251.202 Y2312.798 Z-3.181 F3960.000
G1 X251.237 Y2313.106 Z-3.396 F3960.000
G1 X251.220 Y2313.419 Z-3.604 F3960.000
G1 X251.152 Y2313.732 Z-3.803 F3960.000
G1 X251.034 Y2314.038 Z-3.987 F3960.000
G1 X250.869 Y2314.333 Z-4.154 F3960.000
G1 X250.660 Y2314.610 Z-4.300 F3960.000
G1 X250.873 Y2314.350 Z-4.471 F3960.000
G1 X251.041 Y2314.066 Z-4.655 F3960.000
G1 X251.160 Y2313.765 Z-4.849 F3960.000
G1 X251.227 Y2313.452 Z-5.049 F3960.000
G1 X251.242 Y2313.134 Z-5.251 F3960.000
G1 X251.204 Y2312.816 Z-5.451 F3960.000
G1 X251.114 Y2312.505 Z-5.645 F3960.000
G1 X250.974 Y2312.207 Z-5.829 F3960.000
G1 X250.786 Y2311.928 Z-6.000 F3960.000
G3 X250.660 Y2314.610 Z-6.000 I-1.536 J1.272 F3960.000
G2 X249.694 Y2311.256 Z-6.000 I-1.410 J-1.410 F3960.000
G2 X248.806 Y2315.144 Z-6.000 I-0.444 J1.944 F3960.000
G2 X250.660 Y2314.610 Z-6.000 I0.444 J-1.944 F3960.000
G1 X250.869 Y2314.333 Z-6.146 F3960.000
G1 X251.034 Y2314.038 Z-6.313 F3960.000
G1 X251.152 Y2313.732 Z-6.497 F3960.000
G1 X251.220 Y2313.419 Z-6.696 F3960.000
G1 X251.237 Y2313.106 Z-6.904 F3960.000
G1 X251.202 Y2312.798 Z-7.119 F3960.000
G1 X251.117 Y2312.502 Z-7.335 F3960.000
G1 X250.982 Y2312.223 Z-7.550 F3960.000
G1 X250.802 Y2311.967 Z-7.758 F3960.000
G1 X250.578 Y2311.738 Z-7.956 F3960.000
G1 X250.315 Y2311.541 Z-8.141 F3960.000
G1 X250.018 Y2311.379 Z-8.308 F3960.000
G1 X249.694 Y2311.256 Z-8.454 F3960.000
G1 X249.382 Y2311.211 Z-8.635 F3960.000
G1 X249.067 Y2311.215 Z-8.819 F3960.000
G1 X248.757 Y2311.268 Z-9.000 F3960.000
G1 X249.067 Y2311.215 Z-9.181 F3960.000
G1 X249.382 Y2311.211 Z-9.365 F3960.000
G1 X249.694 Y2311.256 Z-9.546 F3960.000
G1 X250.018 Y2311.379 Z-9.692 F3960.000
G1 X250.315 Y2311.541 Z-9.859 F3960.000
G1 X250.578 Y2311.738 Z-10.044 F3960.000
G1 X250.802 Y2311.967 Z-10.242 F3960.000
G1 X250.982 Y2312.223 Z-10.450 F3960.000
G1 X251.117 Y2312.502 Z-10.665 F3960.000
G1 X251.202 Y2312.798 Z-10.881 F3960.000
G1 X251.237 Y2313.106 Z-11.096 F3960.000
G1 X251.220 Y2313.419 Z-11.304 F3960.000
G1 X251.152 Y2313.732 Z-11.503 F3960.000
G1 X251.034 Y2314.038 Z-11.687 F3960.000
G1 X250.869 Y2314.333 Z-11.854 F3960.000
G1 X250.660 Y2314.610 Z-12.000 F3960.000
G2 X249.694 Y2311.256 Z-12.000 I-1.410 J-1.410 F3960.000
G2 X248.806 Y2315.144 Z-12.000 I-0.444 J1.944 F3960.000
G2 X250.660 Y2314.610 Z-12.000 I0.444 J-1.944 F3960.000
G1 X250.869 Y2314.333 Z-12.146 F3960.000
G1 X251.034 Y2314.038 Z-12.313 F3960.000
G1 X251.152 Y2313.732 Z-12.497 F3960.000
G1 X251.220 Y2313.419 Z-12.696 F3960.000
G1 X251.237 Y2313.106 Z-12.904 F3960.000
G1 X251.202 Y2312.798 Z-13.119 F3960.000
G1 X251.117 Y2312.502 Z-13.335 F3960.000
G1 X250.982 Y2312.223 Z-13.550 F3960.000
G1 X250.802 Y2311.967 Z-13.758 F3960.000
G1 X250.578 Y2311.738 Z-13.956 F3960.000
G1 X250.315 Y2311.541 Z-14.141 F3960.000
G1 X250.018 Y2311.379 Z-14.308 F3960.000
G1 X249.694 Y2311.256 Z-14.454 F3960.000
G1 X249.382 Y2311.211 Z-14.635 F3960.000
G1 X249.067 Y2311.215 Z-14.819 F3960.000
G1 X248.757 Y2311.268 Z-15.000 F3960.000
G1 X249.067 Y2311.215 Z-15.181 F3960.000
G1 X249.382 Y2311.211 Z-15.365 F3960.000
G1 X249.694 Y2311.256 Z-15.546 F3960.000
G1 X250.018 Y2311.379 Z-15.692 F3960.000
G1 X250.315 Y2311.541 Z-15.859 F3960.000
G1 X250.578 Y2311.738 Z-16.044 F3960.000
G1 X250.802 Y2311.967 Z-16.242 F3960.000
G1 X250.982 Y2312.223 Z-16.450 F3960.000
G1 X251.117 Y2312.502 Z-16.665 F3960.000
G1 X251.202 Y2312.798 Z-16.881 F3960.000
G1 X251.237 Y2313.106 Z-17.096 F3960.000
G1 X251.220 Y2313.419 Z-17.304 F3960.000
G1 X251.152 Y2313.732 Z-17.503 F3960.000
G1 X251.034 Y2314.038 Z-17.687 F3960.000
G1 X250.869 Y2314.333 Z-17.854 F3960.000
G1 X250.660 Y2314.610 Z-18.000 F3960.000
G2 X249.694 Y2311.256 Z-18.000 I-1.410 J-1.410 F3960.000
G2 X248.806 Y2315.144 Z-18.000 I-0.444 J1.944 F3960.000
G2 X250.660 Y2314.610 Z-18.000 I0.444 J-1.944 F3960.000
G1 X250.869 Y2314.333 Z-18.146 F3960.000
G1 X251.034 Y2314.038 Z-18.313 F3960.000
G1 X251.152 Y2313.732 Z-18.497 F3960.000
G1 X251.220 Y2313.419 Z-18.696 F3960.000
G1 X251.237 Y2313.106 Z-18.904 F3960.000
G1 X251.202 Y2312.798 Z-19.119 F3960.000
G1 X251.117 Y2312.502 Z-19.335 F3960.000
G1 X250.982 Y2312.223 Z-19.550 F3960.000
G1 X250.802 Y2311.967 Z-19.758 F3960.000
G1 X250.578 Y2311.738 Z-19.956 F3960.000
G1 X250.315 Y2311.541 Z-20.141 F3960.000
G1 X250.018 Y2311.379 Z-20.308 F3960.000
G1 X249.694 Y2311.256 Z-20.454 F3960.000
G1 X249.382 Y2311.211 Z-20.635 F3960.000
G1 X249.067 Y2311.215 Z-20.819 F3960.000
G1 X248.757 Y2311.268 Z-21.000 F3960.000
G1 X249.067 Y2311.215 Z-21.181 F3960.000
G1 X249.382 Y2311.211 Z-21.365 F3960.000
G1 X249.694 Y2311.256 Z-21.546 F3960.000
G1 X250.018 Y2311.379 Z-21.692 F3960.000
G1 X250.315 Y2311.541 Z-21.859 F3960.000
G1 X250.578 Y2311.738 Z-22.044 F3960.000
G1 X250.802 Y2311.967 Z-22.242 F3960.000
G1 X250.982 Y2312.223 Z-22.450 F3960.000
G1 X251.117 Y2312.502 Z-22.665 F3960.000
G1 X251.202 Y2312.798 Z-22.881 F3960.000
G1 X251.237 Y2313.106 Z-23.096 F3960.000
G1 X251.220 Y2313.419 Z-23.304 F3960.000
G1 X251.152 Y2313.732 Z-23.503 F3960.000
G1 X251.034 Y2314.038 Z-23.687 F3960.000
G1 X250.869 Y2314.333 Z-23.854 F3960.000
G1 X250.660 Y2314.610 Z-24.000 F3960.000
G2 X249.694 Y2311.256 Z-24.000 I-1.410 J-1.410 F3960.000
G2 X248.806 Y2315.144 Z-24.000 I-0.444 J1.944 F3960.000
G2 X250.660 Y2314.610 Z-24.000 I0.444 J-1.944 F3960.000
G1 X250.884 Y2314.328 Z-24.172 F3960.000
G1 X251.057 Y2314.022 Z-24.363 F3960.000
G1 X251.175 Y2313.700 Z-24.567 F3960.000
G1 X251.235 Y2313.368 Z-24.781 F3960.000
G1 X251.237 Y2313.034 Z-25.000 F3960.000
G1 X251.180 Y2312.705 Z-25.219 F3960.000
G1 X251.065 Y2312.388 Z-25.433 F3960.000
G1 X250.895 Y2312.089 Z-25.637 F3960.000
G1 X250.674 Y2311.817 Z-25.828 F3960.000
G1 X250.406 Y2311.576 Z-26.000 F3960.000
G1 X250.674 Y2311.817 Z-26.172 F3960.000
G1 X250.895 Y2312.089 Z-26.363 F3960.000
G1 X251.065 Y2312.388 Z-26.567 F3960.000
G1 X251.180 Y2312.705 Z-26.781 F3960.000
G1 X251.237 Y2313.034 Z-27.000 F3960.000
G1 X251.235 Y2313.368 Z-27.219 F3960.000
G1 X251.175 Y2313.700 Z-27.433 F3960.000
G1 X251.057 Y2314.022 Z-27.637 F3960.000
G1 X250.884 Y2314.328 Z-27.828 F3960.000
G1 X250.660 Y2314.610 Z-28.000 F3960.000
G2 X249.694 Y2311.256 Z-28.000 I-1.410 J-1.410 F3960.000
G2 X248.806 Y2315.144 Z-28.000 I-0.444 J1.944 F3960.000
G2 X250.660 Y2314.610 Z-28.000 I0.444 J-1.944 F3960.000
G0 X250.660 Y2314.610 Z15.165
(finish operation: RampEntryDressup012)
(begin operation: RampEntryDressup013)
(machine: not set, mm/min)
G0 X0.000 Y0.000 Z15.000
G0 X779.513 Y2447.960 Z15.000
G0 X779.513 Y2447.960 Z10.000
G1 X776.208 Y2447.960 Z8.092 F3960.000
G1 X775.468 Y2447.893 Z7.724 F3960.000
G1 X774.766 Y2447.711 Z7.321 F3960.000
G1 X774.119 Y2447.418 Z6.892 F3960.000
G1 X773.543 Y2447.020 Z6.448 F3960.000
G1 X773.050 Y2446.527 Z5.998 F3960.000
G1 X772.652 Y2445.951 Z5.553 F3960.000
G1 X772.359 Y2445.304 Z5.125 F3960.000
G1 X772.177 Y2444.602 Z4.722 F3960.000
G1 X772.110 Y2443.862 Z4.354 F3960.000
G1 X772.110 Y2440.557 Z2.445 F3960.000
G1 X779.513 Y2447.960 Z-3.599 F3960.000
G1 X780.207 Y2447.960 Z-4.000 F3960.000
G1 X779.513 Y2447.960 Z-4.401 F3960.000
G1 X772.110 Y2440.557 Z-10.445 F3960.000
G1 X772.110 Y2443.862 Z-12.354 F3960.000
G1 X772.177 Y2444.602 Z-12.722 F3960.000
G1 X772.359 Y2445.304 Z-13.125 F3960.000
G1 X772.652 Y2445.951 Z-13.553 F3960.000
G1 X773.050 Y2446.527 Z-13.998 F3960.000
G1 X773.543 Y2447.020 Z-14.448 F3960.000
G1 X774.119 Y2447.418 Z-14.892 F3960.000
G1 X774.766 Y2447.711 Z-15.321 F3960.000
G1 X775.468 Y2447.893 Z-15.724 F3960.000
G1 X776.208 Y2447.960 Z-16.092 F3960.000
G1 X779.513 Y2447.960 Z-18.000 F3960.000
G1 X776.208 Y2447.960 Z-18.000 F3960.000
G3 X772.110 Y2443.862 Z-18.000 I-0.084 J-4.014 F3960.000
G1 X772.110 Y2440.557 Z-18.000 F3960.000
G1 X779.513 Y2447.960 Z-18.000 F3960.000
G1 X786.301 Y2447.960 Z-18.000 F3960.000
G1 X772.110 Y2433.769 Z-18.000 F3960.000
G1 X772.110 Y2426.980 Z-18.000 F3960.000
G1 X793.090 Y2447.960 Z-18.000 F3960.000
G1 X799.878 Y2447.960 Z-18.000 F3960.000
G1 X772.110 Y2420.192 Z-18.000 F3960.000
G1 X772.110 Y2413.404 Z-18.000 F3960.000
G1 X806.666 Y2447.960 Z-18.000 F3960.000
G1 X813.454 Y2447.960 Z-18.000 F3960.000
G1 X772.110 Y2406.616 Z-18.000 F3960.000
G1 X772.110 Y2403.058 Z-18.000 F3960.000
G3 X772.888 Y2400.606 Z-18.000 I4.009 J-0.078 F3960.000
G1 X819.464 Y2447.182 Z-18.000 F3960.000
G2 X821.086 Y2444.352 Z-18.000 I-2.323 J-3.211 F3960.000
G2 X821.110 Y2442.039 Z-18.000 I-23.522 J-1.401 F3960.000
G1 X778.031 Y2398.960 Z-18.000 F3960.000
G1 X784.819 Y2398.960 Z-18.000 F3960.000
G1 X821.110 Y2435.251 Z-18.000 F3960.000
G1 X821.110 Y2428.463 Z-18.000 F3960.000
G1 X791.607 Y2398.960 Z-18.000 F3960.000
G1 X798.395 Y2398.960 Z-18.000 F3960.000
G1 X821.110 Y2421.675 Z-18.000 F3960.000
G1 X821.110 Y2414.886 Z-18.000 F3960.000
G1 X805.184 Y2398.960 Z-18.000 F3960.000
G1 X811.972 Y2398.960 Z-18.000 F3960.000
G1 X821.110 Y2408.098 Z-18.000 F3960.000
G1 X821.110 Y2403.058 Z-18.000 F3960.000
G2 X819.935 Y2400.135 Z-18.000 I-4.031 J-0.077 F3960.000
G0 X819.935 Y2400.135 Z15.000
(finish operation: RampEntryDressup013)
(begin operation: RampEntryDressup014)
(machine: not set, mm/min)
G0 X0.000 Y0.000 Z15.000
G0 X797.610 Y2480.960 Z15.000
G0 X797.610 Y2480.960 Z10.000
G1 X797.610 Y2456.711 Z-4.000 F3960.000
G1 X797.610 Y2480.960 Z-18.000 F3960.000
G1 X797.610 Y2455.960 Z-18.000 F3960.000
G1 X795.610 Y2455.960 Z-18.000 F3960.000
G1 X795.610 Y2480.960 Z-18.000 F3960.000
G1 X797.610 Y2480.960 Z-18.000 F3960.000
G0 X797.610 Y2480.960 Z15.000
(finish operation: RampEntryDressup014)
(begin operation: RampEntryDressup015)
(machine: not set, mm/min)
G0 X0.000 Y0.000 Z15.165
G0 X631.472 Y2482.413 Z15.165
G0 X631.472 Y2482.413 Z10.165
G1 X628.000 Y2478.941 Z7.330 F3960.000
G1 X628.000 Y2480.036 Z6.698 F3960.000
G1 X629.656 Y2481.341 Z5.480 F3960.000
G1 X631.472 Y2482.413 Z4.261 F3960.000
G1 X633.693 Y2483.356 Z2.872 F3960.000
G1 X636.021 Y2483.961 Z1.472 F3960.000
G1 X638.420 Y2484.218 Z0.082 F3960.000
G1 X636.021 Y2483.961 Z-1.307 F3960.000
G1 X633.693 Y2483.356 Z-2.707 F3960.000
G1 X631.472 Y2482.413 Z-4.097 F3960.000
G1 X629.656 Y2481.341 Z-5.315 F3960.000
G1 X628.000 Y2480.036 Z-6.533 F3960.000
G1 X628.000 Y2478.941 Z-7.165 F3960.000
G1 X631.472 Y2482.413 Z-10.000 F3960.000
G1 X628.000 Y2478.941 Z-10.000 F3960.000
G1 X628.000 Y2480.036 Z-10.000 F3960.000
G2 X631.472 Y2482.413 Z-10.000 I10.535 J-11.665 F3960.000
G2 X640.038 Y2484.192 Z-10.000 I7.487 J-14.542 F3960.000
G1 X628.000 Y2472.153 Z-10.000 F3960.000
G1 X628.000 Y2465.365 Z-10.000 F3960.000
G1 X645.522 Y2482.887 Z-10.000 F3960.000
G2 X649.714 Y2480.291 Z-10.000 I-6.338 J-14.914 F3960.000
G1 X628.000 Y2458.577 Z-10.000 F3960.000
G1 X628.000 Y2453.424 Z-10.000 F3960.000
G3 X628.893 Y2452.682 Z-10.000 I6.560 J6.990 F3960.000
G1 X650.000 Y2473.788 Z-10.000 F3960.000
G1 X650.000 Y2467.000 Z-10.000 F3960.000
G1 X633.262 Y2450.262 Z-10.000 F3960.000
G3 X639.024 Y2449.236 Z-10.000 I5.655 J15.062 F3960.000
G1 X650.000 Y2460.212 Z-10.000 F3960.000
G1 X650.000 Y2453.424 Z-10.000 F3960.000
G0 X650.000 Y2453.424 Z15.165
G0 X498.972 Y2481.913 Z15.165
G0 X498.972 Y2481.913 Z10.165
G1 X495.500 Y2478.441 Z7.330 F3960.000
G1 X495.500 Y2479.536 Z6.698 F3960.000
G1 X497.156 Y2480.841 Z5.480 F3960.000
G1 X498.972 Y2481.913 Z4.261 F3960.000
G1 X501.193 Y2482.856 Z2.872 F3960.000
G1 X503.521 Y2483.461 Z1.472 F3960.000
G1 X505.920 Y2483.718 Z0.082 F3960.000
G1 X503.521 Y2483.461 Z-1.307 F3960.000
G1 X501.193 Y2482.856 Z-2.707 F3960.000
G1 X498.972 Y2481.913 Z-4.097 F3960.000
G1 X497.156 Y2480.841 Z-5.315 F3960.000
G1 X495.500 Y2479.536 Z-6.533 F3960.000
G1 X495.500 Y2478.441 Z-7.165 F3960.000
G1 X498.972 Y2481.913 Z-10.000 F3960.000
G1 X495.500 Y2478.441 Z-10.000 F3960.000
G1 X495.500 Y2479.536 Z-10.000 F3960.000
G2 X498.972 Y2481.913 Z-10.000 I10.535 J-11.665 F3960.000
G2 X507.538 Y2483.692 Z-10.000 I7.487 J-14.542 F3960.000
G1 X495.500 Y2471.653 Z-10.000 F3960.000
G1 X495.500 Y2464.865 Z-10.000 F3960.000
G1 X513.022 Y2482.387 Z-10.000 F3960.000
G2 X517.214 Y2479.791 Z-10.000 I-6.338 J-14.914 F3960.000
G1 X495.500 Y2458.077 Z-10.000 F3960.000
G1 X495.500 Y2452.924 Z-10.000 F3960.000
G3 X496.393 Y2452.182 Z-10.000 I6.560 J6.990 F3960.000
G1 X517.500 Y2473.288 Z-10.000 F3960.000
G1 X517.500 Y2466.500 Z-10.000 F3960.000
G1 X500.762 Y2449.762 Z-10.000 F3960.000
G3 X506.524 Y2448.736 Z-10.000 I5.655 J15.062 F3960.000
G1 X517.500 Y2459.712 Z-10.000 F3960.000
G1 X517.500 Y2452.924 Z-10.000 F3960.000
G0 X517.500 Y2452.924 Z15.165
(finish operation: RampEntryDressup015)
(begin operation: RampEntryDressup017)
(machine: not set, mm/min)
G0 X0.000 Y0.000 Z15.165
G0 X809.410 Y1381.660 Z15.165
G0 X809.410 Y1381.660 Z10.165
G1 X809.619 Y1381.383 Z10.019 F3960.000
G1 X809.784 Y1381.088 Z9.852 F3960.000
G1 X809.902 Y1380.782 Z9.667 F3960.000
G1 X809.970 Y1380.469 Z9.469 F3960.000
G1 X809.987 Y1380.156 Z9.261 F3960.000
G1 X809.952 Y1379.848 Z9.046 F3960.000
G1 X809.867 Y1379.552 Z8.830 F3960.000
G1 X809.732 Y1379.273 Z8.615 F3960.000
G1 X809.552 Y1379.017 Z8.407 F3960.000
G1 X809.328 Y1378.788 Z8.208 F3960.000
G1 X809.065 Y1378.591 Z8.024 F3960.000
G1 X808.768 Y1378.429 Z7.857 F3960.000
G1 X808.444 Y1378.306 Z7.711 F3960.000
G1 X808.078 Y1378.325 Z7.621 F3960.000
G1 X807.725 Y1378.381 Z7.500 F3960.000
G1 X807.391 Y1378.474 Z7.351 F3960.000
G1 X807.082 Y1378.602 Z7.175 F3960.000
G1 X806.805 Y1378.763 Z6.976 F3960.000
G1 X806.563 Y1378.954 Z6.759 F3960.000
G1 X806.362 Y1379.172 Z6.525 F3960.000
G1 X806.204 Y1379.413 Z6.281 F3960.000
G1 X806.094 Y1379.672 Z6.030 F3960.000
G1 X806.031 Y1379.944 Z5.776 F3960.000
G1 X806.019 Y1380.225 Z5.525 F3960.000
G1 X806.057 Y1380.510 Z5.280 F3960.000
G1 X806.144 Y1380.794 Z5.047 F3960.000
G1 X806.278 Y1381.071 Z4.829 F3960.000
G1 X806.458 Y1381.337 Z4.631 F3960.000
G1 X806.680 Y1381.586 Z4.455 F3960.000
G1 X806.941 Y1381.815 Z4.306 F3960.000
G1 X807.234 Y1382.018 Z4.185 F3960.000
G1 X807.556 Y1382.194 Z4.095 F3960.000
G1 X807.892 Y1382.240 Z3.908 F3960.000
G1 X808.226 Y1382.230 Z3.713 F3960.000
G1 X808.552 Y1382.166 Z3.514 F3960.000
G1 X808.862 Y1382.047 Z3.314 F3960.000
G1 X809.150 Y1381.877 Z3.119 F3960.000
G1 X809.410 Y1381.660 Z2.932 F3960.000
G1 X809.150 Y1381.877 Z2.746 F3960.000
G1 X808.862 Y1382.047 Z2.551 F3960.000
G1 X808.552 Y1382.166 Z2.351 F3960.000
G1 X808.226 Y1382.230 Z2.152 F3960.000
G1 X807.892 Y1382.240 Z1.957 F3960.000
G1 X807.556 Y1382.194 Z1.770 F3960.000
G1 X807.234 Y1382.018 Z1.680 F3960.000
G1 X806.941 Y1381.815 Z1.559 F3960.000
G1 X806.680 Y1381.586 Z1.410 F3960.000
G1 X806.458 Y1381.337 Z1.234 F3960.000
G1 X806.278 Y1381.071 Z1.035 F3960.000
G1 X806.144 Y1380.794 Z0.818 F3960.000
G1 X806.057 Y1380.510 Z0.584 F3960.000
G1 X806.019 Y1380.225 Z0.340 F3960.000
G1 X806.031 Y1379.944 Z0.089 F3960.000
G1 X806.094 Y1379.672 Z-0.165 F3960.000
G1 X806.204 Y1379.413 Z-0.416 F3960.000
G1 X806.362 Y1379.172 Z-0.660 F3960.000
G1 X806.563 Y1378.954 Z-0.894 F3960.000
G1 X806.805 Y1378.763 Z-1.111 F3960.000
G1 X807.082 Y1378.602 Z-1.310 F3960.000
G1 X807.391 Y1378.474 Z-1.486 F3960.000
G1 X807.725 Y1378.381 Z-1.635 F3960.000
G1 X808.078 Y1378.325 Z-1.756 F3960.000
G1 X808.444 Y1378.306 Z-1.846 F3960.000
G1 X808.768 Y1378.429 Z-1.992 F3960.000
G1 X809.065 Y1378.591 Z-2.159 F3960.000
G1 X809.328 Y1378.788 Z-2.343 F3960.000
G1 X809.552 Y1379.017 Z-2.542 F3960.000
G1 X809.732 Y1379.273 Z-2.750 F3960.000
G1 X809.867 Y1379.552 Z-2.965 F3960.000
G1 X809.952 Y1379.848 Z-3.181 F3960.000
G1 X809.987 Y1380.156 Z-3.396 F3960.000
G1 X809.970 Y1380.469 Z-3.604 F3960.000
G1 X809.902 Y1380.782 Z-3.803 F3960.000
G1 X809.784 Y1381.088 Z-3.987 F3960.000
G1 X809.619 Y1381.383 Z-4.154 F3960.000
G1 X809.410 Y1381.660 Z-4.300 F3960.000
G1 X809.623 Y1381.400 Z-4.471 F3960.000
G1 X809.791 Y1381.116 Z-4.655 F3960.000
G1 X809.910 Y1380.815 Z-4.849 F3960.000
G1 X809.977 Y1380.502 Z-5.049 F3960.000
G1 X809.992 Y1380.184 Z-5.251 F3960.000
G1 X809.954 Y1379.866 Z-5.451 F3960.000
G1 X809.864 Y1379.555 Z-5.645 F3960.000
G1 X809.724 Y1379.257 Z-5.829 F3960.000
G1 X809.536 Y1378.978 Z-6.000 F3960.000
G3 X809.410 Y1381.660 Z-6.000 I-1.536 J1.272 F3960.000
G2 X808.444 Y1378.306 Z-6.000 I-1.410 J-1.410 F3960.000
G2 X807.556 Y1382.194 Z-6.000 I-0.444 J1.944 F3960.000
G2 X809.410 Y1381.660 Z-6.000 I0.444 J-1.944 F3960.000
G1 X809.619 Y1381.383 Z-6.146 F3960.000
G1 X809.784 Y1381.088 Z-6.313 F3960.000
G1 X809.902 Y1380.782 Z-6.497 F3960.000
G1 X809.970 Y1380.469 Z-6.696 F3960.000
G1 X809.987 Y1380.156 Z-6.904 F3960.000
G1 X809.952 Y1379.848 Z-7.119 F3960.000
G1 X809.867 Y1379.552 Z-7.335 F3960.000
G1 X809.732 Y1379.273 Z-7.550 F3960.000
G1 X809.552 Y1379.017 Z-7.758 F3960.000
G1 X809.328 Y1378.788 Z-7.956 F3960.000
G1 X809.065 Y1378.591 Z-8.141 F3960.000
G1 X808.768 Y1378.429 Z-8.308 F3960.000
G1 X808.444 Y1378.306 Z-8.454 F3960.000
G1 X808.132 Y1378.261 Z-8.635 F3960.000
G1 X807.817 Y1378.265 Z-8.819 F3960.000
G1 X807.507 Y1378.318 Z-9.000 F3960.000
G1 X807.817 Y1378.265 Z-9.181 F3960.000
G1 X808.132 Y1378.261 Z-9.365 F3960.000
G1 X808.444 Y1378.306 Z-9.546 F3960.000
G1 X808.768 Y1378.429 Z-9.692 F3960.000
G1 X809.065 Y1378.591 Z-9.859 F3960.000
G1 X809.328 Y1378.788 Z-10.044 F3960.000
G1 X809.552 Y1379.017 Z-10.242 F3960.000
G1 X809.732 Y1379.273 Z-10.450 F3960.000
G1 X809.867 Y1379.552 Z-10.665 F3960.000
G1 X809.952 Y1379.848 Z-10.881 F3960.000
G1 X809.987 Y1380.156 Z-11.096 F3960.000
G1 X809.970 Y1380.469 Z-11.304 F3960.000
G1 X809.902 Y1380.782 Z-11.503 F3960.000
G1 X809.784 Y1381.088 Z-11.687 F3960.000
G1 X809.619 Y1381.383 Z-11.854 F3960.000
G1 X809.410 Y1381.660 Z-12.000 F3960.000
G2 X808.444 Y1378.306 Z-12.000 I-1.410 J-1.410 F3960.000
G2 X807.556 Y1382.194 Z-12.000 I-0.444 J1.944 F3960.000
G2 X809.410 Y1381.660 Z-12.000 I0.444 J-1.944 F3960.000
G1 X809.619 Y1381.383 Z-12.146 F3960.000
G1 X809.784 Y1381.088 Z-12.313 F3960.000
G1 X809.902 Y1380.782 Z-12.497 F3960.000
G1 X809.970 Y1380.469 Z-12.696 F3960.000
G1 X809.987 Y1380.156 Z-12.904 F3960.000
G1 X809.952 Y1379.848 Z-13.119 F3960.000
G1 X809.867 Y1379.552 Z-13.335 F3960.000
G1 X809.732 Y1379.273 Z-13.550 F3960.000
G1 X809.552 Y1379.017 Z-13.758 F3960.000
G1 X809.328 Y1378.788 Z-13.956 F3960.000
G1 X809.065 Y1378.591 Z-14.141 F3960.000
G1 X808.768 Y1378.429 Z-14.308 F3960.000
G1 X808.444 Y1378.306 Z-14.454 F3960.000
G1 X808.132 Y1378.261 Z-14.635 F3960.000
G1 X807.817 Y1378.265 Z-14.819 F3960.000
G1 X807.507 Y1378.318 Z-15.000 F3960.000
G1 X807.817 Y1378.265 Z-15.181 F3960.000
G1 X808.132 Y1378.261 Z-15.365 F3960.000
G1 X808.444 Y1378.306 Z-15.546 F3960.000
G1 X808.768 Y1378.429 Z-15.692 F3960.000
G1 X809.065 Y1378.591 Z-15.859 F3960.000
G1 X809.328 Y1378.788 Z-16.044 F3960.000
G1 X809.552 Y1379.017 Z-16.242 F3960.000
G1 X809.732 Y1379.273 Z-16.450 F3960.000
G1 X809.867 Y1379.552 Z-16.665 F3960.000
G1 X809.952 Y1379.848 Z-16.881 F3960.000
G1 X809.987 Y1380.156 Z-17.096 F3960.000
G1 X809.970 Y1380.469 Z-17.304 F3960.000
G1 X809.902 Y1380.782 Z-17.503 F3960.000
G1 X809.784 Y1381.088 Z-17.687 F3960.000
G1 X809.619 Y1381.383 Z-17.854 F3960.000
G1 X809.410 Y1381.660 Z-18.000 F3960.000
G2 X808.444 Y1378.306 Z-18.000 I-1.410 J-1.410 F3960.000
G2 X807.556 Y1382.194 Z-18.000 I-0.444 J1.944 F3960.000
G2 X809.410 Y1381.660 Z-18.000 I0.444 J-1.944 F3960.000
G1 X809.619 Y1381.383 Z-18.146 F3960.000
G1 X809.784 Y1381.088 Z-18.313 F3960.000
G1 X809.902 Y1380.782 Z-18.497 F3960.000
G1 X809.970 Y1380.469 Z-18.696 F3960.000
G1 X809.987 Y1380.156 Z-18.904 F3960.000
G1 X809.952 Y1379.848 Z-19.119 F3960.000
G1 X809.867 Y1379.552 Z-19.335 F3960.000
G1 X809.732 Y1379.273 Z-19.550 F3960.000
G1 X809.552 Y1379.017 Z-19.758 F3960.000
G1 X809.328 Y1378.788 Z-19.956 F3960.000
G1 X809.065 Y1378.591 Z-20.141 F3960.000
G1 X808.768 Y1378.429 Z-20.308 F3960.000
G1 X808.444 Y1378.306 Z-20.454 F3960.000
G1 X808.132 Y1378.261 Z-20.635 F3960.000
G1 X807.817 Y1378.265 Z-20.819 F3960.000
G1 X807.507 Y1378.318 Z-21.000 F3960.000
G1 X807.817 Y1378.265 Z-21.181 F3960.000
G1 X808.132 Y1378.261 Z-21.365 F3960.000
G1 X808.444 Y1378.306 Z-21.546 F3960.000
G1 X808.768 Y1378.429 Z-21.692 F3960.000
G1 X809.065 Y1378.591 Z-21.859 F3960.000
G1 X809.328 Y1378.788 Z-22.044 F3960.000
G1 X809.552 Y1379.017 Z-22.242 F3960.000
G1 X809.732 Y1379.273 Z-22.450 F3960.000
G1 X809.867 Y1379.552 Z-22.665 F3960.000
G1 X809.952 Y1379.848 Z-22.881 F3960.000
G1 X809.987 Y1380.156 Z-23.096 F3960.000
G1 X809.970 Y1380.469 Z-23.304 F3960.000
G1 X809.902 Y1380.782 Z-23.503 F3960.000
G1 X809.784 Y1381.088 Z-23.687 F3960.000
G1 X809.619 Y1381.383 Z-23.854 F3960.000
G1 X809.410 Y1381.660 Z-24.000 F3960.000
G2 X808.444 Y1378.306 Z-24.000 I-1.410 J-1.410 F3960.000
G2 X807.556 Y1382.194 Z-24.000 I-0.444 J1.944 F3960.000
G2 X809.410 Y1381.660 Z-24.000 I0.444 J-1.944 F3960.000
G1 X809.634 Y1381.378 Z-24.172 F3960.000
G1 X809.807 Y1381.072 Z-24.363 F3960.000
G1 X809.925 Y1380.750 Z-24.567 F3960.000
G1 X809.985 Y1380.418 Z-24.781 F3960.000
G1 X809.987 Y1380.084 Z-25.000 F3960.000
G1 X809.930 Y1379.755 Z-25.219 F3960.000
G1 X809.815 Y1379.438 Z-25.433 F3960.000
G1 X809.645 Y1379.139 Z-25.637 F3960.000
G1 X809.424 Y1378.867 Z-25.828 F3960.000
G1 X809.156 Y1378.626 Z-26.000 F3960.000
G1 X809.424 Y1378.867 Z-26.172 F3960.000
G1 X809.645 Y1379.139 Z-26.363 F3960.000
G1 X809.815 Y1379.438 Z-26.567 F3960.000
G1 X809.930 Y1379.755 Z-26.781 F3960.000
G1 X809.987 Y1380.084 Z-27.000 F3960.000
G1 X809.985 Y1380.418 Z-27.219 F3960.000
G1 X809.925 Y1380.750 Z-27.433 F3960.000
G1 X809.807 Y1381.072 Z-27.637 F3960.000
G1 X809.634 Y1381.378 Z-27.828 F3960.000
G1 X809.410 Y1381.660 Z-28.000 F3960.000
G2 X808.444 Y1378.306 Z-28.000 I-1.410 J-1.410 F3960.000
G2 X807.556 Y1382.194 Z-28.000 I-0.444 J1.944 F3960.000
G2 X809.410 Y1381.660 Z-28.000 I0.444 J-1.944 F3960.000
G0 X809.410 Y1381.660 Z15.165
G0 X809.410 Y1935.160 Z15.165
G0 X809.410 Y1935.160 Z10.165
G1 X809.619 Y1934.883 Z10.019 F3960.000
G1 X809.784 Y1934.588 Z9.852 F3960.000
G1 X809.902 Y1934.282 Z9.667 F3960.000
G1 X809.970 Y1933.969 Z9.469 F3960.000
G1 X809.987 Y1933.656 Z9.261 F3960.000
G1 X809.952 Y1933.348 Z9.046 F3960.000
G1 X809.867 Y1933.052 Z8.830 F3960.000
G1 X809.732 Y1932.773 Z8.615 F3960.000
G1 X809.552 Y1932.517 Z8.407 F3960.000
G1 X809.328 Y1932.288 Z8.208 F3960.000
G1 X809.065 Y1932.091 Z8.024 F3960.000
G1 X808.768 Y1931.929 Z7.857 F3960.000
G1 X808.444 Y1931.806 Z7.711 F3960.000
G1 X808.078 Y1931.825 Z7.621 F3960.000
G1 X807.725 Y1931.881 Z7.500 F3960.000
G1 X807.391 Y1931.974 Z7.351 F3960.000
G1 X807.082 Y1932.102 Z7.175 F3960.000
G1 X806.805 Y1932.263 Z6.976 F3960.000
G1 X806.563 Y1932.454 Z6.759 F3960.000
G1 X806.362 Y1932.672 Z6.525 F3960.000
G1 X806.204 Y1932.913 Z6.281 F3960.000
G1 X806.094 Y1933.172 Z6.030 F3960.000
G1 X806.031 Y1933.444 Z5.776 F3960.000
G1 X806.019 Y1933.725 Z5.525 F3960.000
G1 X806.057 Y1934.010 Z5.280 F3960.000
G1 X806.144 Y1934.294 Z5.047 F3960.000
G1 X806.278 Y1934.571 Z4.829 F3960.000
G1 X806.458 Y1934.837 Z4.631 F3960.000
G1 X806.680 Y1935.086 Z4.455 F3960.000
G1 X806.941 Y1935.315 Z4.306 F3960.000
G1 X807.234 Y1935.518 Z4.185 F3960.000
G1 X807.556 Y1935.694 Z4.095 F3960.000
G1 X807.892 Y1935.740 Z3.908 F3960.000
G1 X808.226 Y1935.730 Z3.713 F3960.000
G1 X808.552 Y1935.666 Z3.514 F3960.000
G1 X808.862 Y1935.547 Z3.314 F3960.000
G1 X809.150 Y1935.377 Z3.119 F3960.000
G1 X809.410 Y1935.160 Z2.932 F3960.000
G1 X809.150 Y1935.377 Z2.746 F3960.000
G1 X808.862 Y1935.547 Z2.551 F3960.000
G1 X808.552 Y1935.666 Z2.351 F3960.000
G1 X808.226 Y1935.730 Z2.152 F3960.000
G1 X807.892 Y1935.740 Z1.957 F3960.000
G1 X807.556 Y1935.694 Z1.770 F3960.000
G1 X807.234 Y1935.518 Z1.680 F3960.000
G1 X806.941 Y1935.315 Z1.559 F3960.000
G1 X806.680 Y1935.086 Z1.410 F3960.000
G1 X806.458 Y1934.837 Z1.234 F3960.000
G1 X806.278 Y1934.571 Z1.035 F3960.000
G1 X806.144 Y1934.294 Z0.818 F3960.000
G1 X806.057 Y1934.010 Z0.584 F3960.000
G1 X806.019 Y1933.725 Z0.340 F3960.000
G1 X806.031 Y1933.444 Z0.089 F3960.000
G1 X806.094 Y1933.172 Z-0.165 F3960.000
G1 X806.204 Y1932.913 Z-0.416 F3960.000
G1 X806.362 Y1932.672 Z-0.660 F3960.000
G1 X806.563 Y1932.454 Z-0.894 F3960.000
G1 X806.805 Y1932.263 Z-1.111 F3960.000
G1 X807.082 Y1932.102 Z-1.310 F3960.000
G1 X807.391 Y1931.974 Z-1.486 F3960.000
G1 X807.725 Y1931.881 Z-1.635 F3960.000
G1 X808.078 Y1931.825 Z-1.756 F3960.000
G1 X808.444 Y1931.806 Z-1.846 F3960.000
G1 X808.768 Y1931.929 Z-1.992 F3960.000
G1 X809.065 Y1932.091 Z-2.159 F3960.000
G1 X809.328 Y1932.288 Z-2.343 F3960.000
G1 X809.552 Y1932.517 Z-2.542 F3960.000
G1 X809.732 Y1932.773 Z-2.750 F3960.000
G1 X809.867 Y1933.052 Z-2.965 F3960.000
G1 X809.952 Y1933.348 Z-3.181 F3960.000
G1 X809.987 Y1933.656 Z-3.396 F3960.000
G1 X809.970 Y1933.969 Z-3.604 F3960.000
G1 X809.902 Y1934.282 Z-3.803 F3960.000
G1 X809.784 Y1934.588 Z-3.987 F3960.000
G1 X809.619 Y1934.883 Z-4.154 F3960.000
G1 X809.410 Y1935.160 Z-4.300 F3960.000
G1 X809.623 Y1934.900 Z-4.471 F3960.000
G1 X809.791 Y1934.616 Z-4.655 F3960.000
G1 X809.910 Y1934.315 Z-4.849 F3960.000
G1 X809.977 Y1934.002 Z-5.049 F3960.000
G1 X809.992 Y1933.684 Z-5.251 F3960.000
G1 X809.954 Y1933.366 Z-5.451 F3960.000
G1 X809.864 Y1933.055 Z-5.645 F3960.000
G1 X809.724 Y1932.757 Z-5.829 F3960.000
G1 X809.536 Y1932.478 Z-6.000 F3960.000
G3 X809.410 Y1935.160 Z-6.000 I-1.536 J1.272 F3960.000
G2 X808.444 Y1931.806 Z-6.000 I-1.410 J-1.410 F3960.000
G2 X807.556 Y1935.694 Z-6.000 I-0.444 J1.944 F3960.000
G2 X809.410 Y1935.160 Z-6.000 I0.444 J-1.944 F3960.000
G1 X809.619 Y1934.883 Z-6.146 F3960.000
G1 X809.784 Y1934.588 Z-6.313 F3960.000
G1 X809.902 Y1934.282 Z-6.497 F3960.000
G1 X809.970 Y1933.969 Z-6.696 F3960.000
G1 X809.987 Y1933.656 Z-6.904 F3960.000
G1 X809.952 Y1933.348 Z-7.119 F3960.000
G1 X809.867 Y1933.052 Z-7.335 F3960.000
G1 X809.732 Y1932.773 Z-7.550 F3960.000
G1 X809.552 Y1932.517 Z-7.758 F3960.000
G1 X809.328 Y1932.288 Z-7.956 F3960.000
G1 X809.065 Y1932.091 Z-8.141 F3960.000
G1 X808.768 Y1931.929 Z-8.308 F3960.000
G1 X808.444 Y1931.806 Z-8.454 F3960.000
G1 X808.132 Y1931.761 Z-8.635 F3960.000
G1 X807.817 Y1931.765 Z-8.819 F3960.000
G1 X807.507 Y1931.818 Z-9.000 F3960.000
G1 X807.817 Y1931.765 Z-9.181 F3960.000
G1 X808.132 Y1931.761 Z-9.365 F3960.000
G1 X808.444 Y1931.806 Z-9.546 F3960.000
G1 X808.768 Y1931.929 Z-9.692 F3960.000
G1 X809.065 Y1932.091 Z-9.859 F3960.000
G1 X809.328 Y1932.288 Z-10.044 F3960.000
G1 X809.552 Y1932.517 Z-10.242 F3960.000
G1 X809.732 Y1932.773 Z-10.450 F3960.000
G1 X809.867 Y1933.052 Z-10.665 F3960.000
G1 X809.952 Y1933.348 Z-10.881 F3960.000
G1 X809.987 Y1933.656 Z-11.096 F3960.000
G1 X809.970 Y1933.969 Z-11.304 F3960.000
G1 X809.902 Y1934.282 Z-11.503 F3960.000
G1 X809.784 Y1934.588 Z-11.687 F3960.000
G1 X809.619 Y1934.883 Z-11.854 F3960.000
G1 X809.410 Y1935.160 Z-12.000 F3960.000
G2 X808.444 Y1931.806 Z-12.000 I-1.410 J-1.410 F3960.000
G2 X807.556 Y1935.694 Z-12.000 I-0.444 J1.944 F3960.000
G2 X809.410 Y1935.160 Z-12.000 I0.444 J-1.944 F3960.000
G1 X809.619 Y1934.883 Z-12.146 F3960.000
G1 X809.784 Y1934.588 Z-12.313 F3960.000
G1 X809.902 Y1934.282 Z-12.497 F3960.000
G1 X809.970 Y1933.969 Z-12.696 F3960.000
G1 X809.987 Y1933.656 Z-12.904 F3960.000
G1 X809.952 Y1933.348 Z-13.119 F3960.000
G1 X809.867 Y1933.052 Z-13.335 F3960.000
G1 X809.732 Y1932.773 Z-13.550 F3960.000
G1 X809.552 Y1932.517 Z-13.758 F3960.000
G1 X809.328 Y1932.288 Z-13.956 F3960.000
G1 X809.065 Y1932.091 Z-14.141 F3960.000
G1 X808.768 Y1931.929 Z-14.308 F3960.000
G1 X808.444 Y1931.806 Z-14.454 F3960.000
G1 X808.132 Y1931.761 Z-14.635 F3960.000
G1 X807.817 Y1931.765 Z-14.819 F3960.000
G1 X807.507 Y1931.818 Z-15.000 F3960.000
G1 X807.817 Y1931.765 Z-15.181 F3960.000
G1 X808.132 Y1931.761 Z-15.365 F3960.000
G1 X808.444 Y1931.806 Z-15.546 F3960.000
G1 X808.768 Y1931.929 Z-15.692 F3960.000
G1 X809.065 Y1932.091 Z-15.859 F3960.000
G1 X809.328 Y1932.288 Z-16.044 F3960.000
G1 X809.552 Y1932.517 Z-16.242 F3960.000
G1 X809.732 Y1932.773 Z-16.450 F3960.000
G1 X809.867 Y1933.052 Z-16.665 F3960.000
G1 X809.952 Y1933.348 Z-16.881 F3960.000
G1 X809.987 Y1933.656 Z-17.096 F3960.000
G1 X809.970 Y1933.969 Z-17.304 F3960.000
G1 X809.902 Y1934.282 Z-17.503 F3960.000
G1 X809.784 Y1934.588 Z-17.687 F3960.000
G1 X809.619 Y1934.883 Z-17.854 F3960.000
G1 X809.410 Y1935.160 Z-18.000 F3960.000
G2 X808.444 Y1931.806 Z-18.000 I-1.410 J-1.410 F3960.000
G2 X807.556 Y1935.694 Z-18.000 I-0.444 J1.944 F3960.000
G2 X809.410 Y1935.160 Z-18.000 I0.444 J-1.944 F3960.000
G1 X809.619 Y1934.883 Z-18.146 F3960.000
G1 X809.784 Y1934.588 Z-18.313 F3960.000
G1 X809.902 Y1934.282 Z-18.497 F3960.000
G1 X809.970 Y1933.969 Z-18.696 F3960.000
G1 X809.987 Y1933.656 Z-18.904 F3960.000
G1 X809.952 Y1933.348 Z-19.119 F3960.000
G1 X809.867 Y1933.052 Z-19.335 F3960.000
G1 X809.732 Y1932.773 Z-19.550 F3960.000
G1 X809.552 Y1932.517 Z-19.758 F3960.000
G1 X809.328 Y1932.288 Z-19.956 F3960.000
G1 X809.065 Y1932.091 Z-20.141 F3960.000
G1 X808.768 Y1931.929 Z-20.308 F3960.000
G1 X808.444 Y1931.806 Z-20.454 F3960.000
G1 X808.132 Y1931.761 Z-20.635 F3960.000
G1 X807.817 Y1931.765 Z-20.819 F3960.000
G1 X807.507 Y1931.818 Z-21.000 F3960.000
G1 X807.817 Y1931.765 Z-21.181 F3960.000
G1 X808.132 Y1931.761 Z-21.365 F3960.000
G1 X808.444 Y1931.806 Z-21.546 F3960.000
G1 X808.768 Y1931.929 Z-21.692 F3960.000
G1 X809.065 Y1932.091 Z-21.859 F3960.000
G1 X809.328 Y1932.288 Z-22.044 F3960.000
G1 X809.552 Y1932.517 Z-22.242 F3960.000
G1 X809.732 Y1932.773 Z-22.450 F3960.000
G1 X809.867 Y1933.052 Z-22.665 F3960.000
G1 X809.952 Y1933.348 Z-22.881 F3960.000
G1 X809.987 Y1933.656 Z-23.096 F3960.000
G1 X809.970 Y1933.969 Z-23.304 F3960.000
G1 X809.902 Y1934.282 Z-23.503 F3960.000
G1 X809.784 Y1934.588 Z-23.687 F3960.000
G1 X809.619 Y1934.883 Z-23.854 F3960.000
G1 X809.410 Y1935.160 Z-24.000 F3960.000
G2 X808.444 Y1931.806 Z-24.000 I-1.410 J-1.410 F3960.000
G2 X807.556 Y1935.694 Z-24.000 I-0.444 J1.944 F3960.000
G2 X809.410 Y1935.160 Z-24.000 I0.444 J-1.944 F3960.000
G1 X809.634 Y1934.878 Z-24.172 F3960.000
G1 X809.807 Y1934.572 Z-24.363 F3960.000
G1 X809.925 Y1934.250 Z-24.567 F3960.000
G1 X809.985 Y1933.918 Z-24.781 F3960.000
G1 X809.987 Y1933.584 Z-25.000 F3960.000
G1 X809.930 Y1933.255 Z-25.219 F3960.000
G1 X809.815 Y1932.938 Z-25.433 F3960.000
G1 X809.645 Y1932.639 Z-25.637 F3960.000
G1 X809.424 Y1932.367 Z-25.828 F3960.000
G1 X809.156 Y1932.126 Z-26.000 F3960.000
G1 X809.424 Y1932.367 Z-26.172 F3960.000
G1 X809.645 Y1932.639 Z-26.363 F3960.000
G1 X809.815 Y1932.938 Z-26.567 F3960.000
G1 X809.930 Y1933.255 Z-26.781 F3960.000
G1 X809.987 Y1933.584 Z-27.000 F3960.000
G1 X809.985 Y1933.918 Z-27.219 F3960.000
G1 X809.925 Y1934.250 Z-27.433 F3960.000
G1 X809.807 Y1934.572 Z-27.637 F3960.000
G1 X809.634 Y1934.878 Z-27.828 F3960.000
G1 X809.410 Y1935.160 Z-28.000 F3960.000
G2 X808.444 Y1931.806 Z-28.000 I-1.410 J-1.410 F3960.000
G2 X807.556 Y1935.694 Z-28.000 I-0.444 J1.944 F3960.000
G2 X809.410 Y1935.160 Z-28.000 I0.444 J-1.944 F3960.000
G0 X809.410 Y1935.160 Z15.165
G0 X339.910 Y2040.410 Z15.165
G0 X339.910 Y2040.410 Z10.165
G1 X340.119 Y2040.133 Z10.019 F3960.000
G1 X340.284 Y2039.838 Z9.852 F3960.000
G1 X340.402 Y2039.532 Z9.667 F3960.000
G1 X340.470 Y2039.219 Z9.469 F3960.000
G1 X340.487 Y2038.906 Z9.261 F3960.000
G1 X340.452 Y2038.598 Z9.046 F3960.000
G1 X340.367 Y2038.302 Z8.830 F3960.000
G1 X340.232 Y2038.023 Z8.615 F3960.000
G1 X340.052 Y2037.767 Z8.407 F3960.000
G1 X339.828 Y2037.538 Z8.208 F3960.000
G1 X339.565 Y2037.341 Z8.024 F3960.000
G1 X339.268 Y2037.179 Z7.857 F3960.000
G1 X338.944 Y2037.056 Z7.711 F3960.000
G1 X338.578 Y2037.075 Z7.621 F3960.000
G1 X338.225 Y2037.131 Z7.500 F3960.000
G1 X337.891 Y2037.224 Z7.351 F3960.000
G1 X337.582 Y2037.352 Z7.175 F3960.000
G1 X337.305 Y2037.513 Z6.976 F3960.000
G1 X337.063 Y2037.704 Z6.759 F3960.000
G1 X336.862 Y2037.922 Z6.525 F3960.000
G1 X336.704 Y2038.163 Z6.281 F3960.000
G1 X336.594 Y2038.422 Z6.030 F3960.000
G1 X336.531 Y2038.694 Z5.776 F3960.000
G1 X336.519 Y2038.975 Z5.525 F3960.000
G1 X336.557 Y2039.260 Z5.280 F3960.000
G1 X336.644 Y2039.544 Z5.047 F3960.000
G1 X336.778 Y2039.821 Z4.829 F3960.000
G1 X336.958 Y2040.087 Z4.631 F3960.000
G1 X337.180 Y2040.336 Z4.455 F3960.000
G1 X337.441 Y2040.565 Z4.306 F3960.000
G1 X337.734 Y2040.768 Z4.185 F3960.000
G1 X338.056 Y2040.944 Z4.095 F3960.000
G1 X338.392 Y2040.990 Z3.908 F3960.000
G1 X338.726 Y2040.980 Z3.713 F3960.000
G1 X339.052 Y2040.916 Z3.514 F3960.000
G1 X339.362 Y2040.797 Z3.314 F3960.000
G1 X339.650 Y2040.627 Z3.119 F3960.000
G1 X339.910 Y2040.410 Z2.932 F3960.000
G1 X339.650 Y2040.627 Z2.746 F3960.000
G1 X339.362 Y2040.797 Z2.551 F3960.000
G1 X339.052 Y2040.916 Z2.351 F3960.000
G1 X338.726 Y2040.980 Z2.152 F3960.000
G1 X338.392 Y2040.990 Z1.957 F3960.000
G1 X338.056 Y2040.944 Z1.770 F3960.000
G1 X337.734 Y2040.768 Z1.680 F3960.000
G1 X337.441 Y2040.565 Z1.559 F3960.000
G1 X337.180 Y2040.336 Z1.410 F3960.000
G1 X336.958 Y2040.087 Z1.234 F3960.000
G1 X336.778 Y2039.821 Z1.035 F3960.000
G1 X336.644 Y2039.544 Z0.818 F3960.000
G1 X336.557 Y2039.260 Z0.584 F3960.000
G1 X336.519 Y2038.975 Z0.340 F3960.000
G1 X336.531 Y2038.694 Z0.089 F3960.000
G1 X336.594 Y2038.422 Z-0.165 F3960.000
G1 X336.704 Y2038.163 Z-0.416 F3960.000
G1 X336.862 Y2037.922 Z-0.660 F3960.000
G1 X337.063 Y2037.704 Z-0.894 F3960.000
G1 X337.305 Y2037.513 Z-1.111 F3960.000
G1 X337.582 Y2037.352 Z-1.310 F3960.000
G1 X337.891 Y2037.224 Z-1.486 F3960.000
G1 X338.225 Y2037.131 Z-1.635 F3960.000
G1 X338.578 Y2037.075 Z-1.756 F3960.000
G1 X338.944 Y2037.056 Z-1.846 F3960.000
G1 X339.268 Y2037.179 Z-1.992 F3960.000
G1 X339.565 Y2037.341 Z-2.159 F3960.000
G1 X339.828 Y2037.538 Z-2.343 F3960.000
G1 X340.052 Y2037.767 Z-2.542 F3960.000
G1 X340.232 Y2038.023 Z-2.750 F3960.000
G1 X340.367 Y2038.302 Z-2.965 F3960.000
G1 X340.452 Y2038.598 Z-3.181 F3960.000
G1 X340.487 Y2038.906 Z-3.396 F3960.000
G1 X340.470 Y2039.219 Z-3.604 F3960.000
G1 X340.402 Y2039.532 Z-3.803 F3960.000
G1 X340.284 Y2039.838 Z-3.987 F3960.000
G1 X340.119 Y2040.133 Z-4.154 F3960.000
G1 X339.910 Y2040.410 Z-4.300 F3960.000
G1 X340.123 Y2040.150 Z-4.471 F3960.000
G1 X340.291 Y2039.866 Z-4.655 F3960.000
G1 X340.410 Y2039.565 Z-4.849 F3960.000
G1 X340.477 Y2039.252 Z-5.049 F3960.000
G1 X340.492 Y2038.934 Z-5.251 F3960.000
G1 X340.454 Y2038.616 Z-5.451 F3960.000
G1 X340.364 Y2038.305 Z-5.645 F3960.000
G1 X340.224 Y2038.007 Z-5.829 F3960.000
G1 X340.036 Y2037.728 Z-6.000 F3960.000
G3 X339.910 Y2040.410 Z-6.000 I-1.536 J1.272 F3960.000
G2 X338.944 Y2037.056 Z-6.000 I-1.410 J-1.410 F3960.000
G2 X338.056 Y2040.944 Z-6.000 I-0.444 J1.944 F3960.000
G2 X339.910 Y2040.410 Z-6.000 I0.444 J-1.944 F3960.000
G1 X340.119 Y2040.133 Z-6.146 F3960.000
G1 X340.284 Y2039.838 Z-6.313 F3960.000
G1 X340.402 Y2039.532 Z-6.497 F3960.000
G1 X340.470 Y2039.219 Z-6.696 F3960.000
G1 X340.487 Y2038.906 Z-6.904 F3960.000
G1 X340.452 Y2038.598 Z-7.119 F3960.000
G1 X340.367 Y2038.302 Z-7.335 F3960.000
G1 X340.232 Y2038.023 Z-7.550 F3960.000
G1 X340.052 Y2037.767 Z-7.758 F3960.000
G1 X339.828 Y2037.538 Z-7.956 F3960.000
G1 X339.565 Y2037.341 Z-8.141 F3960.000
G1 X339.268 Y2037.179 Z-8.308 F3960.000
G1 X338.944 Y2037.056 Z-8.454 F3960.000
G1 X338.632 Y2037.011 Z-8.635 F3960.000
G1 X338.317 Y2037.015 Z-8.819 F3960.000
G1 X338.007 Y2037.068 Z-9.000 F3960.000
G1 X338.317 Y2037.015 Z-9.181 F3960.000
G1 X338.632 Y2037.011 Z-9.365 F3960.000
G1 X338.944 Y2037.056 Z-9.546 F3960.000
G1 X339.268 Y2037.179 Z-9.692 F3960.000
G1 X339.565 Y2037.341 Z-9.859 F3960.000
G1 X339.828 Y2037.538 Z-10.044 F3960.000
G1 X340.052 Y2037.767 Z-10.242 F3960.000
G1 X340.232 Y2038.023 Z-10.450 F3960.000
G1 X340.367 Y2038.302 Z-10.665 F3960.000
G1 X340.452 Y2038.598 Z-10.881 F3960.000
G1 X340.487 Y2038.906 Z-11.096 F3960.000
G1 X340.470 Y2039.219 Z-11.304 F3960.000
G1 X340.402 Y2039.532 Z-11.503 F3960.000
G1 X340.284 Y2039.838 Z-11.687 F3960.000
G1 X340.119 Y2040.133 Z-11.854 F3960.000
G1 X339.910 Y2040.410 Z-12.000 F3960.000
G2 X338.944 Y2037.056 Z-12.000 I-1.410 J-1.410 F3960.000
G2 X338.056 Y2040.944 Z-12.000 I-0.444 J1.944 F3960.000
G2 X339.910 Y2040.410 Z-12.000 I0.444 J-1.944 F3960.000
G1 X340.119 Y2040.133 Z-12.146 F3960.000
G1 X340.284 Y2039.838 Z-12.313 F3960.000
G1 X340.402 Y2039.532 Z-12.497 F3960.000
G1 X340.470 Y2039.219 Z-12.696 F3960.000
G1 X340.487 Y2038.906 Z-12.904 F3960.000
G1 X340.452 Y2038.598 Z-13.119 F3960.000
G1 X340.367 Y2038.302 Z-13.335 F3960.000
G1 X340.232 Y2038.023 Z-13.550 F3960.000
G1 X340.052 Y2037.767 Z-13.758 F3960.000
G1 X339.828 Y2037.538 Z-13.956 F3960.000
G1 X339.565 Y2037.341 Z-14.141 F3960.000
G1 X339.268 Y2037.179 Z-14.308 F3960.000
G1 X338.944 Y2037.056 Z-14.454 F3960.000
G1 X338.632 Y2037.011 Z-14.635 F3960.000
G1 X338.317 Y2037.015 Z-14.819 F3960.000
G1 X338.007 Y2037.068 Z-15.000 F3960.000
G1 X338.317 Y2037.015 Z-15.181 F3960.000
G1 X338.632 Y2037.011 Z-15.365 F3960.000
G1 X338.944 Y2037.056 Z-15.546 F3960.000
G1 X339.268 Y2037.179 Z-15.692 F3960.000
G1 X339.565 Y2037.341 Z-15.859 F3960.000
G1 X339.828 Y2037.538 Z-16.044 F3960.000
G1 X340.052 Y2037.767 Z-16.242 F3960.000
G1 X340.232 Y2038.023 Z-16.450 F3960.000
G1 X340.367 Y2038.302 Z-16.665 F3960.000
G1 X340.452 Y2038.598 Z-16.881 F3960.000
G1 X340.487 Y2038.906 Z-17.096 F3960.000
G1 X340.470 Y2039.219 Z-17.304 F3960.000
G1 X340.402 Y2039.532 Z-17.503 F3960.000
G1 X340.284 Y2039.838 Z-17.687 F3960.000
G1 X340.119 Y2040.133 Z-17.854 F3960.000
G1 X339.910 Y2040.410 Z-18.000 F3960.000
G2 X338.944 Y2037.056 Z-18.000 I-1.410 J-1.410 F3960.000
G2 X338.056 Y2040.944 Z-18.000 I-0.444 J1.944 F3960.000
G2 X339.910 Y2040.410 Z-18.000 I0.444 J-1.944 F3960.000
G1 X340.119 Y2040.133 Z-18.146 F3960.000
G1 X340.284 Y2039.838 Z-18.313 F3960.000
G1 X340.402 Y2039.532 Z-18.497 F3960.000
G1 X340.470 Y2039.219 Z-18.696 F3960.000
G1 X340.487 Y2038.906 Z-18.904 F3960.000
G1 X340.452 Y2038.598 Z-19.119 F3960.000
G1 X340.367 Y2038.302 Z-19.335 F3960.000
G1 X340.232 Y2038.023 Z-19.550 F3960.000
G1 X340.052 Y2037.767 Z-19.758 F3960.000
G1 X339.828 Y2037.538 Z-19.956 F3960.000
G1 X339.565 Y2037.341 Z-20.141 F3960.000
G1 X339.268 Y2037.179 Z-20.308 F3960.000
G1 X338.944 Y2037.056 Z-20.454 F3960.000
G1 X338.632 Y2037.011 Z-20.635 F3960.000
G1 X338.317 Y2037.015 Z-20.819 F3960.000
G1 X338.007 Y2037.068 Z-21.000 F3960.000
G1 X338.317 Y2037.015 Z-21.181 F3960.000
G1 X338.632 Y2037.011 Z-21.365 F3960.000
G1 X338.944 Y2037.056 Z-21.546 F3960.000
G1 X339.268 Y2037.179 Z-21.692 F3960.000
G1 X339.565 Y2037.341 Z-21.859 F3960.000
G1 X339.828 Y2037.538 Z-22.044 F3960.000
G1 X340.052 Y2037.767 Z-22.242 F3960.000
G1 X340.232 Y2038.023 Z-22.450 F3960.000
G1 X340.367 Y2038.302 Z-22.665 F3960.000
G1 X340.452 Y2038.598 Z-22.881 F3960.000
G1 X340.487 Y2038.906 Z-23.096 F3960.000
G1 X340.470 Y2039.219 Z-23.304 F3960.000
G1 X340.402 Y2039.532 Z-23.503 F3960.000
G1 X340.284 Y2039.838 Z-23.687 F3960.000
G1 X340.119 Y2040.133 Z-23.854 F3960.000
G1 X339.910 Y2040.410 Z-24.000 F3960.000
G2 X338.944 Y2037.056 Z-24.000 I-1.410 J-1.410 F3960.000
G2 X338.056 Y2040.944 Z-24.000 I-0.444 J1.944 F3960.000
G2 X339.910 Y2040.410 Z-24.000 I0.444 J-1.944 F3960.000
G1 X340.134 Y2040.128 Z-24.172 F3960.000
G1 X340.307 Y2039.822 Z-24.363 F3960.000
G1 X340.425 Y2039.500 Z-24.567 F3960.000
G1 X340.485 Y2039.168 Z-24.781 F3960.000
G1 X340.487 Y2038.834 Z-25.000 F3960.000
G1 X340.430 Y2038.505 Z-25.219 F3960.000
G1 X340.315 Y2038.188 Z-25.433 F3960.000
G1 X340.145 Y2037.889 Z-25.637 F3960.000
G1 X339.924 Y2037.617 Z-25.828 F3960.000
G1 X339.656 Y2037.376 Z-26.000 F3960.000
G1 X339.924 Y2037.617 Z-26.172 F3960.000
G1 X340.145 Y2037.889 Z-26.363 F3960.000
G1 X340.315 Y2038.188 Z-26.567 F3960.000
G1 X340.430 Y2038.505 Z-26.781 F3960.000
G1 X340.487 Y2038.834 Z-27.000 F3960.000
G1 X340.485 Y2039.168 Z-27.219 F3960.000
G1 X340.425 Y2039.500 Z-27.433 F3960.000
G1 X340.307 Y2039.822 Z-27.637 F3960.000
G1 X340.134 Y2040.128 Z-27.828 F3960.000
G1 X339.910 Y2040.410 Z-28.000 F3960.000
G2 X338.944 Y2037.056 Z-28.000 I-1.410 J-1.410 F3960.000
G2 X338.056 Y2040.944 Z-28.000 I-0.444 J1.944 F3960.000
G2 X339.910 Y2040.410 Z-28.000 I0.444 J-1.944 F3960.000
G0 X339.910 Y2040.410 Z15.165
G0 X171.910 Y2040.410 Z15.165
G0 X171.910 Y2040.410 Z10.165
G1 X172.119 Y2040.133 Z10.019 F3960.000
G1 X172.284 Y2039.838 Z9.852 F3960.000
G1 X172.402 Y2039.532 Z9.667 F3960.000
G1 X172.470 Y2039.219 Z9.469 F3960.000
G1 X172.487 Y2038.906 Z9.261 F3960.000
G1 X172.452 Y2038.598 Z9.046 F3960.000
G1 X172.367 Y2038.302 Z8.830 F3960.000
G1 X172.232 Y2038.023 Z8.615 F3960.000
G1 X172.052 Y2037.767 Z8.407 F3960.000
G1 X171.828 Y2037.538 Z8.208 F3960.000
G1 X171.565 Y2037.341 Z8.024 F3960.000
G1 X171.268 Y2037.179 Z7.857 F3960.000
G1 X170.944 Y2037.056 Z7.711 F3960.000
G1 X170.578 Y2037.075 Z7.621 F3960.000
G1 X170.225 Y2037.131 Z7.500 F3960.000
G1 X169.891 Y2037.224 Z7.351 F3960.000
G1 X169.582 Y2037.352 Z7.175 F3960.000
G1 X169.305 Y2037.513 Z6.976 F3960.000
G1 X169.063 Y2037.704 Z6.759 F3960.000
G1 X168.862 Y2037.922 Z6.525 F3960.000
G1 X168.704 Y2038.163 Z6.281 F3960.000
G1 X168.594 Y2038.422 Z6.030 F3960.000
G1 X168.531 Y2038.694 Z5.776 F3960.000
G1 X168.519 Y2038.975 Z5.525 F3960.000
G1 X168.557 Y2039.260 Z5.280 F3960.000
G1 X168.644 Y2039.544 Z5.047 F3960.000
G1 X168.778 Y2039.821 Z4.829 F3960.000
G1 X168.958 Y2040.087 Z4.631 F3960.000
G1 X169.180 Y2040.336 Z4.455 F3960.000
G1 X169.441 Y2040.565 Z4.306 F3960.000
G1 X169.734 Y2040.768 Z4.185 F3960.000
G1 X170.056 Y2040.944 Z4.095 F3960.000
G1 X170.392 Y2040.990 Z3.908 F3960.000
G1 X170.726 Y2040.980 Z3.713 F3960.000
G1 X171.052 Y2040.916 Z3.514 F3960.000
G1 X171.362 Y2040.797 Z3.314 F3960.000
G1 X171.650 Y2040.627 Z3.119 F3960.000
G1 X171.910 Y2040.410 Z2.932 F3960.000
G1 X171.650 Y2040.627 Z2.746 F3960.000
G1 X171.362 Y2040.797 Z2.551 F3960.000
G1 X171.052 Y2040.916 Z2.351 F3960.000
G1 X170.726 Y2040.980 Z2.152 F3960.000
G1 X170.392 Y2040.990 Z1.957 F3960.000
G1 X170.056 Y2040.944 Z1.770 F3960.000
G1 X169.734 Y2040.768 Z1.680 F3960.000
G1 X169.441 Y2040.565 Z1.559 F3960.000
G1 X169.180 Y2040.336 Z1.410 F3960.000
G1 X168.958 Y2040.087 Z1.234 F3960.000
G1 X168.778 Y2039.821 Z1.035 F3960.000
G1 X168.644 Y2039.544 Z0.818 F3960.000
G1 X168.557 Y2039.260 Z0.584 F3960.000
G1 X168.519 Y2038.975 Z0.340 F3960.000
G1 X168.531 Y2038.694 Z0.089 F3960.000
G1 X168.594 Y2038.422 Z-0.165 F3960.000
G1 X168.704 Y2038.163 Z-0.416 F3960.000
G1 X168.862 Y2037.922 Z-0.660 F3960.000
G1 X169.063 Y2037.704 Z-0.894 F3960.000
G1 X169.305 Y2037.513 Z-1.111 F3960.000
G1 X169.582 Y2037.352 Z-1.310 F3960.000
G1 X169.891 Y2037.224 Z-1.486 F3960.000
G1 X170.225 Y2037.131 Z-1.635 F3960.000
G1 X170.578 Y2037.075 Z-1.756 F3960.000
G1 X170.944 Y2037.056 Z-1.846 F3960.000
G1 X171.268 Y2037.179 Z-1.992 F3960.000
G1 X171.565 Y2037.341 Z-2.159 F3960.000
G1 X171.828 Y2037.538 Z-2.343 F3960.000
G1 X172.052 Y2037.767 Z-2.542 F3960.000
G1 X172.232 Y2038.023 Z-2.750 F3960.000
G1 X172.367 Y2038.302 Z-2.965 F3960.000
G1 X172.452 Y2038.598 Z-3.181 F3960.000
G1 X172.487 Y2038.906 Z-3.396 F3960.000
G1 X172.470 Y2039.219 Z-3.604 F3960.000
G1 X172.402 Y2039.532 Z-3.803 F3960.000
G1 X172.284 Y2039.838 Z-3.987 F3960.000
G1 X172.119 Y2040.133 Z-4.154 F3960.000
G1 X171.910 Y2040.410 Z-4.300 F3960.000
G1 X172.123 Y2040.150 Z-4.471 F3960.000
G1 X172.291 Y2039.866 Z-4.655 F3960.000
G1 X172.410 Y2039.565 Z-4.849 F3960.000
G1 X172.477 Y2039.252 Z-5.049 F3960.000
G1 X172.492 Y2038.934 Z-5.251 F3960.000
G1 X172.454 Y2038.616 Z-5.451 F3960.000
G1 X172.364 Y2038.305 Z-5.645 F3960.000
G1 X172.224 Y2038.007 Z-5.829 F3960.000
G1 X172.036 Y2037.728 Z-6.000 F3960.000
G3 X171.910 Y2040.410 Z-6.000 I-1.536 J1.272 F3960.000
G2 X170.944 Y2037.056 Z-6.000 I-1.410 J-1.410 F3960.000
G2 X170.056 Y2040.944 Z-6.000 I-0.444 J1.944 F3960.000
G2 X171.910 Y2040.410 Z-6.000 I0.444 J-1.944 F3960.000
G1 X172.119 Y2040.133 Z-6.146 F3960.000
G1 X172.284 Y2039.838 Z-6.313 F3960.000
G1 X172.402 Y2039.532 Z-6.497 F3960.000
G1 X172.470 Y2039.219 Z-6.696 F3960.000
G1 X172.487 Y2038.906 Z-6.904 F3960.000
G1 X172.452 Y2038.598 Z-7.119 F3960.000
G1 X172.367 Y2038.302 Z-7.335 F3960.000
G1 X172.232 Y2038.023 Z-7.550 F3960.000
G1 X172.052 Y2037.767 Z-7.758 F3960.000
G1 X171.828 Y2037.538 Z-7.956 F3960.000
G1 X171.565 Y2037.341 Z-8.141 F3960.000
G1 X171.268 Y2037.179 Z-8.308 F3960.000
G1 X170.944 Y2037.056 Z-8.454 F3960.000
G1 X170.632 Y2037.011 Z-8.635 F3960.000
G1 X170.317 Y2037.015 Z-8.819 F3960.000
G1 X170.007 Y2037.068 Z-9.000 F3960.000
G1 X170.317 Y2037.015 Z-9.181 F3960.000
G1 X170.632 Y2037.011 Z-9.365 F3960.000
G1 X170.944 Y2037.056 Z-9.546 F3960.000
G1 X171.268 Y2037.179 Z-9.692 F3960.000
G1 X171.565 Y2037.341 Z-9.859 F3960.000
G1 X171.828 Y2037.538 Z-10.044 F3960.000
G1 X172.052 Y2037.767 Z-10.242 F3960.000
G1 X172.232 Y2038.023 Z-10.450 F3960.000
G1 X172.367 Y2038.302 Z-10.665 F3960.000
G1 X172.452 Y2038.598 Z-10.881 F3960.000
G1 X172.487 Y2038.906 Z-11.096 F3960.000
G1 X172.470 Y2039.219 Z-11.304 F3960.000
G1 X172.402 Y2039.532 Z-11.503 F3960.000
G1 X172.284 Y2039.838 Z-11.687 F3960.000
G1 X172.119 Y2040.133 Z-11.854 F3960.000
G1 X171.910 Y2040.410 Z-12.000 F3960.000
G2 X170.944 Y2037.056 Z-12.000 I-1.410 J-1.410 F3960.000
G2 X170.056 Y2040.944 Z-12.000 I-0.444 J1.944 F3960.000
G2 X171.910 Y2040.410 Z-12.000 I0.444 J-1.944 F3960.000
G1 X172.119 Y2040.133 Z-12.146 F3960.000
G1 X172.284 Y2039.838 Z-12.313 F3960.000
G1 X172.402 Y2039.532 Z-12.497 F3960.000
G1 X172.470 Y2039.219 Z-12.696 F3960.000
G1 X172.487 Y2038.906 Z-12.904 F3960.000
G1 X172.452 Y2038.598 Z-13.119 F3960.000
G1 X172.367 Y2038.302 Z-13.335 F3960.000
G1 X172.232 Y2038.023 Z-13.550 F3960.000
G1 X172.052 Y2037.767 Z-13.758 F3960.000
G1 X171.828 Y2037.538 Z-13.956 F3960.000
G1 X171.565 Y2037.341 Z-14.141 F3960.000
G1 X171.268 Y2037.179 Z-14.308 F3960.000
G1 X170.944 Y2037.056 Z-14.454 F3960.000
G1 X170.632 Y2037.011 Z-14.635 F3960.000
G1 X170.317 Y2037.015 Z-14.819 F3960.000
G1 X170.007 Y2037.068 Z-15.000 F3960.000
G1 X170.317 Y2037.015 Z-15.181 F3960.000
G1 X170.632 Y2037.011 Z-15.365 F3960.000
G1 X170.944 Y2037.056 Z-15.546 F3960.000
G1 X171.268 Y2037.179 Z-15.692 F3960.000
G1 X171.565 Y2037.341 Z-15.859 F3960.000
G1 X171.828 Y2037.538 Z-16.044 F3960.000
G1 X172.052 Y2037.767 Z-16.242 F3960.000
G1 X172.232 Y2038.023 Z-16.450 F3960.000
G1 X172.367 Y2038.302 Z-16.665 F3960.000
G1 X172.452 Y2038.598 Z-16.881 F3960.000
G1 X172.487 Y2038.906 Z-17.096 F3960.000
G1 X172.470 Y2039.219 Z-17.304 F3960.000
G1 X172.402 Y2039.532 Z-17.503 F3960.000
G1 X172.284 Y2039.838 Z-17.687 F3960.000
G1 X172.119 Y2040.133 Z-17.854 F3960.000
G1 X171.910 Y2040.410 Z-18.000 F3960.000
G2 X170.944 Y2037.056 Z-18.000 I-1.410 J-1.410 F3960.000
G2 X170.056 Y2040.944 Z-18.000 I-0.444 J1.944 F3960.000
G2 X171.910 Y2040.410 Z-18.000 I0.444 J-1.944 F3960.000
G1 X172.119 Y2040.133 Z-18.146 F3960.000
G1 X172.284 Y2039.838 Z-18.313 F3960.000
G1 X172.402 Y2039.532 Z-18.497 F3960.000
G1 X172.470 Y2039.219 Z-18.696 F3960.000
G1 X172.487 Y2038.906 Z-18.904 F3960.000
G1 X172.452 Y2038.598 Z-19.119 F3960.000
G1 X172.367 Y2038.302 Z-19.335 F3960.000
G1 X172.232 Y2038.023 Z-19.550 F3960.000
G1 X172.052 Y2037.767 Z-19.758 F3960.000
G1 X171.828 Y2037.538 Z-19.956 F3960.000
G1 X171.565 Y2037.341 Z-20.141 F3960.000
G1 X171.268 Y2037.179 Z-20.308 F3960.000
G1 X170.944 Y2037.056 Z-20.454 F3960.000
G1 X170.632 Y2037.011 Z-20.635 F3960.000
G1 X170.317 Y2037.015 Z-20.819 F3960.000
G1 X170.007 Y2037.068 Z-21.000 F3960.000
G1 X170.317 Y2037.015 Z-21.181 F3960.000
G1 X170.632 Y2037.011 Z-21.365 F3960.000
G1 X170.944 Y2037.056 Z-21.546 F3960.000
G1 X171.268 Y2037.179 Z-21.692 F3960.000
G1 X171.565 Y2037.341 Z-21.859 F3960.000
G1 X171.828 Y2037.538 Z-22.044 F3960.000
G1 X172.052 Y2037.767 Z-22.242 F3960.000
G1 X172.232 Y2038.023 Z-22.450 F3960.000
G1 X172.367 Y2038.302 Z-22.665 F3960.000
G1 X172.452 Y2038.598 Z-22.881 F3960.000
G1 X172.487 Y2038.906 Z-23.096 F3960.000
G1 X172.470 Y2039.219 Z-23.304 F3960.000
G1 X172.402 Y2039.532 Z-23.503 F3960.000
G1 X172.284 Y2039.838 Z-23.687 F3960.000
G1 X172.119 Y2040.133 Z-23.854 F3960.000
G1 X171.910 Y2040.410 Z-24.000 F3960.000
G2 X170.944 Y2037.056 Z-24.000 I-1.410 J-1.410 F3960.000
G2 X170.056 Y2040.944 Z-24.000 I-0.444 J1.944 F3960.000
G2 X171.910 Y2040.410 Z-24.000 I0.444 J-1.944 F3960.000
G1 X172.134 Y2040.128 Z-24.172 F3960.000
G1 X172.307 Y2039.822 Z-24.363 F3960.000
G1 X172.425 Y2039.500 Z-24.567 F3960.000
G1 X172.485 Y2039.168 Z-24.781 F3960.000
G1 X172.487 Y2038.834 Z-25.000 F3960.000
G1 X172.430 Y2038.505 Z-25.219 F3960.000
G1 X172.315 Y2038.188 Z-25.433 F3960.000
G1 X172.145 Y2037.889 Z-25.637 F3960.000
G1 X171.924 Y2037.617 Z-25.828 F3960.000
G1 X171.656 Y2037.376 Z-26.000 F3960.000
G1 X171.924 Y2037.617 Z-26.172 F3960.000
G1 X172.145 Y2037.889 Z-26.363 F3960.000
G1 X172.315 Y2038.188 Z-26.567 F3960.000
G1 X172.430 Y2038.505 Z-26.781 F3960.000
G1 X172.487 Y2038.834 Z-27.000 F3960.000
G1 X172.485 Y2039.168 Z-27.219 F3960.000
G1 X172.425 Y2039.500 Z-27.433 F3960.000
G1 X172.307 Y2039.822 Z-27.637 F3960.000
G1 X172.134 Y2040.128 Z-27.828 F3960.000
G1 X171.910 Y2040.410 Z-28.000 F3960.000
G2 X170.944 Y2037.056 Z-28.000 I-1.410 J-1.410 F3960.000
G2 X170.056 Y2040.944 Z-28.000 I-0.444 J1.944 F3960.000
G2 X171.910 Y2040.410 Z-28.000 I0.444 J-1.944 F3960.000
G0 X171.910 Y2040.410 Z15.165
G0 X643.720 Y2401.550 Z15.165
G0 X643.720 Y2401.550 Z10.165
G1 X644.466 Y2400.567 Z9.632 F3960.000
G1 X645.044 Y2399.517 Z9.024 F3960.000
G1 X645.441 Y2398.421 Z8.355 F3960.000
G1 X645.648 Y2397.303 Z7.638 F3960.000
G1 X645.663 Y2396.187 Z6.889 F3960.000
G1 X645.483 Y2395.097 Z6.124 F3960.000
G1 X645.114 Y2394.056 Z5.358 F3960.000
G1 X644.562 Y2393.086 Z4.609 F3960.000
G1 X643.840 Y2392.208 Z3.892 F3960.000
G1 X642.963 Y2391.440 Z3.223 F3960.000
G1 X641.950 Y2390.799 Z2.615 F3960.000
G1 X640.822 Y2390.298 Z2.082 F3960.000
G1 X641.950 Y2390.799 Z1.550 F3960.000
G1 X642.963 Y2391.440 Z0.942 F3960.000
G1 X643.840 Y2392.208 Z0.273 F3960.000
G1 X644.562 Y2393.086 Z-0.444 F3960.000
G1 X645.114 Y2394.056 Z-1.193 F3960.000
G1 X645.483 Y2395.097 Z-1.959 F3960.000
G1 X645.663 Y2396.187 Z-2.724 F3960.000
G1 X645.648 Y2397.303 Z-3.473 F3960.000
G1 X645.441 Y2398.421 Z-4.190 F3960.000
G1 X645.044 Y2399.517 Z-4.860 F3960.000
G1 X644.466 Y2400.567 Z-5.467 F3960.000
G1 X643.720 Y2401.550 Z-6.000 F3960.000
G2 X640.371 Y2390.185 Z-6.000 I-4.770 J-4.770 F3960.000
G2 X637.529 Y2403.375 Z-6.000 I-1.421 J6.595 F3960.000
G2 X643.720 Y2401.550 Z-6.000 I1.421 J-6.595 F3960.000
G1 X644.399 Y2400.756 Z-6.589 F3960.000
G1 X644.944 Y2399.876 Z-7.195 F3960.000
G1 X645.346 Y2398.926 Z-7.805 F3960.000
G1 X645.598 Y2397.922 Z-8.411 F3960.000
G1 X645.696 Y2396.882 Z-9.000 F3960.000
G1 X645.598 Y2397.922 Z-9.589 F3960.000
G1 X645.346 Y2398.926 Z-10.195 F3960.000
G1 X644.944 Y2399.876 Z-10.805 F3960.000
G1 X644.399 Y2400.756 Z-11.411 F3960.000
G1 X643.720 Y2401.550 Z-12.000 F3960.000
G2 X640.371 Y2390.185 Z-12.000 I-4.770 J-4.770 F3960.000
G2 X637.529 Y2403.375 Z-12.000 I-1.421 J6.595 F3960.000
G2 X643.720 Y2401.550 Z-12.000 I1.421 J-6.595 F3960.000
G1 X644.399 Y2400.756 Z-12.589 F3960.000
G1 X644.944 Y2399.876 Z-13.195 F3960.000
G1 X645.346 Y2398.926 Z-13.805 F3960.000
G1 X645.598 Y2397.922 Z-14.411 F3960.000
G1 X645.696 Y2396.882 Z-15.000 F3960.000
G1 X645.598 Y2397.922 Z-15.589 F3960.000
G1 X645.346 Y2398.926 Z-16.195 F3960.000
G1 X644.944 Y2399.876 Z-16.805 F3960.000
G1 X644.399 Y2400.756 Z-17.411 F3960.000
G1 X643.720 Y2401.550 Z-18.000 F3960.000
G2 X640.371 Y2390.185 Z-18.000 I-4.770 J-4.770 F3960.000
G2 X637.529 Y2403.375 Z-18.000 I-1.421 J6.595 F3960.000
G2 X643.720 Y2401.550 Z-18.000 I1.421 J-6.595 F3960.000
G1 X644.399 Y2400.756 Z-18.589 F3960.000
G1 X644.944 Y2399.876 Z-19.195 F3960.000
G1 X645.346 Y2398.926 Z-19.805 F3960.000
G1 X645.598 Y2397.922 Z-20.411 F3960.000
G1 X645.696 Y2396.882 Z-21.000 F3960.000
G1 X645.598 Y2397.922 Z-21.589 F3960.000
G1 X645.346 Y2398.926 Z-22.195 F3960.000
G1 X644.944 Y2399.876 Z-22.805 F3960.000
G1 X644.399 Y2400.756 Z-23.411 F3960.000
G1 X643.720 Y2401.550 Z-24.000 F3960.000
G2 X640.371 Y2390.185 Z-24.000 I-4.770 J-4.770 F3960.000
G2 X637.529 Y2403.375 Z-24.000 I-1.421 J6.595 F3960.000
G2 X643.720 Y2401.550 Z-24.000 I1.421 J-6.595 F3960.000
G1 X644.464 Y2400.667 Z-24.664 F3960.000
G1 X645.044 Y2399.674 Z-25.336 F3960.000
G1 X645.449 Y2398.592 Z-26.000 F3960.000
G1 X645.044 Y2399.674 Z-26.664 F3960.000
G1 X644.464 Y2400.667 Z-27.336 F3960.000
G1 X643.720 Y2401.550 Z-28.000 F3960.000
G2 X640.371 Y2390.185 Z-28.000 I-4.770 J-4.770 F3960.000
G2 X637.529 Y2403.375 Z-28.000 I-1.421 J6.595 F3960.000
G2 X643.720 Y2401.550 Z-28.000 I1.421 J-6.595 F3960.000
G0 X643.720 Y2401.550 Z15.165
G0 X511.270 Y2401.030 Z15.165
G0 X511.270 Y2401.030 Z10.165
G1 X512.016 Y2400.047 Z9.632 F3960.000
G1 X512.594 Y2398.997 Z9.024 F3960.000
G1 X512.991 Y2397.901 Z8.355 F3960.000
G1 X513.198 Y2396.783 Z7.638 F3960.000
G1 X513.213 Y2395.667 Z6.889 F3960.000
G1 X513.033 Y2394.577 Z6.124 F3960.000
G1 X512.664 Y2393.536 Z5.358 F3960.000
G1 X512.112 Y2392.566 Z4.609 F3960.000
G1 X511.390 Y2391.688 Z3.892 F3960.000
G1 X510.513 Y2390.920 Z3.223 F3960.000
G1 X509.500 Y2390.279 Z2.615 F3960.000
G1 X508.372 Y2389.778 Z2.082 F3960.000
G1 X509.500 Y2390.279 Z1.550 F3960.000
G1 X510.513 Y2390.920 Z0.942 F3960.000
G1 X511.390 Y2391.688 Z0.273 F3960.000
G1 X512.112 Y2392.566 Z-0.444 F3960.000
G1 X512.664 Y2393.536 Z-1.193 F3960.000
G1 X513.033 Y2394.577 Z-1.959 F3960.000
G1 X513.213 Y2395.667 Z-2.724 F3960.000
G1 X513.198 Y2396.783 Z-3.473 F3960.000
G1 X512.991 Y2397.901 Z-4.190 F3960.000
G1 X512.594 Y2398.997 Z-4.860 F3960.000
G1 X512.016 Y2400.047 Z-5.467 F3960.000
G1 X511.270 Y2401.030 Z-6.000 F3960.000
G2 X507.921 Y2389.665 Z-6.000 I-4.770 J-4.770 F3960.000
G2 X505.079 Y2402.855 Z-6.000 I-1.421 J6.595 F3960.000
G2 X511.270 Y2401.030 Z-6.000 I1.421 J-6.595 F3960.000
G1 X511.949 Y2400.236 Z-6.589 F3960.000
G1 X512.494 Y2399.356 Z-7.195 F3960.000
G1 X512.896 Y2398.406 Z-7.805 F3960.000
G1 X513.148 Y2397.402 Z-8.411 F3960.000
G1 X513.246 Y2396.362 Z-9.000 F3960.000
G1 X513.148 Y2397.402 Z-9.589 F3960.000
G1 X512.896 Y2398.406 Z-10.195 F3960.000
G1 X512.494 Y2399.356 Z-10.805 F3960.000
G1 X511.949 Y2400.236 Z-11.411 F3960.000
G1 X511.270 Y2401.030 Z-12.000 F3960.000
G2 X507.921 Y2389.665 Z-12.000 I-4.770 J-4.770 F3960.000
G2 X505.079 Y2402.855 Z-12.000 I-1.421 J6.595 F3960.000
G2 X511.270 Y2401.030 Z-12.000 I1.421 J-6.595 F3960.000
G1 X511.949 Y2400.236 Z-12.589 F3960.000
G1 X512.494 Y2399.356 Z-13.195 F3960.000
G1 X512.896 Y2398.406 Z-13.805 F3960.000
G1 X513.148 Y2397.402 Z-14.411 F3960.000
G1 X513.246 Y2396.362 Z-15.000 F3960.000
G1 X513.148 Y2397.402 Z-15.589 F3960.000
G1 X512.896 Y2398.406 Z-16.195 F3960.000
G1 X512.494 Y2399.356 Z-16.805 F3960.000
G1 X511.949 Y2400.236 Z-17.411 F3960.000
G1 X511.270 Y2401.030 Z-18.000 F3960.000
G2 X507.921 Y2389.665 Z-18.000 I-4.770 J-4.770 F3960.000
G2 X505.079 Y2402.855 Z-18.000 I-1.421 J6.595 F3960.000
G2 X511.270 Y2401.030 Z-18.000 I1.421 J-6.595 F3960.000
G1 X511.949 Y2400.236 Z-18.589 F3960.000
G1 X512.494 Y2399.356 Z-19.195 F3960.000
G1 X512.896 Y2398.406 Z-19.805 F3960.000
G1 X513.148 Y2397.402 Z-20.411 F3960.000
G1 X513.246 Y2396.362 Z-21.000 F3960.000
G1 X513.148 Y2397.402 Z-21.589 F3960.000
G1 X512.896 Y2398.406 Z-22.195 F3960.000
G1 X512.494 Y2399.356 Z-22.805 F3960.000
G1 X511.949 Y2400.236 Z-23.411 F3960.000
G1 X511.270 Y2401.030 Z-24.000 F3960.000
G2 X507.921 Y2389.665 Z-24.000 I-4.770 J-4.770 F3960.000
G2 X505.079 Y2402.855 Z-24.000 I-1.421 J6.595 F3960.000
G2 X511.270 Y2401.030 Z-24.000 I1.421 J-6.595 F3960.000
G1 X512.014 Y2400.147 Z-24.664 F3960.000
G1 X512.594 Y2399.154 Z-25.336 F3960.000
G1 X512.999 Y2398.072 Z-26.000 F3960.000
G1 X512.594 Y2399.154 Z-26.664 F3960.000
G1 X512.014 Y2400.147 Z-27.336 F3960.000
G1 X511.270 Y2401.030 Z-28.000 F3960.000
G2 X507.921 Y2389.665 Z-28.000 I-4.770 J-4.770 F3960.000
G2 X505.079 Y2402.855 Z-28.000 I-1.421 J6.595 F3960.000
G2 X511.270 Y2401.030 Z-28.000 I1.421 J-6.595 F3960.000
G0 X511.270 Y2401.030 Z15.165
G0 X412.270 Y2398.400 Z15.165
G0 X412.270 Y2398.400 Z10.165
G1 X413.016 Y2397.417 Z9.632 F3960.000
G1 X413.594 Y2396.367 Z9.024 F3960.000
G1 X413.991 Y2395.271 Z8.355 F3960.000
G1 X414.198 Y2394.153 Z7.638 F3960.000
G1 X414.213 Y2393.037 Z6.889 F3960.000
G1 X414.033 Y2391.947 Z6.124 F3960.000
G1 X413.664 Y2390.906 Z5.358 F3960.000
G1 X413.112 Y2389.936 Z4.609 F3960.000
G1 X412.390 Y2389.058 Z3.892 F3960.000
G1 X411.513 Y2388.290 Z3.223 F3960.000
G1 X410.500 Y2387.649 Z2.615 F3960.000
G1 X409.372 Y2387.148 Z2.082 F3960.000
G1 X410.500 Y2387.649 Z1.550 F3960.000
G1 X411.513 Y2388.290 Z0.942 F3960.000
G1 X412.390 Y2389.058 Z0.273 F3960.000
G1 X413.112 Y2389.936 Z-0.444 F3960.000
G1 X413.664 Y2390.906 Z-1.193 F3960.000
G1 X414.033 Y2391.947 Z-1.959 F3960.000
G1 X414.213 Y2393.037 Z-2.724 F3960.000
G1 X414.198 Y2394.153 Z-3.473 F3960.000
G1 X413.991 Y2395.271 Z-4.190 F3960.000
G1 X413.594 Y2396.367 Z-4.860 F3960.000
G1 X413.016 Y2397.417 Z-5.467 F3960.000
G1 X412.270 Y2398.400 Z-6.000 F3960.000
G2 X408.921 Y2387.035 Z-6.000 I-4.770 J-4.770 F3960.000
G2 X406.079 Y2400.225 Z-6.000 I-1.421 J6.595 F3960.000
G2 X412.270 Y2398.400 Z-6.000 I1.421 J-6.595 F3960.000
G1 X412.949 Y2397.606 Z-6.589 F3960.000
G1 X413.494 Y2396.726 Z-7.195 F3960.000
G1 X413.896 Y2395.776 Z-7.805 F3960.000
G1 X414.148 Y2394.772 Z-8.411 F3960.000
G1 X414.246 Y2393.732 Z-9.000 F3960.000
G1 X414.148 Y2394.772 Z-9.589 F3960.000
G1 X413.896 Y2395.776 Z-10.195 F3960.000
G1 X413.494 Y2396.726 Z-10.805 F3960.000
G1 X412.949 Y2397.606 Z-11.411 F3960.000
G1 X412.270 Y2398.400 Z-12.000 F3960.000
G2 X408.921 Y2387.035 Z-12.000 I-4.770 J-4.770 F3960.000
G2 X406.079 Y2400.225 Z-12.000 I-1.421 J6.595 F3960.000
G2 X412.270 Y2398.400 Z-12.000 I1.421 J-6.595 F3960.000
G1 X412.949 Y2397.606 Z-12.589 F3960.000
G1 X413.494 Y2396.726 Z-13.195 F3960.000
G1 X413.896 Y2395.776 Z-13.805 F3960.000
G1 X414.148 Y2394.772 Z-14.411 F3960.000
G1 X414.246 Y2393.732 Z-15.000 F3960.000
G1 X414.148 Y2394.772 Z-15.589 F3960.000
G1 X413.896 Y2395.776 Z-16.195 F3960.000
G1 X413.494 Y2396.726 Z-16.805 F3960.000
G1 X412.949 Y2397.606 Z-17.411 F3960.000
G1 X412.270 Y2398.400 Z-18.000 F3960.000
G2 X408.921 Y2387.035 Z-18.000 I-4.770 J-4.770 F3960.000
G2 X406.079 Y2400.225 Z-18.000 I-1.421 J6.595 F3960.000
G2 X412.270 Y2398.400 Z-18.000 I1.421 J-6.595 F3960.000
G1 X412.949 Y2397.606 Z-18.589 F3960.000
G1 X413.494 Y2396.726 Z-19.195 F3960.000
G1 X413.896 Y2395.776 Z-19.805 F3960.000
G1 X414.148 Y2394.772 Z-20.411 F3960.000
G1 X414.246 Y2393.732 Z-21.000 F3960.000
G1 X414.148 Y2394.772 Z-21.589 F3960.000
G1 X413.896 Y2395.776 Z-22.195 F3960.000
G1 X413.494 Y2396.726 Z-22.805 F3960.000
G1 X412.949 Y2397.606 Z-23.411 F3960.000
G1 X412.270 Y2398.400 Z-24.000 F3960.000
G2 X408.921 Y2387.035 Z-24.000 I-4.770 J-4.770 F3960.000
G2 X406.079 Y2400.225 Z-24.000 I-1.421 J6.595 F3960.000
G2 X412.270 Y2398.400 Z-24.000 I1.421 J-6.595 F3960.000
G1 X413.014 Y2397.517 Z-24.664 F3960.000
G1 X413.594 Y2396.524 Z-25.336 F3960.000
G1 X413.999 Y2395.442 Z-26.000 F3960.000
G1 X413.594 Y2396.524 Z-26.664 F3960.000
G1 X413.014 Y2397.517 Z-27.336 F3960.000
G1 X412.270 Y2398.400 Z-28.000 F3960.000
G2 X408.921 Y2387.035 Z-28.000 I-4.770 J-4.770 F3960.000
G2 X406.079 Y2400.225 Z-28.000 I-1.421 J6.595 F3960.000
G2 X412.270 Y2398.400 Z-28.000 I1.421 J-6.595 F3960.000
G0 X412.270 Y2398.400 Z15.165
G0 X289.270 Y2396.630 Z15.165
G0 X289.270 Y2396.630 Z10.165
G1 X290.016 Y2395.647 Z9.632 F3960.000
G1 X290.594 Y2394.597 Z9.024 F3960.000
G1 X290.991 Y2393.501 Z8.355 F3960.000
G1 X291.198 Y2392.383 Z7.638 F3960.000
G1 X291.213 Y2391.267 Z6.889 F3960.000
G1 X291.033 Y2390.177 Z6.124 F3960.000
G1 X290.664 Y2389.136 Z5.358 F3960.000
G1 X290.112 Y2388.166 Z4.609 F3960.000
G1 X289.390 Y2387.288 Z3.892 F3960.000
G1 X288.513 Y2386.520 Z3.223 F3960.000
G1 X287.500 Y2385.879 Z2.615 F3960.000
G1 X286.372 Y2385.378 Z2.082 F3960.000
G1 X287.500 Y2385.879 Z1.550 F3960.000
G1 X288.513 Y2386.520 Z0.942 F3960.000
G1 X289.390 Y2387.288 Z0.273 F3960.000
G1 X290.112 Y2388.166 Z-0.444 F3960.000
G1 X290.664 Y2389.136 Z-1.193 F3960.000
G1 X291.033 Y2390.177 Z-1.959 F3960.000
G1 X291.213 Y2391.267 Z-2.724 F3960.000
G1 X291.198 Y2392.383 Z-3.473 F3960.000
G1 X290.991 Y2393.501 Z-4.190 F3960.000
G1 X290.594 Y2394.597 Z-4.860 F3960.000
G1 X290.016 Y2395.647 Z-5.467 F3960.000
G1 X289.270 Y2396.630 Z-6.000 F3960.000
G2 X285.921 Y2385.265 Z-6.000 I-4.770 J-4.770 F3960.000
